%
(Header)
(Generated by gcodetools from Inkscape.)
(Using default header. To add your own header create file "header" in the output dir.)
M3
(Header end.)
G21 (All units in mm)

(Start cutting path id: path13358)
(Change tool to Default tool)

G00 Z5.000000
G00 X53.253787 Y1.994438

G01 Z-0.125000 F100.0(Penetrate)
G02 X47.465058 Y2.851425 Z-0.125000 I2.821034 J39.034534 F400.000000
G02 X40.445222 Y4.883038 Z-0.125000 I13.426739 J59.537058
G02 X35.679443 Y6.925646 Z-0.125000 I13.730293 J38.616320
G02 X30.536140 Y9.894233 Z-0.125000 I24.264111 J47.979301
G02 X19.689923 Y19.672061 Z-0.125000 I25.882764 J39.615469
G02 X12.517265 Y32.074774 Z-0.125000 I35.355851 J28.722147
G03 X12.037594 Y33.307149 Z-0.125000 I-129.120770 J-49.547496
G03 X11.786172 Y33.926858 Z-0.125000 I-32.893007 J-12.984207
G02 X11.103704 Y35.877388 Z-0.125000 I16.368338 J6.821750
G02 X10.198815 Y39.483108 Z-0.125000 I55.180989 J15.764576
G02 X9.319572 Y45.190543 Z-0.125000 I46.565738 J10.095005
G02 X9.122231 Y51.124774 Z-0.125000 I50.156667 J4.638338
G02 X13.100172 Y68.854141 Z-0.125000 I46.874738 J-1.206345
G02 X23.649315 Y84.034302 Z-0.125000 I44.399704 J-19.599132
G02 X27.106228 Y87.077999 Z-0.125000 I32.171315 J-33.053970
G02 X31.646148 Y90.395495 Z-0.125000 I42.794122 J-53.797673
G03 X32.684034 Y91.915101 Z-0.125000 I-1.375527 J2.053720
G03 X32.227754 Y93.023503 Z-0.125000 I-1.023935 J0.226608
G02 X30.848807 Y94.024905 Z-0.125000 I8.221547 J12.771321
G02 X29.214002 Y95.481760 Z-0.125000 I15.850723 J19.432512
G02 X29.077254 Y95.794881 Z-0.125000 I0.315278 J0.324112
G02 X29.070331 Y101.390788 Z-0.125000 I121.243474 J2.947948
G02 X29.526925 Y108.111840 Z-0.125000 I73.239695 J-1.599494
G02 X30.169861 Y111.008803 Z-0.125000 I14.122860 J-1.614522
G02 X33.195763 Y117.540350 Z-0.125000 I30.847014 J-10.323965
G02 X37.107422 Y122.459690 Z-0.125000 I21.208353 J-12.849151
G02 X41.895785 Y126.189644 Z-0.125000 I19.254807 J-19.780012
G02 X47.697537 Y128.976131 Z-0.125000 I16.266384 J-26.435116
G02 X52.033344 Y130.090829 Z-0.125000 I8.193003 J-22.878286
G02 X57.134343 Y130.493225 Z-0.125000 I5.038955 J-31.343908
G02 X60.470420 Y130.343292 Z-0.125000 I-0.076148 J-38.883983
G02 X62.778787 Y129.995974 Z-0.125000 I-1.667210 J-18.925414
G02 X66.314906 Y129.040193 Z-0.125000 I-7.211575 J-33.699995
G02 X69.377662 Y127.830015 Z-0.125000 I-8.687026 J-26.466127
G02 X78.332004 Y121.143852 Z-0.125000 I-11.526237 J-24.775403
G02 X84.009425 Y111.263985 Z-0.125000 I-21.294010 J-18.807694
G02 X84.885064 Y107.393338 Z-0.125000 I-19.414672 J-6.426464
G02 X85.541311 Y99.102553 Z-0.125000 I-89.115057 J-11.225150
G01 X85.645092 Y95.927553 Z-0.125000
G01 X84.911393 Y95.167395 Z-0.125000
G02 X84.139143 Y94.451221 Z-0.125000 I-6.846860 J6.608513
G02 X82.506761 Y93.173154 Z-0.125000 I-23.537078 J28.380710
G03 X80.951650 Y91.902348 Z-0.125000 I12.181613 J-16.493802
G03 X80.905748 Y91.728450 Z-0.125000 I0.110166 J-0.122086
G03 X81.027364 Y91.557621 Z-0.125000 I0.338765 J0.112468
G03 X82.372367 Y90.604274 Z-0.125000 I13.421557 J17.509973
G02 X83.758067 Y89.674664 Z-0.125000 I-39.166141 J-59.879636
G02 X85.411711 Y88.513501 Z-0.125000 I-59.458983 J-86.435253
G02 X98.054841 Y75.116020 Z-0.125000 I-28.038923 J-39.124544
G02 X104.482664 Y58.356719 Z-0.125000 I-38.626008 J-24.426834
G03 X104.702083 Y57.123762 Z-0.125000 I81.832423 J13.927071
G03 X104.859464 Y56.328247 Z-0.125000 I34.215447 J6.355692
G02 X104.978030 Y55.528169 Z-0.125000 I-6.617515 J-1.389496
G02 X105.188724 Y52.565296 Z-0.125000 I-90.842700 J-7.948880
G02 X104.261716 Y40.012283 Z-0.125000 I-49.069701 J-2.687063
G02 X100.234703 Y28.391272 Z-0.125000 I-45.963059 J9.419275
G02 X85.036382 Y10.733784 Z-0.125000 I-42.811300 J21.479383
G02 X63.219759 Y2.275390 Z-0.125000 I-27.853904 J39.478343
G02 X58.162122 Y1.886525 Z-0.125000 I-6.530332 J51.849886
G02 X53.253787 Y1.994438 Z-0.125000 I-1.379519 J48.933650
G01 X53.253787 Y1.994438 Z-0.125000
G00 Z5.000000

(End cutting path id: path13358)


(Start cutting path id: path13358)
(Change tool to Default tool)

G00 Z5.000000
G00 X55.064742 Y4.337616

G01 Z-0.125000 F100.0(Penetrate)
G03 X54.927600 Y4.496282 Z-0.125000 I-0.254552 J-0.081419 F400.000000
G03 X52.801086 Y5.444632 Z-0.125000 I-14.474016 J-29.597154
G02 X50.615657 Y6.348908 Z-0.125000 I54.216716 J134.122434
G02 X49.572401 Y6.811632 Z-0.125000 I13.112027 J30.969745
G03 X48.532165 Y7.272557 Z-0.125000 I-13.811416 J-29.765932
G03 X48.425874 Y7.296067 Z-0.125000 I-0.116987 J-0.276885
G02 X47.457117 Y7.660319 Z-0.125000 I0.056558 J1.620788
G02 X47.570560 Y7.993776 Z-0.125000 I0.118812 J0.145606
G02 X47.853427 Y7.943782 Z-0.125000 I0.019988 J-0.712133
G02 X50.431565 Y6.857776 Z-0.125000 I-24.879028 J-62.665063
G03 X55.124620 Y5.005019 Z-0.125000 I23.669939 J53.086081
G03 X57.828197 Y4.302846 Z-0.125000 I5.816082 J16.837789
G03 X61.306647 Y3.982844 Z-0.125000 I3.642295 J20.526563
G03 X62.302066 Y4.267709 Z-0.125000 I0.014393 J1.831308
G03 X62.284059 Y4.503825 Z-0.125000 I-0.071842 J0.113265
G03 X59.435306 Y5.523965 Z-0.125000 I-8.789708 J-20.057697
G02 X56.806883 Y6.297114 Z-0.125000 I32.751728 J116.198340
G02 X55.597504 Y6.700324 Z-0.125000 I7.661205 J24.994128
G02 X51.605310 Y8.356805 Z-0.125000 I15.565700 J43.152962
G02 X51.401704 Y8.677855 Z-0.125000 I0.151315 J0.321050
G02 X51.875019 Y9.141868 Z-0.125000 I0.464105 J0.000000
G02 X59.162815 Y8.523790 Z-0.125000 I-1.121468 J-56.497717
G02 X64.038112 Y7.214932 Z-0.125000 I-3.333645 J-22.151618
G02 X66.298265 Y5.713477 Z-0.125000 I-2.371857 J-6.022218
G03 X67.035050 Y5.092911 Z-0.125000 I3.539278 J3.454444
G03 X67.337049 Y4.999088 Z-0.125000 I0.301999 J0.439126
G03 X69.297858 Y5.313752 Z-0.125000 I0.000000 J6.266663
G03 X74.707172 Y7.427046 Z-0.125000 I-16.770314 J50.905954
G03 X75.994748 Y8.383658 Z-0.125000 I-1.575072 J3.464837
G03 X76.198759 Y9.129410 Z-0.125000 I-0.665057 J0.582717
G03 X74.783236 Y11.641258 Z-0.125000 I-4.401752 J-0.825782
G03 X72.339666 Y12.582145 Z-0.125000 I-2.462815 J-2.752623
G03 X71.988324 Y12.495175 Z-0.125000 I-0.000000 J-0.753158
G03 X68.834726 Y10.731727 Z-0.125000 I34.335093 J-65.103466
G02 X65.377080 Y8.814310 Z-0.125000 I-35.848677 J60.569037
G02 X64.921528 Y8.703255 Z-0.125000 I-0.455552 J0.878818
G02 X63.649153 Y8.970359 Z-0.125000 I-0.000000 J3.164088
G02 X62.970724 Y9.560025 Z-0.125000 I0.608284 J1.384961
G02 X62.985433 Y9.800623 Z-0.125000 I0.177795 J0.109879
G02 X65.286828 Y12.449586 Z-0.125000 I34.559270 J-27.700587
G03 X66.278901 Y14.135330 Z-0.125000 I-3.220797 J3.030255
G03 X65.997884 Y14.677589 Z-0.125000 I-0.410742 J0.131086
G03 X61.940984 Y15.516013 Z-0.125000 I-6.130234 J-19.428178
G03 X53.722078 Y15.933450 Z-0.125000 I-8.182255 J-79.980630
G03 X44.264922 Y15.389792 Z-0.125000 I0.038172 J-83.191472
G03 X42.299978 Y14.621145 Z-0.125000 I0.471052 J-4.100064
G03 X42.212797 Y14.168342 Z-0.125000 I0.199813 J-0.273265
G03 X44.160274 Y11.647425 Z-0.125000 I13.696468 J8.568198
G02 X45.755976 Y9.734438 Z-0.125000 I-14.786316 J-13.955895
G02 X45.748691 Y9.486676 Z-0.125000 I-0.162175 J-0.119220
G02 X44.667141 Y9.200296 Z-0.125000 I-0.741677 J0.615543
G02 X39.699701 Y11.766156 Z-0.125000 I8.487016 J22.521997
G03 X37.950237 Y12.892640 Z-0.125000 I-27.552266 J-40.867806
G03 X37.794760 Y12.936588 Z-0.125000 I-0.155477 J-0.253040
G03 X36.646729 Y12.488200 Z-0.125000 I-0.000000 J-1.693874
G03 X35.442350 Y10.768275 Z-0.125000 I3.332092 J-3.614946
G03 X35.575645 Y9.744638 Z-0.125000 I0.949916 J-0.396802
G03 X37.275347 Y8.380280 Z-0.125000 I3.640618 J2.794526
G03 X43.877799 Y5.716030 Z-0.125000 I28.368844 J60.789582
G03 X46.087634 Y5.357426 Z-0.125000 I2.152122 J6.273909
G01 X46.727398 Y5.363070 Z-0.125000
G01 X46.283268 Y5.754371 Z-0.125000
G03 X45.832677 Y6.137841 Z-0.125000 I-11.389914 J-12.927090
G03 X45.313129 Y6.551706 Z-0.125000 I-13.810823 J-16.804492
G02 X45.163280 Y6.769778 Z-0.125000 I0.263834 J0.341816
G02 X45.228093 Y6.835988 Z-0.125000 I0.050725 J0.015173
G02 X45.658049 Y6.685267 Z-0.125000 I-0.895719 J-3.243802
G02 X46.727398 Y6.193368 Z-0.125000 I-8.841082 J-20.628107
G03 X50.105725 Y4.666012 Z-0.125000 I25.000076 J50.797221
G03 X51.313509 Y4.298302 Z-0.125000 I2.506777 J6.066393
G03 X54.798180 Y3.968515 Z-0.125000 I3.309081 J16.390011
G03 X55.064742 Y4.337700 Z-0.125000 I-0.002972 J0.282971
G01 X55.064742 Y4.337616 Z-0.125000
G00 Z5.000000

(End cutting path id: path13358)


(Start cutting path id: path13358)
(Change tool to Default tool)

G00 Z5.000000
G00 X47.710257 Y10.826469

G01 Z-0.125000 F100.0(Penetrate)
G02 X46.381645 Y12.206860 Z-0.125000 I4.394308 J5.559060 F400.000000
G02 X46.412421 Y12.603961 Z-0.125000 I0.247309 J0.180576
G02 X47.129886 Y12.927330 Z-0.125000 I0.785762 J-0.785773
G02 X53.606565 Y13.046965 Z-0.125000 I4.627641 J-75.152779
G02 X61.037215 Y12.632570 Z-0.125000 I-2.935191 J-119.459717
G02 X61.988460 Y12.317111 Z-0.125000 I-0.187973 J-2.158752
G02 X62.083224 Y12.044166 Z-0.125000 I-0.120333 J-0.194701
G02 X61.499968 Y10.974213 Z-0.125000 I-3.826332 J1.391870
G01 X60.838509 Y10.102880 Z-0.125000
G01 X58.810037 Y10.240915 Z-0.125000
G03 X52.264004 Y10.467026 Z-0.125000 I-6.655726 J-97.818041
G03 X49.427190 Y10.251357 Z-0.125000 I-0.020690 J-18.492775
G02 X48.650368 Y10.317670 Z-0.125000 I-0.251766 J1.633869
G02 X47.710257 Y10.826441 Z-0.125000 I0.987049 J2.946836
G01 X47.710257 Y10.826469 Z-0.125000
G00 Z5.000000

(End cutting path id: path13358)


(Start cutting path id: path13358)
(Change tool to Default tool)

G00 Z5.000000
G00 X38.966287 Y28.270506

G01 Z-0.125000 F100.0(Penetrate)
G02 X37.813334 Y29.500382 Z-0.125000 I0.814294 J1.918722 F400.000000
G02 X37.987797 Y31.064935 Z-0.125000 I1.715529 J0.600705
G02 X39.139972 Y31.780300 Z-0.125000 I1.304883 J-0.816124
G02 X40.509690 Y31.316401 Z-0.125000 I0.173638 J-1.741391
G02 X40.853668 Y30.801066 Z-0.125000 I-0.929798 J-0.993094
G02 X40.994759 Y30.023137 Z-0.125000 I-2.074073 J-0.777929
G02 X40.287699 Y28.477805 Z-0.125000 I-2.042250 J-0.000000
G02 X38.966287 Y28.270506 Z-0.125000 I-0.827149 J0.957332
G01 X38.966287 Y28.270506 Z-0.125000
G00 Z5.000000

(End cutting path id: path13358)


(Start cutting path id: path13358)
(Change tool to Default tool)

G00 Z5.000000
G00 X39.965229 Y29.598105

G01 Z-0.125000 F100.0(Penetrate)
G03 X40.033425 Y30.021962 Z-0.125000 I-0.737662 J0.336100 F400.000000
G03 X39.869186 Y30.480049 Z-0.125000 I-1.035468 J-0.112761
G03 X39.164325 Y30.711694 Z-0.125000 I-0.497655 J-0.326076
G03 X38.701704 Y30.046302 Z-0.125000 I0.247209 J-0.665392
G03 X39.236598 Y29.289015 Z-0.125000 I0.803519 J-0.000000
G03 X39.965229 Y29.598105 Z-0.125000 I0.195763 J0.551881
G01 X39.965229 Y29.598105 Z-0.125000
G00 Z5.000000

(End cutting path id: path13358)


(Start cutting path id: path13358)
(Change tool to Default tool)

G00 Z5.000000
G00 X40.679506 Y36.085982

G01 Z-0.125000 F100.0(Penetrate)
G03 X45.316936 Y43.302512 Z-0.125000 I-114.898875 J78.933717 F400.000000
G03 X45.580870 Y44.255452 Z-0.125000 I-1.588335 J0.952940
G03 X44.373753 Y46.207117 Z-0.125000 I-2.181283 J0.000000
G03 X40.957497 Y46.563186 Z-0.125000 I-2.182395 J-4.372259
G03 X40.424819 Y46.212124 Z-0.125000 I0.250405 J-0.959605
G03 X36.855163 Y41.284250 Z-0.125000 I71.243813 J-55.364465
G03 X36.360306 Y39.109954 Z-0.125000 I2.560552 J-1.726227
G03 X37.533349 Y36.659661 Z-0.125000 I4.534749 J0.665010
G03 X39.484624 Y35.588875 Z-0.125000 I2.582993 J2.393665
G03 X40.679506 Y36.085982 Z-0.125000 I0.213570 J1.171253
G01 X40.679506 Y36.085982 Z-0.125000
G00 Z5.000000

(End cutting path id: path13358)


(Start cutting path id: path13358)
(Change tool to Default tool)

G00 Z5.000000
G00 X22.473924 Y41.164503

G01 Z-0.125000 F100.0(Penetrate)
G03 X25.169162 Y42.388752 Z-0.125000 I-2.848417 J9.849879 F400.000000
G03 X28.366113 Y44.951383 Z-0.125000 I-10.620141 J16.524371
G03 X29.922318 Y46.579127 Z-0.125000 I-28.626297 J28.925958
G03 X30.478174 Y47.286606 Z-0.125000 I-4.817608 J4.357230
G01 X30.985895 Y48.034105 Z-0.125000
G01 X30.280421 Y48.962080 Z-0.125000
G03 X29.558751 Y49.876352 Z-0.125000 I-25.490078 J-19.378351
G03 X29.145995 Y50.346710 Z-0.125000 I-7.147701 J-5.856073
G02 X26.269560 Y53.542526 Z-0.125000 I73.657146 J69.188472
G02 X26.178091 Y53.788673 Z-0.125000 I0.285464 J0.246147
G02 X26.649431 Y55.592679 Z-0.125000 I3.687993 J0.000000
G02 X27.952072 Y56.951848 Z-0.125000 I3.279410 J-1.839202
G02 X28.587137 Y56.991989 Z-0.125000 I0.355121 J-0.574607
G02 X30.852398 Y55.631093 Z-0.125000 I-4.828058 J-10.602232
G03 X33.016621 Y54.285654 Z-0.125000 I7.893571 J10.283937
G03 X34.091742 Y54.035191 Z-0.125000 I1.075121 J2.182271
G03 X34.600524 Y54.356358 Z-0.125000 I0.000000 J0.563582
G03 X36.108764 Y58.268525 Z-0.125000 I-24.707566 J11.772212
G03 X37.034044 Y62.544806 Z-0.125000 I-26.822240 J8.041902
G03 X37.377466 Y67.617136 Z-0.125000 I-37.464665 J5.084336
G03 X37.253521 Y71.746835 Z-0.125000 I-68.122329 J0.022141
G03 X37.047187 Y73.085191 Z-0.125000 I-7.306564 J-0.441365
G03 X35.988474 Y76.199070 Z-0.125000 I-19.441385 J-4.873114
G03 X35.295341 Y77.117196 Z-0.125000 I-2.248966 J-0.977142
G03 X34.853676 Y77.149494 Z-0.125000 I-0.243724 J-0.296894
G03 X31.479634 Y74.822850 Z-0.125000 I16.954226 J-28.196408
G02 X28.510956 Y72.919707 Z-0.125000 I-11.372009 J14.472019
G02 X27.934899 Y73.003781 Z-0.125000 I-0.229028 J0.446296
G02 X27.488385 Y73.536227 Z-0.125000 I2.210181 J2.306930
G02 X27.412813 Y73.785430 Z-0.125000 I0.373098 J0.249203
G02 X27.494114 Y74.038072 Z-0.125000 I0.433194 J-0.000000
G02 X29.179362 Y76.245959 Z-0.125000 I38.540442 J-27.670257
G03 X31.632268 Y80.174434 Z-0.125000 I-14.654219 J11.879992
G03 X31.358270 Y80.933729 Z-0.125000 I-0.519683 J0.241553
G03 X30.718951 Y81.103126 Z-0.125000 I-0.774637 J-1.632425
G03 X28.241013 Y81.167838 Z-0.125000 I-1.900789 J-25.309936
G01 X25.737119 Y81.110886 Z-0.125000
G01 X24.149619 Y80.317136 Z-0.125000
G03 X21.613526 Y78.510455 Z-0.125000 I4.500227 J-9.000443
G03 X18.722068 Y75.008369 Z-0.125000 I14.967685 J-15.302596
G03 X17.278218 Y72.330211 Z-0.125000 I14.208711 J-9.388487
G03 X17.004147 Y71.001138 Z-0.125000 I3.113789 J-1.334896
G02 X16.239419 Y67.847223 Z-0.125000 I-6.937853 J0.012548
G02 X14.996653 Y67.087969 Z-0.125000 I-1.242767 J0.637469
G03 X14.551005 Y66.820259 Z-0.125000 I0.000000 J-0.504782
G03 X13.324782 Y63.945199 Z-0.125000 I16.109118 J-8.569617
G03 X10.890883 Y52.210382 Z-0.125000 I50.541080 J-16.602455
G03 X11.812686 Y47.488908 Z-0.125000 I8.535475 J-0.784287
G03 X12.135500 Y47.155332 Z-0.125000 I0.716771 J0.370657
G03 X12.413622 Y47.152739 Z-0.125000 I0.141430 J0.252819
G03 X13.144246 Y47.888254 Z-0.125000 I-0.834866 J1.559956
G03 X14.435773 Y50.992483 Z-0.125000 I-16.465645 J8.671381
G02 X14.786488 Y51.240674 Z-0.125000 I0.338214 J-0.106035
G02 X15.409216 Y50.958131 Z-0.125000 I-0.031667 J-0.897318
G02 X15.644231 Y50.346398 Z-0.125000 I-0.632145 J-0.593866
G02 X15.316345 Y46.450469 Z-0.125000 I-30.865772 J0.635930
G03 X15.118445 Y44.771005 Z-0.125000 I27.854748 J-4.133662
G03 X15.066632 Y43.596161 Z-0.125000 I13.566604 J-1.186880
G03 X15.243696 Y42.509281 Z-0.125000 I3.403018 J-0.003477
G03 X15.586999 Y42.046270 Z-0.125000 I0.884522 J0.297057
G03 X18.603669 Y40.865587 Z-0.125000 I3.862318 J5.424133
G03 X22.473924 Y41.164503 Z-0.125000 I1.214220 J9.483490
G01 X22.473924 Y41.164503 Z-0.125000
G00 Z5.000000

(End cutting path id: path13358)


(Start cutting path id: path13358)
(Change tool to Default tool)

G00 Z5.000000
G00 X18.152397 Y43.225947

G01 Z-0.125000 F100.0(Penetrate)
G02 X17.550409 Y43.751519 Z-0.125000 I0.205291 J0.842684 F400.000000
G02 X17.182258 Y45.695654 Z-0.125000 I4.949231 J1.944135
G02 X17.592930 Y47.803757 Z-0.125000 I5.616091 J0.000000
G02 X18.202700 Y48.215379 Z-0.125000 I0.610797 J-0.247362
G03 X20.879026 Y48.704163 Z-0.125000 I-0.011937 J7.636845
G03 X23.833733 Y50.333124 Z-0.125000 I-4.134506 J10.993605
G01 X25.027877 Y51.237116 Z-0.125000
G01 X25.382498 Y50.790649 Z-0.125000
G02 X25.717751 Y50.330465 Z-0.125000 I-5.355699 J-4.253942
G02 X26.685470 Y48.836076 Z-0.125000 I-55.638021 J-37.089964
G01 X27.633822 Y47.327971 Z-0.125000
G01 X26.791033 Y46.580539 Z-0.125000
G02 X23.707419 Y44.383199 Z-0.125000 I-11.830500 J13.339859
G02 X21.116187 Y43.385804 Z-0.125000 I-4.703386 J8.354681
G02 X19.239068 Y43.125098 Z-0.125000 I-2.484538 J11.000938
G02 X18.152397 Y43.225947 Z-0.125000 I-0.201430 J3.734544
G01 X18.152397 Y43.225947 Z-0.125000
G00 Z5.000000

(End cutting path id: path13358)


(Start cutting path id: path13358)
(Change tool to Default tool)

G00 Z5.000000
G00 X17.752818 Y51.642381

G01 Z-0.125000 F100.0(Penetrate)
G02 X17.229475 Y51.953346 Z-0.125000 I1.144732 J2.522410 F400.000000
G02 X17.083387 Y52.147331 Z-0.125000 I0.265432 J0.351895
G02 X17.063690 Y52.959895 Z-0.125000 I1.130787 J0.433931
G02 X18.789434 Y57.331183 Z-0.125000 I38.462020 J-12.658151
G01 X19.295236 Y58.422313 Z-0.125000
G01 X20.678494 Y58.389516 Z-0.125000
G03 X22.011342 Y58.525425 Z-0.125000 I0.127032 J5.357724
G03 X22.827998 Y58.885886 Z-0.125000 I-0.535287 J2.318071
G03 X24.987716 Y61.124270 Z-0.125000 I-4.472751 J6.476661
G03 X26.322191 Y64.353941 Z-0.125000 I-8.371587 J5.349608
G03 X26.487220 Y65.240306 Z-0.125000 I-14.228070 J3.107618
G03 X26.628117 Y66.336239 Z-0.125000 I-21.620196 J3.336593
G02 X27.187043 Y67.989964 Z-0.125000 I3.920227 J-0.403642
G02 X27.822860 Y68.288195 Z-0.125000 I0.544043 J-0.332995
G02 X28.224600 Y67.898849 Z-0.125000 I-0.068751 J-0.472877
G02 X28.411740 Y64.971302 Z-0.125000 I-12.936254 J-2.296689
G02 X27.659646 Y60.769008 Z-0.125000 I-16.565677 J0.796349
G02 X25.689138 Y56.358148 Z-0.125000 I-20.250634 J6.401187
G02 X23.468088 Y53.427118 Z-0.125000 I-13.872067 J8.204813
G02 X21.539379 Y52.016408 Z-0.125000 I-4.919242 J4.701728
G02 X19.314061 Y51.384365 Z-0.125000 I-2.866475 J5.858871
G02 X17.752818 Y51.642381 Z-0.125000 I-0.300005 J3.037185
G01 X17.752818 Y51.642381 Z-0.125000
G00 Z5.000000

(End cutting path id: path13358)


(Start cutting path id: path13358)
(Change tool to Default tool)

G00 Z5.000000
G00 X15.786951 Y53.437803

G01 Z-0.125000 F100.0(Penetrate)
G02 X15.477885 Y53.950379 Z-0.125000 I1.902968 J1.496892 F400.000000
G02 X15.017994 Y55.165858 Z-0.125000 I10.428303 J4.640411
G02 X14.499032 Y58.565926 Z-0.125000 I10.743770 J3.379493
G02 X15.031484 Y62.537819 Z-0.125000 I15.288971 J-0.027930
G02 X17.555820 Y68.264004 Z-0.125000 I20.138653 J-5.458432
G02 X20.852053 Y71.704456 Z-0.125000 I10.210993 J-6.483706
G02 X21.590858 Y71.533736 Z-0.125000 I0.292216 J-0.419393
G02 X22.074555 Y69.508973 Z-0.125000 I-3.365952 J-1.874250
G02 X21.816832 Y67.035862 Z-0.125000 I-19.197326 J0.750565
G02 X21.431449 Y65.730624 Z-0.125000 I-5.673803 J0.965728
G03 X20.943386 Y64.449765 Z-0.125000 I15.160035 J-6.510047
G03 X20.886447 Y64.099727 Z-0.125000 I1.047473 J-0.350038
G02 X20.712121 Y63.140018 Z-0.125000 I-2.728883 J-0.000000
G02 X19.225882 Y59.679636 Z-0.125000 I-38.080763 J14.306373
G03 X17.297225 Y55.440066 Z-0.125000 I83.651018 J-40.612840
G03 X16.756940 Y53.870667 Z-0.125000 I10.868005 J-4.619145
G02 X16.283200 Y53.315175 Z-0.125000 I-0.819390 J0.219045
G02 X15.786974 Y53.437803 Z-0.125000 I-0.169438 J0.379680
G01 X15.786951 Y53.437803 Z-0.125000
G00 Z5.000000

(End cutting path id: path13358)


(Start cutting path id: path13358)
(Change tool to Default tool)

G00 Z5.000000
G00 X30.188340 Y61.663570

G01 Z-0.125000 F100.0(Penetrate)
G02 X30.097121 Y63.178774 Z-0.125000 I2.350147 J0.901833 F400.000000
G02 X30.744440 Y63.876983 Z-0.125000 I0.960497 J-0.241316
G02 X30.859685 Y63.806022 Z-0.125000 I0.027912 J-0.083734
G02 X30.858401 Y63.097759 Z-0.125000 I-2.391718 J-0.349796
G02 X30.423288 Y61.655266 Z-0.125000 I-5.187757 J0.777962
G02 X30.188340 Y61.663570 Z-0.125000 I-0.115710 J0.054060
G01 X30.188340 Y61.663570 Z-0.125000
G00 Z5.000000

(End cutting path id: path13358)


(Start cutting path id: path13358)
(Change tool to Default tool)

G00 Z5.000000
G00 X32.045371 Y61.816656

G01 Z-0.125000 F100.0(Penetrate)
G02 X32.613718 Y64.039147 Z-0.125000 I7.908757 J-0.838551 F400.000000
G02 X32.971627 Y64.037821 Z-0.125000 I0.178681 J-0.074512
G02 X33.119324 Y61.940657 Z-0.125000 I-3.118488 J-1.273408
G02 X32.192285 Y60.947739 Z-0.125000 I-1.363612 J0.343913
G02 X32.069968 Y61.021698 Z-0.125000 I-0.029289 J0.089687
G02 X32.045374 Y61.816656 Z-0.125000 I2.880252 J0.486967
G01 X32.045371 Y61.816656 Z-0.125000
G00 Z5.000000

(End cutting path id: path13358)


(Start cutting path id: path13358)
(Change tool to Default tool)

G00 Z5.000000
G00 X31.054472 Y66.406157

G01 Z-0.125000 F100.0(Penetrate)
G02 X30.982886 Y66.824682 Z-0.125000 I11.108646 J2.115438 F400.000000
G02 X30.790354 Y68.146302 Z-0.125000 I110.642513 J16.793094
G03 X30.581044 Y69.464858 Z-0.125000 I-35.289428 J-4.926035
G03 X30.309586 Y70.847110 Z-0.125000 I-39.055128 J-6.952180
G01 X30.013484 Y72.225001 Z-0.125000
G01 X30.520395 Y72.754097 Z-0.125000
G02 X31.061616 Y73.242733 Z-0.125000 I3.637905 J-3.485348
G02 X32.437525 Y74.247995 Z-0.125000 I16.910759 J-21.701637
G02 X33.807614 Y74.978608 Z-0.125000 I3.989292 J-5.831012
G02 X34.075215 Y74.901712 Z-0.125000 I0.084220 J-0.210988
G02 X34.687686 Y73.542315 Z-0.125000 I-2.913281 J-2.130239
G02 X35.441966 Y68.650320 Z-0.125000 I-38.856978 J-8.495376
G02 X34.991777 Y67.212299 Z-0.125000 I-1.954001 J-0.177756
G02 X33.567517 Y66.413636 Z-0.125000 I-1.765949 J1.479949
G03 X32.265296 Y66.207960 Z-0.125000 I12.531271 J-83.566032
G03 X31.698715 Y66.103510 Z-0.125000 I2.641450 J-15.917326
G02 X31.247241 Y66.157723 Z-0.125000 I-0.143849 J0.709053
G02 X31.054472 Y66.406157 Z-0.125000 I0.147110 J0.313154
G01 X31.054472 Y66.406157 Z-0.125000
G00 Z5.000000

(End cutting path id: path13358)


(Start cutting path id: path13358)
(Change tool to Default tool)

G00 Z5.000000
G00 X52.938376 Y78.720489

G01 Z-0.125000 F100.0(Penetrate)
G02 X52.271691 Y79.715519 Z-0.125000 I1.537262 J1.750846 F400.000000
G02 X52.358877 Y80.410295 Z-0.125000 I0.753285 J0.258330
G02 X54.762716 Y81.522877 Z-0.125000 I2.094602 J-1.372434
G02 X56.306170 Y79.919092 Z-0.125000 I-0.218360 J-1.754734
G02 X56.199066 Y79.362748 Z-0.125000 I-1.036991 J-0.088847
G02 X55.760973 Y78.834659 Z-0.125000 I-1.363874 J0.685684
G02 X55.123412 Y78.470655 Z-0.125000 I-1.680855 J2.203704
G02 X54.369118 Y78.269125 Z-0.125000 I-1.179985 J2.904126
G02 X53.627839 Y78.332054 Z-0.125000 I-0.230528 J1.681917
G02 X52.938376 Y78.720489 Z-0.125000 I0.577921 J1.831908
G01 X52.938376 Y78.720489 Z-0.125000
G00 Z5.000000

(End cutting path id: path13358)


(Start cutting path id: path13358)
(Change tool to Default tool)

G00 Z5.000000
G00 X54.764689 Y79.441397

G01 Z-0.125000 F100.0(Penetrate)
G03 X54.858863 Y80.176273 Z-0.125000 I-0.214594 J0.400972 F400.000000
G03 X53.782954 Y80.349230 Z-0.125000 I-0.667979 J-0.722355
G03 X53.429261 Y79.928680 Z-0.125000 I0.265198 J-0.582045
G03 X53.553648 Y79.470469 Z-0.125000 I0.462034 J-0.120564
G03 X54.029881 Y79.266478 Z-0.125000 I0.492963 J0.492963
G03 X54.764689 Y79.441397 Z-0.125000 I0.035561 J1.481478
G01 X54.764689 Y79.441397 Z-0.125000
G00 Z5.000000

(End cutting path id: path13358)


(Start cutting path id: path13358)
(Change tool to Default tool)

G00 Z5.000000
G00 X56.829743 Y68.835111

G01 Z-0.125000 F100.0(Penetrate)
G03 X61.783794 Y69.041596 Z-0.125000 I-4.206545 J160.457413 F400.000000
G03 X61.976892 Y69.129342 Z-0.125000 I-0.016762 J0.293233
G03 X62.084523 Y69.320667 Z-0.125000 I-0.302294 J0.295994
G03 X62.604131 Y71.585886 Z-0.125000 I-45.943033 J11.730861
G02 X66.593548 Y81.073767 Z-0.125000 I25.756286 J-5.247208
G02 X72.266412 Y85.859136 Z-0.125000 I11.317700 J-7.661520
G02 X77.320107 Y86.978821 Z-0.125000 I5.182937 J-11.428416
G02 X83.945454 Y85.979428 Z-0.125000 I0.216553 J-21.025030
G03 X85.079285 Y85.860078 Z-0.125000 I0.854138 J2.668951
G03 X85.200363 Y86.105308 Z-0.125000 I-0.016095 J0.160452
G03 X84.627006 Y86.697740 Z-0.125000 I-1.640168 J-1.013693
G03 X79.606564 Y89.820780 Z-0.125000 I-54.864933 J-82.601296
G01 X77.737118 Y90.907770 Z-0.125000
G01 X75.020453 Y90.278333 Z-0.125000
G02 X67.739182 Y89.081978 Z-0.125000 I-12.855051 J55.482711
G02 X58.056783 Y88.610143 Z-0.125000 I-9.619615 J97.820643
G02 X48.788916 Y89.022101 Z-0.125000 I0.067503 J105.974641
G02 X40.966125 Y90.121530 Z-0.125000 I6.769365 J76.546759
G03 X37.845843 Y90.673592 Z-0.125000 I-18.882131 J-97.628753
G03 X37.212832 Y90.724080 Z-0.125000 I-0.633011 J-3.943036
G03 X36.237460 Y90.506214 Z-0.125000 I-0.000000 J-2.292266
G03 X32.888448 Y88.690779 Z-0.125000 I14.171137 J-30.138873
G03 X30.734233 Y87.174430 Z-0.125000 I11.677660 J-18.878343
G03 X30.780962 Y87.011797 Z-0.125000 I0.057068 J-0.071632
G03 X30.852576 Y87.005822 Z-0.125000 I0.136135 J1.199537
G03 X33.637189 Y86.858937 Z-0.125000 I96.761711 J1807.916145
G02 X36.371777 Y86.521193 Z-0.125000 I-1.008652 J-19.406035
G02 X37.782328 Y86.045217 Z-0.125000 I-1.092696 J-5.566259
G02 X41.163469 Y83.368768 Z-0.125000 I-4.510549 J-9.172059
G02 X43.876338 Y78.641441 Z-0.125000 I-12.607398 J-10.377085
G02 X44.691150 Y75.818111 Z-0.125000 I-19.073073 J-7.033722
G02 X45.332704 Y71.762275 Z-0.125000 I-38.834535 J-8.221519
G03 X45.703740 Y68.969885 Z-0.125000 I51.949832 J5.481935
G03 X45.824922 Y68.693972 Z-0.125000 I0.590312 J0.094698
G03 X46.074017 Y68.567424 Z-0.125000 I0.261741 J0.206775
G03 X48.931003 Y68.576130 Z-0.125000 I1.322296 J34.853711
G02 X51.843250 Y68.688002 Z-0.125000 I11.409242 J-259.041646
G02 X56.829743 Y68.835111 Z-0.125000 I24.898440 J-759.388266
G01 X56.829743 Y68.835111 Z-0.125000
G00 Z5.000000

(End cutting path id: path13358)


(Start cutting path id: path13358)
(Change tool to Default tool)

G00 Z5.000000
G00 X53.759165 Y53.166048

G01 Z-0.125000 F100.0(Penetrate)
G03 X54.159617 Y53.878038 Z-0.125000 I-0.661077 J0.840426 F400.000000
G03 X53.932004 Y54.594567 Z-0.125000 I-0.899154 J0.108790
G03 X53.293911 Y54.861430 Z-0.125000 I-0.603121 J-0.545815
G03 X52.515502 Y54.533613 Z-0.125000 I0.052151 J-1.211915
G03 X52.249735 Y53.946567 Z-0.125000 I0.578175 J-0.615433
G03 X52.472839 Y53.265230 Z-0.125000 I1.044614 J-0.035137
G03 X53.057396 Y52.952971 Z-0.125000 I0.647931 J0.509662
G03 X53.759165 Y53.166048 Z-0.125000 I0.077611 J1.006566
G01 X53.759165 Y53.166048 Z-0.125000
G00 Z5.000000

(End cutting path id: path13358)


(Start cutting path id: path13358)
(Change tool to Default tool)

G00 Z5.000000
G00 X51.922762 Y52.403594

G01 Z-0.125000 F100.0(Penetrate)
G02 X51.408506 Y54.792223 Z-0.125000 I1.382681 J1.547355 F400.000000
G02 X53.479356 Y55.913462 Z-0.125000 I1.762083 J-0.781467
G02 X54.382845 Y55.502809 Z-0.125000 I-0.302668 J-1.865130
G02 X55.039805 Y54.619425 Z-0.125000 I-1.484186 J-1.789746
G02 X55.117718 Y53.505946 Z-0.125000 I-1.583402 J-0.670259
G02 X54.460058 Y52.446373 Z-0.125000 I-2.073739 J0.553250
G02 X53.158918 Y51.943659 Z-0.125000 I-1.335257 J1.520771
G02 X51.922762 Y52.403594 Z-0.125000 I-0.030503 J1.809179
G01 X51.922762 Y52.403594 Z-0.125000
G00 Z5.000000

(End cutting path id: path13358)


(Start cutting path id: path13358)
(Change tool to Default tool)

G00 Z5.000000
G00 X74.592353 Y57.342483

G01 Z-0.125000 F100.0(Penetrate)
G02 X74.295214 Y58.180723 Z-0.125000 I315.377682 J112.266661 F400.000000
G02 X74.140947 Y58.621302 Z-0.125000 I87.118565 J30.751531
G02 X73.144562 Y63.847164 Z-0.125000 I17.287130 J6.003955
G02 X73.683044 Y69.381025 Z-0.125000 I19.970351 J0.849880
G02 X75.141057 Y73.980259 Z-0.125000 I33.314129 J-8.030262
G02 X75.641088 Y74.319914 Z-0.125000 I0.500030 J-0.198239
G02 X75.852834 Y74.255056 Z-0.125000 I-0.000000 J-0.378084
G02 X77.440819 Y73.103262 Z-0.125000 I-16.615003 J-24.577768
G02 X80.064885 Y70.728598 Z-0.125000 I-14.497329 J-18.657091
G02 X80.557052 Y69.826464 Z-0.125000 I-1.443666 J-1.372925
G03 X80.931882 Y69.092894 Z-0.125000 I1.727434 J0.420115
G03 X81.550914 Y68.661242 Z-0.125000 I1.135142 J0.968204
G02 X82.253752 Y68.296473 Z-0.125000 I-1.094157 J-2.967722
G02 X82.451638 Y68.039414 Z-0.125000 I-0.301602 J-0.436871
G02 X82.741077 Y66.561284 Z-0.125000 I-4.674465 J-1.682733
G02 X82.690609 Y62.241759 Z-0.125000 I-40.831339 J-1.682997
G02 X82.143526 Y60.275085 Z-0.125000 I-4.961619 J0.320777
G02 X81.454408 Y59.856025 Z-0.125000 I-0.689118 J0.357076
G03 X80.944508 Y59.700067 Z-0.125000 I-0.000000 J-0.911536
G03 X80.599628 Y59.279179 Z-0.125000 I0.531009 J-0.786858
G02 X80.310266 Y58.736517 Z-0.125000 I-3.019819 J1.261766
G02 X80.009834 Y58.386699 Z-0.125000 I-1.535142 J1.014501
G02 X77.745529 Y56.983820 Z-0.125000 I-4.967734 J5.489345
G02 X75.211610 Y56.504636 Z-0.125000 I-2.533919 J6.460069
G02 X74.974852 Y56.624054 Z-0.125000 I-0.000000 J0.294407
G02 X74.592353 Y57.342483 Z-0.125000 I2.230533 J1.648599
G01 X74.592353 Y57.342483 Z-0.125000
G00 Z5.000000

(End cutting path id: path13358)


(Start cutting path id: path13358)
(Change tool to Default tool)

G00 Z5.000000
G00 X85.061617 Y54.498640

G01 Z-0.125000 F100.0(Penetrate)
G02 X84.469370 Y54.821517 Z-0.125000 I1.226112 J2.953644 F400.000000
G02 X84.320507 Y55.010887 Z-0.125000 I0.231872 J0.335467
G02 X84.244344 Y55.837663 Z-0.125000 I1.429588 J0.548591
G02 X84.966683 Y58.508515 Z-0.125000 I16.721340 J-3.089228
G03 X85.201216 Y59.618555 Z-0.125000 I-3.897992 J1.403377
G03 X85.356565 Y64.001163 Z-0.125000 I-61.742129 J4.382609
G03 X85.306966 Y68.408749 Z-0.125000 I-195.862301 J0.000000
G03 X85.222281 Y69.966808 Z-0.125000 I-24.536502 J-0.552297
G01 X85.088000 Y71.522727 Z-0.125000
G01 X85.486864 Y71.403581 Z-0.125000
G02 X85.859434 Y71.239294 Z-0.125000 I-0.467294 J-1.564329
G02 X86.219801 Y70.963899 Z-0.125000 I-1.041941 J-1.736900
G02 X86.586842 Y70.169746 Z-0.125000 I-0.830790 J-0.865870
G02 X86.821487 Y60.914358 Z-0.125000 I-134.144644 J-8.031542
G02 X85.991062 Y54.953131 Z-0.125000 I-23.337274 J0.212531
G02 X85.061617 Y54.498640 Z-0.125000 I-0.665049 J0.182427
G01 X85.061617 Y54.498640 Z-0.125000
G00 Z5.000000

(End cutting path id: path13358)


(Start cutting path id: path13358)
(Change tool to Default tool)

G00 Z5.000000
G00 X88.619759 Y53.205737

G01 Z-0.125000 F100.0(Penetrate)
G02 X88.386521 Y53.574726 Z-0.125000 I0.192788 J0.380072 F400.000000
G02 X88.358774 Y63.237527 Z-0.125000 I208.753435 J5.430865
G02 X88.548889 Y69.865870 Z-0.125000 I394.257730 J-7.991223
G02 X88.612422 Y70.074710 Z-0.125000 I0.427091 J-0.015845
G02 X89.077013 Y70.258363 Z-0.125000 I0.355431 J-0.219673
G02 X90.170353 Y69.653047 Z-0.125000 I-0.683095 J-2.523898
G02 X90.493577 Y68.952091 Z-0.125000 I-0.686706 J-0.741653
G02 X90.590383 Y62.261854 Z-0.125000 I-129.545292 J-5.220305
G02 X90.361675 Y55.697547 Z-0.125000 I-139.819103 J1.585323
G02 X89.990705 Y53.808685 Z-0.125000 I-7.106834 J0.414914
G02 X89.416667 Y53.183785 Z-0.125000 I-0.999170 J0.341736
G02 X88.619759 Y53.205737 Z-0.125000 I-0.375252 J0.853224
G01 X88.619759 Y53.205737 Z-0.125000
G00 Z5.000000

(End cutting path id: path13358)


(Start cutting path id: path13358)
(Change tool to Default tool)

G00 Z5.000000
G00 X91.446102 Y52.178144

G01 Z-0.125000 F100.0(Penetrate)
G02 X91.318149 Y52.560522 Z-0.125000 I0.429231 J0.356229 F400.000000
G02 X91.636732 Y56.240052 Z-0.125000 I46.746168 J-2.193850
G03 X91.751977 Y57.655575 Z-0.125000 I-15.801786 J1.998955
G03 X91.888378 Y63.105582 Z-0.125000 I-234.519929 J8.596221
G02 X92.036229 Y68.528463 Z-0.125000 I195.839458 J-2.625949
G02 X92.119208 Y68.717695 Z-0.125000 I0.283888 J-0.011676
G02 X92.281621 Y68.749594 Z-0.125000 I0.104952 J-0.104952
G02 X92.785484 Y68.437925 Z-0.125000 I-0.736103 J-1.753153
G01 X93.294065 Y68.000467 Z-0.125000
G01 X93.443753 Y63.178593 Z-0.125000
G02 X93.393562 Y54.100923 Z-0.125000 I-124.108866 J-3.852767
G02 X92.993648 Y52.491509 Z-0.125000 I-4.140150 J0.174368
G02 X92.235461 Y51.899681 Z-0.125000 I-0.971883 J0.463505
G02 X91.446102 Y52.178144 Z-0.125000 I-0.161842 J0.799255
G01 X91.446102 Y52.178144 Z-0.125000
G00 Z5.000000

(End cutting path id: path13358)


(Start cutting path id: path13358)
(Change tool to Default tool)

G00 Z5.000000
G00 X97.824499 Y49.168994

G01 Z-0.125000 F100.0(Penetrate)
G02 X96.454884 Y51.983088 Z-0.125000 I16.844974 J9.938764 F400.000000
G02 X96.204482 Y53.310653 Z-0.125000 I3.393990 J1.327565
G03 X96.140890 Y53.673285 Z-0.125000 I-1.065747 J0.000000
G03 X95.760058 Y54.538851 Z-0.125000 I-6.611704 J-2.392458
G02 X95.500860 Y55.433119 Z-0.125000 I2.079865 J1.087533
G02 X95.363183 Y59.342202 Z-0.125000 I41.282128 J3.410915
G01 X95.410732 Y63.295608 Z-0.125000
G01 X95.895801 Y63.351420 Z-0.125000
G03 X96.251202 Y63.522840 Z-0.125000 I-0.068627 J0.596416
G03 X96.380871 Y63.835383 Z-0.125000 I-0.311832 J0.312544
G02 X96.863955 Y64.840998 Z-0.125000 I1.288213 J-0.000000
G02 X98.240266 Y65.324080 Z-0.125000 I1.376311 J-1.719029
G02 X98.665083 Y65.043649 Z-0.125000 I0.000000 J-0.461986
G02 X99.672553 Y61.972691 Z-0.125000 I-17.125903 J-7.319125
G02 X100.259926 Y55.971711 Z-0.125000 I-22.209472 J-5.203091
G02 X99.266074 Y50.359044 Z-0.125000 I-20.372074 J0.713022
G02 X98.387824 Y49.070079 Z-0.125000 I-2.658809 J0.867924
G02 X97.824502 Y49.168994 Z-0.125000 I-0.239420 J0.290022
G01 X97.824499 Y49.168994 Z-0.125000
G00 Z5.000000

(End cutting path id: path13358)


(Start cutting path id: path13358)
(Change tool to Default tool)

G00 Z5.000000
G00 X93.085483 Y40.102114

G01 Z-0.125000 F100.0(Penetrate)
G03 X94.242305 Y40.552659 Z-0.125000 I-2.674115 J8.576492 F400.000000
G03 X94.651241 Y40.840283 Z-0.125000 I-0.621297 J1.317857
G03 X94.834588 Y41.304669 Z-0.125000 I-0.443482 J0.443482
G03 X94.464559 Y46.438051 Z-0.125000 I-66.609534 J-2.221382
G02 X94.178908 Y49.505272 Z-0.125000 I86.404058 J9.593753
G02 X94.215078 Y49.751865 Z-0.125000 I0.567429 J0.042719
G02 X94.803871 Y50.401151 Z-0.125000 I1.130972 J-0.433989
G02 X95.434608 Y50.362241 Z-0.125000 I0.281831 J-0.563099
G02 X95.574097 Y50.208418 Z-0.125000 I-0.235334 J-0.353562
G02 X96.482510 Y48.395787 Z-0.125000 I-35.734669 J-19.042632
G03 X98.292188 Y44.943384 Z-0.125000 I40.773995 J19.172388
G03 X98.585066 Y44.774774 Z-0.125000 I0.292877 J0.170060
G03 X99.194043 Y45.135248 Z-0.125000 I0.000000 J0.694633
G03 X100.697666 Y48.624811 Z-0.125000 I-17.556874 J9.633840
G03 X101.414527 Y51.933577 Z-0.125000 I-16.386107 J5.282176
G03 X101.617050 Y56.592830 Z-0.125000 I-32.454302 J3.744709
G03 X101.386858 Y60.101980 Z-0.125000 I-46.873156 J-1.312637
G03 X101.076007 Y61.826540 Z-0.125000 I-11.581372 J-1.197242
G03 X99.943819 Y65.640734 Z-0.125000 I-55.197711 J-14.309504
G03 X99.445324 Y66.691094 Z-0.125000 I-4.616774 J-1.547622
G03 X98.846157 Y67.011655 Z-0.125000 I-0.581643 J-0.366922
G03 X97.159494 Y66.632826 Z-0.125000 I0.113407 J-4.449111
G01 X96.130334 Y66.177681 Z-0.125000
G01 X95.647400 Y66.765118 Z-0.125000
G02 X95.204000 Y67.378412 Z-0.125000 I4.711261 J3.873087
G02 X94.705408 Y68.254679 Z-0.125000 I9.147938 J5.785128
G01 X94.246342 Y69.156805 Z-0.125000
G01 X94.806150 Y70.371345 Z-0.125000
G03 X95.763953 Y72.990364 Z-0.125000 I-15.593223 J7.187259
G03 X95.685105 Y73.555856 Z-0.125000 I-0.693824 J0.191502
G03 X93.722288 Y75.987918 Z-0.125000 I-10.094706 J-6.138938
G03 X89.959649 Y78.987990 Z-0.125000 I-19.280051 J-20.321151
G03 X87.027336 Y80.546543 Z-0.125000 I-9.346108 J-14.046334
G03 X84.486011 Y81.237722 Z-0.125000 I-4.034132 J-9.815120
G03 X79.091449 Y81.257572 Z-0.125000 I-2.769029 J-19.488478
G03 X77.954748 Y80.358710 Z-0.125000 I0.189464 J-1.407763
G03 X77.997038 Y79.901046 Z-0.125000 I0.484708 J-0.185997
G03 X80.430822 Y76.326341 Z-0.125000 I39.168260 J24.051264
G02 X82.082993 Y74.091860 Z-0.125000 I-136.643261 J-102.761752
G02 X82.258064 Y73.812599 Z-0.125000 I-1.945257 J-1.414012
G02 X82.235768 Y73.415725 Z-0.125000 I-0.336620 J-0.180153
G02 X81.339877 Y72.480886 Z-0.125000 I-3.335288 J2.299628
G02 X80.679981 Y72.165585 Z-0.125000 I-1.105908 J1.466363
G02 X80.369738 Y72.238028 Z-0.125000 I-0.084635 J0.338086
G03 X75.536168 Y76.183259 Z-0.125000 I-103.421728 J-121.775389
G03 X74.359488 Y76.951176 Z-0.125000 I-5.000071 J-6.376141
G03 X72.921856 Y76.467113 Z-0.125000 I-0.491245 J-0.917901
G03 X70.696811 Y68.961315 Z-0.125000 I25.206274 J-11.554936
G03 X70.434891 Y64.780572 Z-0.125000 I24.700663 J-3.646050
G03 X70.880509 Y60.385191 Z-0.125000 I27.766144 J0.594744
G03 X71.813706 Y56.534864 Z-0.125000 I34.131961 J6.234250
G03 X72.772039 Y54.158232 Z-0.125000 I13.889244 J4.219047
G03 X73.361048 Y53.885799 Z-0.125000 I0.467894 J0.238657
G03 X76.754195 Y55.101895 Z-0.125000 I-3.736352 J15.766966
G02 X79.628208 Y56.456731 Z-0.125000 I46.367624 J-94.633931
G02 X79.850003 Y56.504636 Z-0.125000 I0.221795 J-0.489492
G02 X81.071346 Y55.835372 Z-0.125000 I0.000000 J-1.449049
G02 X81.740593 Y53.543521 Z-0.125000 I-3.589624 J-2.291852
G02 X81.669748 Y53.353853 Z-0.125000 I-0.289316 J-0.000000
G02 X80.285384 Y51.867327 Z-0.125000 I-21.989529 J19.090414
G03 X76.825108 Y48.119547 Z-0.125000 I46.075425 J-46.012143
G03 X76.625315 Y47.577563 Z-0.125000 I0.635229 J-0.541984
G03 X76.776170 Y47.149809 Z-0.125000 I0.681880 J0.000000
G03 X78.534450 Y45.207511 Z-0.125000 I17.717370 J14.271783
G03 X83.040106 Y41.635308 Z-0.125000 I18.862649 J19.164032
G03 X86.901418 Y39.924119 Z-0.125000 I7.746076 J12.266956
G03 X89.862027 Y39.563675 Z-0.125000 I2.673366 J9.619305
G03 X93.085483 Y40.102114 Z-0.125000 I-0.344898 J11.982882
G01 X93.085483 Y40.102114 Z-0.125000
G00 Z5.000000

(End cutting path id: path13358)


(Start cutting path id: path13358)
(Change tool to Default tool)

G00 Z5.000000
G00 X68.328831 Y29.505539

G01 Z-0.125000 F100.0(Penetrate)
G03 X68.473893 Y29.856133 Z-0.125000 I-1.690708 J0.904855 F400.000000
G03 X68.511426 Y30.110302 Z-0.125000 I-0.841832 J0.254168
G03 X68.273006 Y30.689828 Z-0.125000 I-0.823535 J0.000000
G03 X67.701296 Y30.928247 Z-0.125000 I-0.571710 J-0.566250
G03 X67.239399 Y30.617260 Z-0.125000 I0.000000 J-0.498513
G03 X67.169485 Y29.618338 Z-0.125000 I1.493768 J-0.606456
G03 X67.694500 Y29.166211 Z-0.125000 I0.583248 J0.146384
G03 X68.328831 Y29.505539 Z-0.125000 I0.062777 J0.645212
G01 X68.328831 Y29.505539 Z-0.125000
G00 Z5.000000

(End cutting path id: path13358)


(Start cutting path id: path13358)
(Change tool to Default tool)

G00 Z5.000000
G00 X66.966680 Y28.371011

G01 Z-0.125000 F100.0(Penetrate)
G02 X66.017066 Y29.918168 Z-0.125000 I0.626260 J1.449391 F400.000000
G02 X67.174881 Y31.726992 Z-0.125000 I2.205619 J-0.136835
G02 X67.805870 Y31.891165 Z-0.125000 I0.651716 J-1.210158
G02 X68.402483 Y31.745506 Z-0.125000 I0.018389 J-1.219352
G02 X69.263740 Y29.289361 Z-0.125000 I-0.915576 J-1.700125
G02 X66.966680 Y28.371011 Z-0.125000 I-1.605153 J0.682972
G01 X66.966680 Y28.371011 Z-0.125000
G00 Z5.000000

(End cutting path id: path13358)


(Start cutting path id: path13358)
(Change tool to Default tool)

G00 Z5.000000
G00 X74.422822 Y19.771649

G01 Z-0.125000 F100.0(Penetrate)
G03 X75.493506 Y21.026106 Z-0.125000 I-6.791322 J6.880568 F400.000000
G03 X78.241136 Y25.107413 Z-0.125000 I-69.967198 J50.069067
G03 X81.942229 Y31.447355 Z-0.125000 I-87.336123 J55.234831
G03 X81.981788 Y32.072113 Z-0.125000 I-0.661993 J0.355548
G03 X81.807278 Y32.296617 Z-0.125000 I-0.457527 J-0.175566
G03 X80.175673 Y33.349792 Z-0.125000 I-13.200861 J-18.660647
G02 X74.760652 Y37.164287 Z-0.125000 I20.221260 J34.456716
G02 X70.947232 Y41.070608 Z-0.125000 I17.413944 J20.814326
G02 X66.249576 Y48.555809 Z-0.125000 I30.881507 J24.597713
G02 X63.217527 Y57.141685 Z-0.125000 I37.772469 J18.167425
G02 X62.739489 Y59.661885 Z-0.125000 I28.923380 J6.791702
G02 X62.247591 Y63.817917 Z-0.125000 I78.259939 J11.369774
G03 X61.883980 Y66.755004 Z-0.125000 I-46.310687 J-4.242213
G03 X61.758802 Y66.946118 Z-0.125000 I-0.273796 J-0.042781
G03 X60.033223 Y67.439231 Z-0.125000 I-1.695979 J-2.669073
G03 X48.491287 Y66.821929 Z-0.125000 I1.227786 J-131.167074
G02 X45.845361 Y66.564383 Z-0.125000 I-273.212106 J2793.143783
G02 X45.796990 Y66.560964 Z-0.125000 I-0.089898 J0.928130
G03 X45.642320 Y66.433716 Z-0.125000 I0.007438 J-0.166666
G03 X45.232205 Y64.238270 Z-0.125000 I20.157811 J-4.901566
G02 X44.652060 Y60.858338 Z-0.125000 I-43.412135 J5.711678
G02 X43.721689 Y57.121997 Z-0.125000 I-53.995886 J11.461281
G02 X42.961864 Y54.696678 Z-0.125000 I-49.514176 J14.180548
G02 X41.554869 Y50.760284 Z-0.125000 I-131.887446 J44.921228
G03 X41.112199 Y49.346286 Z-0.125000 I12.647439 J-4.735731
G03 X41.143832 Y49.140501 Z-0.125000 I0.258478 J-0.065591
G03 X41.525300 Y48.764256 Z-0.125000 I0.963764 J0.595640
G03 X44.612490 Y47.062287 Z-0.125000 I25.207121 J42.072117
G02 X45.944708 Y46.286755 Z-0.125000 I-5.867082 J-11.610560
G02 X46.783679 Y45.619652 Z-0.125000 I-3.480941 J-5.238856
G02 X47.388159 Y44.815608 Z-0.125000 I-2.053089 J-2.172758
G02 X47.472928 Y44.281371 Z-0.125000 I-0.768463 J-0.395778
G02 X47.103130 Y43.241105 Z-0.125000 I-3.032333 J0.492083
G02 X43.493230 Y37.366441 Z-0.125000 I-103.852483 J59.769470
G02 X40.247775 Y33.459351 Z-0.125000 I-18.779168 J12.297587
G02 X39.072837 Y33.129075 Z-0.125000 I-0.896899 J0.935640
G02 X38.604058 Y33.364850 Z-0.125000 I0.227679 J1.036591
G02 X36.112902 Y35.703289 Z-0.125000 I29.528517 J33.953102
G03 X33.657602 Y38.089669 Z-0.125000 I-59.144695 J-58.396502
G03 X33.478592 Y38.160191 Z-0.125000 I-0.179011 J-0.191937
G03 X33.289273 Y38.103736 Z-0.125000 I-0.000000 J-0.345663
G03 X32.061252 Y37.232388 Z-0.125000 I10.998358 J-16.801391
G02 X29.631407 Y35.466099 Z-0.125000 I-35.109897 J45.745401
G02 X27.898196 Y34.368908 Z-0.125000 I-15.238374 J22.154215
G03 X26.787740 Y33.613491 Z-0.125000 I4.743668 J-8.167033
G03 X26.602494 Y33.345486 Z-0.125000 I0.344481 J-0.436130
G03 X26.726754 Y32.148074 Z-0.125000 I1.436861 J-0.456044
G03 X32.162451 Y23.501495 Z-0.125000 I94.476503 J53.361053
G03 X34.737247 Y20.242791 Z-0.125000 I28.235249 J19.662920
G03 X35.297246 Y19.992135 Z-0.125000 I0.559999 J0.500228
G03 X35.621470 Y20.022450 Z-0.125000 I0.000000 J1.749030
G03 X38.618366 Y20.618643 Z-0.125000 I-28.547881 J151.332407
G02 X41.625874 Y21.150322 Z-0.125000 I9.989132 J-47.732802
G02 X44.698926 Y21.498217 Z-0.125000 I7.158916 J-49.490107
G02 X53.527628 Y21.859864 Z-0.125000 I8.837229 J-107.792672
G02 X61.014898 Y21.499346 Z-0.125000 I0.006134 J-77.801035
G02 X67.518412 Y20.631962 Z-0.125000 I-8.683056 J-89.919118
G02 X71.862815 Y19.649382 Z-0.125000 I-6.998994 J-41.041040
G03 X73.671505 Y19.442041 Z-0.125000 I1.539442 J5.436428
G03 X74.422822 Y19.771511 Z-0.125000 I-0.054675 J1.146059
G01 X74.422822 Y19.771649 Z-0.125000
G00 Z5.000000

(End cutting path id: path13358)


(Start cutting path id: path13358)
(Change tool to Default tool)

G00 Z5.000000
G00 X85.765700 Y13.770414

G01 Z-0.125000 F100.0(Penetrate)
G03 X89.837991 Y17.364362 Z-0.125000 I-26.098370 J33.676101 F400.000000
G03 X93.376144 Y21.403247 Z-0.125000 I-29.486720 J29.400218
G03 X98.729854 Y30.083487 Z-0.125000 I-39.629986 J30.433703
G03 X101.991353 Y39.218524 Z-0.125000 I-40.692188 J19.678152
G03 X102.677658 Y42.555172 Z-0.125000 I-50.872901 J12.202808
G03 X102.604077 Y42.902317 Z-0.125000 I-0.472416 J0.081237
G03 X102.406874 Y42.902221 Z-0.125000 I-0.098569 J-0.065717
G03 X101.056906 Y40.620096 Z-0.125000 I20.880323 J-13.891888
G02 X98.973728 Y37.246403 Z-0.125000 I-24.467641 J12.778200
G02 X97.031777 Y35.041779 Z-0.125000 I-12.289770 J8.867895
G02 X94.903769 Y33.440320 Z-0.125000 I-8.558482 J9.157880
G02 X92.369028 Y32.255018 Z-0.125000 I-7.098454 J11.876988
G02 X89.848906 Y31.676798 Z-0.125000 I-3.863817 J11.059122
G02 X86.349883 Y31.560024 Z-0.125000 I-2.463502 J21.335663
G01 X83.945454 Y31.676088 Z-0.125000
G01 X82.817606 Y29.582374 Z-0.125000
G02 X80.427221 Y25.405815 Z-0.125000 I-82.383548 J44.378543
G02 X77.697635 Y21.147364 Z-0.125000 I-88.378923 J53.645180
G03 X76.347788 Y19.016348 Z-0.125000 I35.028382 J-23.681019
G03 X76.272537 Y18.741674 Z-0.125000 I0.463673 J-0.274674
G03 X76.388664 Y18.514619 Z-0.125000 I0.280036 J0.000000
G03 X77.727746 Y17.691169 Z-0.125000 I6.227972 J8.627313
G02 X81.465584 Y15.298018 Z-0.125000 I-11.086275 J-21.431162
G02 X83.097658 Y13.509838 Z-0.125000 I-4.410853 J-5.664680
G03 X83.743766 Y12.679047 Z-0.125000 I4.894145 J3.139553
G03 X83.963135 Y12.583811 Z-0.125000 I0.219369 J0.205029
G03 X84.209325 Y12.657568 Z-0.125000 I-0.000000 J0.447747
G03 X85.765700 Y13.770414 Z-0.125000 I-13.643271 J20.725615
G01 X85.765700 Y13.770414 Z-0.125000
G00 Z5.000000

(End cutting path id: path13358)


(Start cutting path id: path13358)
(Change tool to Default tool)

G00 Z5.000000
G00 X28.799720 Y16.249355

G01 Z-0.125000 F100.0(Penetrate)
G02 X30.221729 Y17.521985 Z-0.125000 I10.530738 J-10.336048 F400.000000
G02 X31.416213 Y18.302381 Z-0.125000 I5.091987 J-6.489516
G03 X32.628341 Y19.033368 Z-0.125000 I-6.618286 J12.344949
G03 X32.776335 Y19.219408 Z-0.125000 I-0.220862 J0.327580
G03 X32.765853 Y19.444074 Z-0.125000 I-0.261561 J0.100374
G03 X32.111775 Y20.561869 Z-0.125000 I-8.325463 J-4.121382
G03 X31.355328 Y21.667057 Z-0.125000 I-541.540737 J-369.846271
G03 X30.203691 Y23.343524 Z-0.125000 I-1243.182166 J-852.762085
G02 X28.120549 Y26.571140 Z-0.125000 I53.761675 J36.984473
G02 X25.960438 Y30.363241 Z-0.125000 I72.076869 J43.568745
G03 X24.328656 Y32.108310 Z-0.125000 I-4.096057 J-2.194688
G03 X21.944758 Y32.875001 Z-0.125000 I-2.707242 J-4.328203
G02 X19.396598 Y33.091219 Z-0.125000 I3.807745 J59.998129
G02 X18.798990 Y33.209454 Z-0.125000 I0.360670 J3.392367
G02 X17.531846 Y33.812713 Z-0.125000 I1.240326 J4.237752
G02 X14.961395 Y35.857046 Z-0.125000 I13.732332 J19.904559
G03 X13.194372 Y37.403657 Z-0.125000 I-37.944473 J-41.569315
G03 X13.058672 Y37.453574 Z-0.125000 I-0.137164 J-0.163470
G03 X12.887086 Y37.231333 Z-0.125000 I-0.001289 J-0.176364
G03 X14.122847 Y33.503612 Z-0.125000 I33.309029 J8.973449
G03 X16.911058 Y27.596806 Z-0.125000 I47.500578 J18.810398
G03 X20.421951 Y22.108802 Z-0.125000 I44.481846 J24.589770
G03 X26.016097 Y15.423672 Z-0.125000 I55.347280 J40.631673
G03 X27.300413 Y14.876166 Z-0.125000 I1.276307 J1.213808
G03 X27.431257 Y14.927289 Z-0.125000 I-0.000656 J0.194683
G03 X28.799720 Y16.249352 Z-0.125000 I-24.187985 J26.406172
G01 X28.799720 Y16.249355 Z-0.125000
G00 Z5.000000

(End cutting path id: path13358)


(Start cutting path id: path13358)
(Change tool to Default tool)

G00 Z5.000000
G00 X64.719322 Y90.544556

G01 Z-0.125000 F100.0(Penetrate)
G03 X69.693667 Y91.052210 Z-0.125000 I-2.999196 J54.013063 F400.000000
G03 X74.232291 Y91.962209 Z-0.125000 I-6.833502 J45.855319
G03 X78.579840 Y93.369259 Z-0.125000 I-8.603927 J34.004824
G03 X79.060580 Y93.880541 Z-0.125000 I-0.305490 J0.768894
G03 X78.961088 Y94.007072 Z-0.125000 I-0.091908 J0.030114
G03 X75.919759 Y93.633512 Z-0.125000 I2.748173 J-34.941373
G02 X72.458278 Y93.148655 Z-0.125000 I-10.782759 J64.381575
G02 X68.976929 Y92.849894 Z-0.125000 I-7.316702 J64.825886
G02 X59.163042 Y92.559769 Z-0.125000 I-9.861648 J167.454801
G02 X47.609343 Y92.843798 Z-0.125000 I-0.066181 J232.439966
G02 X42.355885 Y93.280364 Z-0.125000 I3.893304 J78.677748
G02 X37.907954 Y93.977933 Z-0.125000 I6.672107 J57.073044
G03 X35.495398 Y94.364044 Z-0.125000 I-6.558593 J-33.250047
G03 X34.949765 Y94.349544 Z-0.125000 I-0.224587 J-1.822037
G03 X34.906686 Y94.191135 Z-0.125000 I0.015875 J-0.089379
G03 X35.831656 Y93.609151 Z-0.125000 I2.452170 J2.871289
G03 X41.905220 Y91.669494 Z-0.125000 I12.043450 J27.232363
G03 X50.784343 Y90.549170 Z-0.125000 I11.762503 J57.477803
G03 X58.215884 Y90.365205 Z-0.125000 I7.482038 J152.051881
G03 X64.719322 Y90.544542 Z-0.125000 I0.038679 J116.606843
G01 X64.719322 Y90.544556 Z-0.125000
G00 Z5.000000

(End cutting path id: path13358)


(Start cutting path id: path13358)
(Change tool to Default tool)

G00 Z5.000000
G00 X68.776009 Y93.453039

G01 Z-0.125000 F100.0(Penetrate)
G03 X78.283033 Y94.790412 Z-0.125000 I-8.644879 J95.914217 F400.000000
G03 X81.687950 Y95.931199 Z-0.125000 I-2.539436 J13.231219
G03 X83.493146 Y97.146912 Z-0.125000 I-3.548161 J7.216732
G03 X83.631030 Y97.664577 Z-0.125000 I-0.324348 J0.363588
G03 X83.219838 Y97.958871 Z-0.125000 I-0.408327 J-0.136111
G03 X81.358495 Y97.649450 Z-0.125000 I0.039899 J-5.993235
G02 X79.026700 Y97.005076 Z-0.125000 I-7.217065 J21.575178
G02 X75.566982 Y96.376108 Z-0.125000 I-10.321607 J46.945510
G02 X69.991945 Y95.844748 Z-0.125000 I-8.292609 J57.493803
G02 X58.457259 Y95.574786 Z-0.125000 I-11.534686 J246.286731
G02 X40.880853 Y96.283777 Z-0.125000 I-0.000000 J218.220554
G02 X34.015212 Y97.549867 Z-0.125000 I2.768537 J34.261202
G03 X32.430045 Y97.946467 Z-0.125000 I-5.883627 J-20.150081
G03 X31.734342 Y98.027035 Z-0.125000 I-0.789624 J-3.774411
G03 X31.147740 Y97.903671 Z-0.125000 I-0.031795 J-1.305158
G03 X30.975492 Y97.670777 Z-0.125000 I0.129554 J-0.275962
G03 X31.775012 Y96.373016 Z-0.125000 I1.179728 J-0.168361
G03 X41.876704 Y94.000929 Z-0.125000 I17.619481 J52.338315
G03 X46.020234 Y93.544997 Z-0.125000 I10.525091 J76.596323
G03 X52.460037 Y93.124406 Z-0.125000 I15.294923 J184.673997
G03 X60.730688 Y93.010000 Z-0.125000 I5.818513 J121.624276
G03 X68.776009 Y93.453053 Z-0.125000 I-2.326926 J115.522420
G01 X68.776009 Y93.453039 Z-0.125000
G00 Z5.000000

(End cutting path id: path13358)


(Start cutting path id: path13358)
(Change tool to Default tool)

G00 Z5.000000
G00 X62.834992 Y98.991323

G01 Z-0.125000 F100.0(Penetrate)
G03 X62.519912 Y100.012865 Z-0.125000 I-1.378373 J0.134223 F400.000000
G03 X61.638194 Y100.425469 Z-0.125000 I-0.881717 J-0.735794
G03 X61.010473 Y100.302957 Z-0.125000 I-0.000000 J-1.669405
G03 X60.672122 Y100.033443 Z-0.125000 I0.287156 J-0.707638
G03 X60.404013 Y99.190751 Z-0.125000 I1.213777 J-0.850170
G03 X60.663684 Y98.360113 Z-0.125000 I1.435193 J-0.007242
G03 X61.939031 Y97.911214 Z-0.125000 I0.951177 J0.666230
G03 X62.835003 Y98.991323 Z-0.125000 I-0.349240 J1.201369
G01 X62.834992 Y98.991323 Z-0.125000
G00 Z5.000000

(End cutting path id: path13358)


(Start cutting path id: path13358)
(Change tool to Default tool)

G00 Z5.000000
G00 X59.736079 Y96.481741

G01 Z-0.125000 F100.0(Penetrate)
G03 X60.327683 Y96.650326 Z-0.125000 I-0.441693 J2.672341 F400.000000
G03 X60.397537 Y96.754723 Z-0.125000 I-0.043085 J0.104398
G03 X60.354306 Y96.903280 Z-0.125000 I-0.276861 J-0.000000
G03 X59.879459 Y97.569493 Z-0.125000 I-6.532900 J-4.154028
G02 X59.293343 Y98.762486 Z-0.125000 I2.432713 J1.935664
G02 X59.333204 Y99.789925 Z-0.125000 I1.806447 J0.444410
G02 X60.070813 Y100.963607 Z-0.125000 I2.743085 J-0.905293
G02 X61.198910 Y101.589673 Z-0.125000 I1.737223 J-1.800892
G02 X62.484073 Y101.469048 Z-0.125000 I0.471804 J-1.879824
G02 X63.704829 Y100.431069 Z-0.125000 I-1.253402 J-2.710959
G02 X64.028714 Y99.339761 Z-0.125000 I-1.564904 J-1.058158
G02 X63.660732 Y97.918605 Z-0.125000 I-3.141174 J0.055130
G03 X63.924271 Y97.122314 Z-0.125000 I0.511706 J-0.272402
G03 X66.438857 Y96.602606 Z-0.125000 I2.325722 J4.909689
G03 X72.769908 Y97.006393 Z-0.125000 I-3.813536 J109.627901
G03 X76.508289 Y97.537842 Z-0.125000 I-3.593959 J38.695212
G03 X77.997655 Y97.967991 Z-0.125000 I-1.603224 J8.344563
G03 X78.575121 Y98.345466 Z-0.125000 I-0.612473 J1.567414
G02 X79.105264 Y98.640256 Z-0.125000 I0.781705 J-0.781705
G02 X79.521355 Y98.566587 Z-0.125000 I0.122076 J-0.522397
G03 X80.328295 Y98.376602 Z-0.125000 I0.664664 J1.014397
G03 X80.900045 Y98.729452 Z-0.125000 I-0.093451 J0.791075
G03 X80.972761 Y98.943264 Z-0.125000 I-0.374240 J0.246548
G03 X81.032336 Y100.535666 Z-0.125000 I-22.252150 J1.629818
G01 X81.035159 Y102.145168 Z-0.125000
G01 X81.959555 Y102.477462 Z-0.125000
G03 X82.900252 Y103.384399 Z-0.125000 I-0.539565 J1.500975
G03 X83.186505 Y105.534857 Z-0.125000 I-4.080198 J1.637407
G03 X82.236329 Y110.182278 Z-0.125000 I-27.840362 J-3.271180
G03 X80.587628 Y114.360192 Z-0.125000 I-24.107918 J-7.099280
G03 X78.987856 Y117.092698 Z-0.125000 I-22.012821 J-11.053058
G03 X77.310827 Y119.212331 Z-0.125000 I-14.873805 J-10.044741
G03 X76.272128 Y119.769095 Z-0.125000 I-1.321507 J-1.218123
G03 X74.536154 Y119.654443 Z-0.125000 I-0.616315 J-3.867955
G02 X70.976698 Y118.855994 Z-0.125000 I-7.535835 J25.261260
G02 X69.798024 Y118.931461 Z-0.125000 I-0.416843 J2.731832
G02 X68.331564 Y119.531793 Z-0.125000 I2.002989 J6.984047
G02 X68.158772 Y119.822366 Z-0.125000 I0.157921 J0.290572
G02 X68.291121 Y120.001990 Z-0.125000 I0.188068 J0.000000
G02 X70.117341 Y120.429908 Z-0.125000 I3.937910 J-12.694924
G03 X73.659373 Y121.238865 Z-0.125000 I-4.444050 J27.617250
G03 X74.338141 Y121.687267 Z-0.125000 I-0.400375 J1.344009
G03 X74.387069 Y121.951414 Z-0.125000 I-0.211892 J0.175854
G03 X74.073970 Y122.467643 Z-0.125000 I-1.317431 J-0.445976
G03 X72.945336 Y123.048442 Z-0.125000 I-1.407868 J-1.348826
G03 X70.407762 Y122.998178 Z-0.125000 I-1.116464 J-7.715227
G02 X66.333102 Y122.534017 Z-0.125000 I-5.352269 J28.868280
G02 X55.811550 Y122.362425 Z-0.125000 I-8.411786 J193.124828
G02 X47.798906 Y122.582521 Z-0.125000 I2.643476 J242.197465
G02 X45.933772 Y122.797420 Z-0.125000 I0.584610 J13.275221
G02 X44.094174 Y123.190320 Z-0.125000 I6.936502 J36.980404
G02 X43.309859 Y123.426812 Z-0.125000 I1.664241 J6.938208
G03 X42.128744 Y123.567598 Z-0.125000 I-0.888980 J-2.433190
G03 X41.073406 Y123.172984 Z-0.125000 I0.262115 J-2.309467
G03 X40.730239 Y121.999889 Z-0.125000 I0.548482 J-0.797189
G03 X42.026945 Y120.911187 Z-0.125000 I1.711011 J0.721337
G03 X44.737856 Y120.421870 Z-0.125000 I6.619940 J28.921593
G03 X50.156731 Y119.830654 Z-0.125000 I15.305912 J115.159251
G02 X52.338074 Y119.614949 Z-0.125000 I-6.984117 J-81.764839
G02 X52.417913 Y119.576516 Z-0.125000 I-0.014977 J-0.133255
G02 X52.428517 Y119.227423 Z-0.125000 I-0.180181 J-0.180181
G02 X51.472742 Y118.508954 Z-0.125000 I-2.236190 J1.979825
G02 X50.899198 Y118.379938 Z-0.125000 I-0.572820 J1.207123
G02 X47.855136 Y118.510930 Z-0.125000 I0.019441 J35.887050
G02 X42.652774 Y119.189383 Z-0.125000 I5.058393 J59.072665
G02 X39.568312 Y119.967052 Z-0.125000 I3.772031 J21.466725
G03 X38.130111 Y120.270551 Z-0.125000 I-2.067872 J-6.239726
G03 X37.772100 Y120.139905 Z-0.125000 I-0.042329 J-0.439859
G03 X36.360494 Y118.490752 Z-0.125000 I11.563458 J-11.326556
G03 X34.813692 Y116.173390 Z-0.125000 I21.373989 J-15.941710
G03 X31.982153 Y109.722719 Z-0.125000 I24.745092 J-14.708713
G03 X31.117814 Y103.831496 Z-0.125000 I19.700056 J-5.899339
G03 X31.433018 Y102.195893 Z-0.125000 I4.394429 J-0.001304
G03 X31.787852 Y102.159380 Z-0.125000 I0.187005 J0.074922
G02 X32.675964 Y102.689856 Z-0.125000 I0.998478 J-0.662965
G02 X33.543980 Y102.321782 Z-0.125000 I0.091677 J-0.991345
G02 X33.654600 Y102.074940 Z-0.125000 I-0.417875 J-0.335475
G02 X33.847194 Y100.513796 Z-0.125000 I-17.871829 J-2.997248
G03 X34.295294 Y98.604299 Z-0.125000 I6.491746 J0.516088
G03 X34.732101 Y98.308935 Z-0.125000 I0.436807 J0.175310
G03 X35.041778 Y98.522207 Z-0.125000 I0.000000 J0.331466
G03 X35.518928 Y100.370484 Z-0.125000 I-7.981076 J3.046119
G02 X35.716023 Y101.504412 Z-0.125000 I18.138808 J-2.568719
G02 X35.775830 Y101.615341 Z-0.125000 I0.215122 J-0.044395
G02 X36.014583 Y101.548775 Z-0.125000 I0.100607 J-0.100605
G02 X36.234791 Y99.752660 Z-0.125000 I-7.363236 J-1.814306
G03 X36.600497 Y98.318417 Z-0.125000 I3.023791 J0.007266
G03 X37.209056 Y97.956157 Z-0.125000 I0.608559 J0.330028
G01 X37.968194 Y97.956157 Z-0.125000
G01 X38.079452 Y99.146782 Z-0.125000
G02 X38.736551 Y100.610701 Z-0.125000 I2.474348 J-0.231211
G02 X39.843865 Y101.038306 Z-0.125000 I0.994426 J-0.927601
G02 X41.320788 Y100.890271 Z-0.125000 I-3.669284 J-44.049272
G02 X41.909252 Y100.796196 Z-0.125000 I-0.829513 J-7.076404
G02 X42.316649 Y100.522508 Z-0.125000 I-0.128094 J-0.630731
G02 X42.548285 Y99.837778 Z-0.125000 I-1.161584 J-0.774495
G03 X43.076291 Y99.114285 Z-0.125000 I0.833240 J0.053683
G03 X45.757383 Y98.577410 Z-0.125000 I2.844664 J7.242966
G01 X47.962245 Y98.531050 Z-0.125000
G01 X48.050439 Y97.670340 Z-0.125000
G01 X48.138633 Y96.809630 Z-0.125000
G01 X49.542477 Y96.682424 Z-0.125000
G03 X50.894804 Y96.659979 Z-0.125000 I0.828007 J9.137822
G03 X51.083286 Y96.770618 Z-0.125000 I-0.013691 J0.239192
G03 X51.216398 Y97.111515 Z-0.125000 I-0.800545 J0.509029
G03 X51.495300 Y99.058588 Z-0.125000 I-26.970502 J4.856811
G02 X51.770910 Y99.886699 Z-0.125000 I2.034731 J-0.217275
G02 X52.098028 Y100.072824 Z-0.125000 I0.327118 J-0.194395
G02 X52.473278 Y99.927453 Z-0.125000 I0.000000 J-0.557009
G02 X52.702697 Y99.521607 Z-0.125000 I-0.503621 J-0.552457
G02 X52.783158 Y98.967443 Z-0.125000 I-5.162477 J-1.032476
G02 X52.812939 Y98.313205 Z-0.125000 I-7.171320 J-0.654238
G03 X52.863940 Y97.664658 Z-0.125000 I4.149083 J0.000000
G03 X53.003414 Y97.109621 Z-0.125000 I3.171457 J0.501903
G03 X53.317180 Y96.722953 Z-0.125000 I0.692730 J0.241486
G03 X54.017650 Y96.497735 Z-0.125000 I0.827404 J1.371470
G03 X57.937393 Y96.336720 Z-0.125000 I4.061875 J51.090764
G03 X59.736203 Y96.481874 Z-0.125000 I0.030077 J10.845685
G01 X59.736079 Y96.481741 Z-0.125000
G00 Z5.000000

(End cutting path id: path13358)


(Start cutting path id: path13358)
(Change tool to Default tool)

G00 Z5.000000
G00 X59.603787 Y105.601566

G01 Z-0.125000 F100.0(Penetrate)
G02 X57.111407 Y106.890292 Z-0.125000 I2.819636 J8.507623 F400.000000
G02 X55.369268 Y108.717531 Z-0.125000 I4.300647 J5.844471
G02 X54.204366 Y113.257085 Z-0.125000 I5.926786 J3.940123
G02 X56.116726 Y117.560473 Z-0.125000 I7.160049 J-0.605210
G02 X58.699282 Y119.279030 Z-0.125000 I4.934666 J-4.615811
G02 X62.130827 Y119.793658 Z-0.125000 I2.942954 J-7.925550
G02 X63.515610 Y119.582061 Z-0.125000 I-0.432177 J-7.465450
G02 X64.679797 Y119.155187 Z-0.125000 I-1.423596 J-5.683428
G02 X66.723998 Y117.688201 Z-0.125000 I-3.383054 J-6.871947
G02 X68.205410 Y115.615031 Z-0.125000 I-5.565960 J-5.543097
G02 X68.608706 Y114.417194 Z-0.125000 I-4.283083 J-2.108868
G02 X68.776009 Y112.679849 Z-0.125000 I-8.936965 J-1.737345
G02 X68.593555 Y110.946156 Z-0.125000 I-8.328054 J-0.000000
G02 X68.111751 Y109.558892 Z-0.125000 I-5.780598 J1.230331
G02 X66.644699 Y107.545953 Z-0.125000 I-6.563027 J3.242138
G02 X64.479278 Y106.036397 Z-0.125000 I-5.723187 J5.901871
G02 X63.273522 Y105.613901 Z-0.125000 I-2.506421 J5.221251
G02 X61.808648 Y105.420921 Z-0.125000 I-1.739494 J7.547879
G02 X60.321892 Y105.455333 Z-0.125000 I-0.450137 J12.686784
G02 X59.603787 Y105.601566 Z-0.125000 I0.251730 J3.072475
G01 X59.603787 Y105.601566 Z-0.125000
G00 Z5.000000

(End cutting path id: path13358)


(Start cutting path id: path13358)
(Change tool to Default tool)

G00 Z5.000000
G00 X47.133093 Y96.932969

G01 Z-0.125000 F100.0(Penetrate)
G03 X47.051871 Y97.464367 Z-0.125000 I-0.235857 J0.235857 F400.000000
G03 X44.964339 Y98.067717 Z-0.125000 I-2.526670 J-4.829030
G03 X43.062467 Y97.916643 Z-0.125000 I-0.482646 J-5.970833
G03 X42.758648 Y97.529830 Z-0.125000 I0.094330 J-0.386813
G03 X42.945835 Y97.238718 Z-0.125000 I0.319961 J-0.000000
G03 X44.150788 Y96.894880 Z-0.125000 I1.740406 J3.815874
G03 X46.694766 Y96.748120 Z-0.125000 I2.312648 J17.965672
G03 X47.133093 Y96.932969 Z-0.125000 I-0.008062 J0.631238
G01 X47.133093 Y96.932969 Z-0.125000
G00 Z5.000000

(End cutting path id: path13358)


(Start cutting path id: path13358)
(Change tool to Default tool)

G00 Z5.000000
G00 X74.359144 Y100.195272

G01 Z-0.125000 F100.0(Penetrate)
G02 X73.186269 Y101.157965 Z-0.125000 I1.473999 J2.991632 F400.000000
G02 X72.026557 Y103.238262 Z-0.125000 I6.521348 J4.998885
G02 X71.687006 Y105.000536 Z-0.125000 I4.879296 J1.853982
G02 X71.959685 Y107.043792 Z-0.125000 I6.885079 J0.120988
G02 X73.949141 Y109.489277 Z-0.125000 I3.886615 J-1.129871
G02 X76.615700 Y109.514371 Z-0.125000 I1.357472 J-2.558270
G02 X77.556196 Y108.751930 Z-0.125000 I-1.299272 J-2.563982
G02 X78.889652 Y106.687275 Z-0.125000 I-9.230242 J-7.424276
G01 X79.605599 Y105.276164 Z-0.125000
G01 X79.346090 Y104.129636 Z-0.125000
G02 X78.236676 Y101.214050 Z-0.125000 I-10.825144 J2.450225
G02 X77.154123 Y100.160700 Z-0.125000 I-2.277788 J1.257978
G02 X75.821027 Y99.845131 Z-0.125000 I-1.298147 J2.510359
G02 X74.359144 Y100.195272 Z-0.125000 I0.042080 J3.402537
G01 X74.359144 Y100.195272 Z-0.125000
G00 Z5.000000

(End cutting path id: path13358)


(Start cutting path id: path13358)
(Change tool to Default tool)

G00 Z5.000000
G00 X76.447193 Y101.040745

G01 Z-0.125000 F100.0(Penetrate)
G03 X76.419025 Y101.246274 Z-0.125000 I-0.108268 J0.089856 F400.000000
G03 X75.694825 Y101.561741 Z-0.125000 I-1.161404 J-1.677183
G02 X74.478228 Y102.231853 Z-0.125000 I0.524909 J2.392411
G02 X73.552361 Y103.728096 Z-0.125000 I2.794835 J2.764011
G02 X73.250700 Y105.478412 Z-0.125000 I5.351626 J1.823487
G02 X73.512235 Y106.827988 Z-0.125000 I3.386633 J0.043833
G02 X74.403041 Y108.072166 Z-0.125000 I3.156061 J-1.318688
G02 X75.581434 Y108.656901 Z-0.125000 I1.674158 J-1.894111
G03 X75.879113 Y108.932246 Z-0.125000 I-0.076191 J0.380956
G03 X75.746989 Y109.242978 Z-0.125000 I-0.259233 J0.073228
G03 X74.314219 Y109.226651 Z-0.125000 I-0.701540 J-1.310843
G03 X72.730030 Y107.538790 Z-0.125000 I1.908472 J-3.378622
G03 X72.251953 Y104.983995 Z-0.125000 I4.452160 J-2.155259
G03 X73.144030 Y102.430037 Z-0.125000 I5.341112 J0.432832
G03 X75.201467 Y100.735933 Z-0.125000 I3.859834 J2.591249
G03 X76.447193 Y101.040745 Z-0.125000 I0.417354 J0.992295
G01 X76.447193 Y101.040745 Z-0.125000
G00 Z5.000000

(End cutting path id: path13358)


(Start cutting path id: path13358)
(Change tool to Default tool)

G00 Z5.000000
G00 X62.805333 Y125.833665

G01 Z-0.125000 F100.0(Penetrate)
G03 X65.888576 Y126.323278 Z-0.125000 I-1.612218 J20.105508 F400.000000
G03 X66.130176 Y126.629535 Z-0.125000 I-0.073309 J0.306257
G03 X64.753468 Y128.198037 Z-0.125000 I-1.581863 J0.000000
G03 X53.446915 Y128.288459 Z-0.125000 I-6.021832 J-46.039640
G03 X50.016441 Y127.673373 Z-0.125000 I3.132836 J-27.346341
G03 X48.368089 Y127.041458 Z-0.125000 I1.683924 J-6.858339
G03 X48.204230 Y126.630932 Z-0.125000 I0.161948 J-0.302605
G03 X48.652343 Y126.183307 Z-0.125000 I0.668975 J0.221593
G03 X52.337826 Y125.544078 Z-0.125000 I4.000751 J12.122402
G03 X62.805333 Y125.833665 Z-0.125000 I2.470808 J100.014942
G01 X62.805333 Y125.833665 Z-0.125000
G00 Z5.000000

(End cutting path id: path13358)


(Footer)
M5
G00 X0.0000 Y0.0000
M2
(Using default footer. To add your own footer create file "footer" in the output dir.)
(end)
%