%
(Header)
(Generated by gcodetools from Inkscape.)
(Using default header. To add your own header create file "header" in the output dir.)
M3
(Header end.)
G21 (All units in mm)

(Start cutting path id: path3385)
(Change tool to Default tool)

G00 Z5.000000
G00 X59.838356 Y185.497402

G01 Z-0.125000 F100.0(Penetrate)
G01 X59.838356 Y185.500958 Z-0.125000 F400.000000
G01 X59.838356 Y185.506743 Z-0.125000
G03 X59.837921 Y185.519246 Z-0.125000 I-0.179719 J-0.000000
G02 X59.837227 Y185.532849 Z-0.125000 I0.363547 J0.025353
G01 X59.836098 Y185.557769 Z-0.125000
G01 X59.832147 Y185.587594 Z-0.125000
G02 X59.830970 Y185.600219 Z-0.125000 I0.529942 J0.055783
G03 X59.828196 Y185.613700 Z-0.125000 I-0.056432 J-0.004586
G03 X59.826178 Y185.627641 Z-0.125000 I-0.297713 J-0.035977
G03 X59.822919 Y185.641781 Z-0.125000 I-0.120667 J-0.020371
G03 X59.820326 Y185.655617 Z-0.125000 I-0.107605 J-0.013004
G02 X59.817669 Y185.668931 Z-0.125000 I0.123473 J0.031559
G03 X59.815040 Y185.682599 Z-0.125000 I-0.099060 J-0.011971
G02 X59.812392 Y185.695262 Z-0.125000 I0.116398 J0.030948
G01 X59.805816 Y185.723118 Z-0.125000
G02 X59.801937 Y185.735448 Z-0.125000 I5.598198 J1.767852
G02 X59.797914 Y185.748292 Z-0.125000 I59.124459 J18.527853
G02 X59.793300 Y185.762313 Z-0.125000 I0.082764 J0.035006
G03 X59.788685 Y185.776147 Z-0.125000 I-0.082295 J-0.019764
G01 X59.779456 Y185.800023 Z-0.125000
G03 X59.769808 Y185.825352 Z-0.125000 I-0.199069 J-0.061328
G03 X59.757979 Y185.850253 Z-0.125000 I-0.869523 J-0.397791
G03 X59.751934 Y185.863912 Z-0.125000 I-0.416723 J-0.176258
G03 X59.744799 Y185.877629 Z-0.125000 I-0.150974 J-0.069817
G01 X59.732946 Y185.899303 Z-0.125000
G02 X59.725588 Y185.912914 Z-0.125000 I0.412130 J0.231590
G03 X59.717791 Y185.926001 Z-0.125000 I-0.116422 J-0.060496
G03 X59.711770 Y185.936348 Z-0.125000 I-0.399321 J-0.225423
G03 X59.704611 Y185.946632 Z-0.125000 I-0.078920 J-0.047310
G02 X59.696769 Y185.959117 Z-0.125000 I0.311041 J0.204087
G03 X59.688016 Y185.972512 Z-0.125000 I-0.181863 J-0.109273
G02 X59.680709 Y185.982675 Z-0.125000 I0.226355 J0.170454
G03 X59.673792 Y185.992211 Z-0.125000 I-0.184884 J-0.126829
G01 X59.655363 Y186.017018 Z-0.125000
G01 X59.639954 Y186.035899 Z-0.125000
G03 X59.630024 Y186.047837 Z-0.125000 I-0.937110 J-0.769417
G03 X59.620057 Y186.059549 Z-0.125000 I-1.230011 J-1.036557
G01 X59.603321 Y186.077498 Z-0.125000
G03 X59.593059 Y186.088310 Z-0.125000 I-1.804208 J-1.702358
G03 X59.581844 Y186.099653 Z-0.125000 I-0.332878 J-0.317890
G01 X59.563923 Y186.116558 Z-0.125000
G03 X59.553104 Y186.126822 Z-0.125000 I-0.097963 J-0.092433
G02 X59.541007 Y186.137188 Z-0.125000 I1.057732 J1.246514
G01 X59.521505 Y186.153162 Z-0.125000
G03 X59.499450 Y186.170243 Z-0.125000 I-0.529185 J-0.660515
G03 X59.476719 Y186.186727 Z-0.125000 I-0.558385 J-0.746080
G03 X59.464431 Y186.195381 Z-0.125000 I-0.241459 J-0.329797
G03 X59.451037 Y186.204083 Z-0.125000 I-0.235446 J-0.347720
G01 X59.429306 Y186.217545 Z-0.125000
G01 X59.413389 Y186.228101 Z-0.125000
G01 X59.401535 Y186.233886 Z-0.125000
G01 X59.392307 Y186.238486 Z-0.125000
G01 X56.655609 Y187.723596 Z-0.125000
G02 X56.651325 Y187.725574 Z-0.125000 I0.066930 J0.150593
G01 X56.650332 Y187.727152 Z-0.125000
G01 X52.122680 Y190.315172 Z-0.125000
G03 X51.700288 Y190.426757 Z-0.125000 I-0.419859 J-0.734079
G03 X51.278813 Y190.312915 Z-0.125000 I0.002535 J-0.846513
G01 X49.079012 Y189.037411 Z-0.125000
G03 X49.065433 Y189.030358 Z-0.125000 I0.205155 J-0.411569
G03 X49.051862 Y189.022453 Z-0.125000 I0.117722 J-0.217708
G01 X44.554719 Y186.450717 Z-0.125000
G03 X44.539499 Y186.442894 Z-0.125000 I0.066668 J-0.148415
G02 X44.525080 Y186.434518 Z-0.125000 I-3.646755 J6.261035
G01 X40.026669 Y183.861845 Z-0.125000
G01 X39.997956 Y183.846464 Z-0.125000
G01 X35.502063 Y181.275535 Z-0.125000
G03 X35.167221 Y180.964655 Z-0.125000 I0.387015 J-0.752610
G03 X35.042777 Y180.525022 Z-0.125000 I0.721947 J-0.441786
G01 X35.036201 Y176.456275 Z-0.125000
G03 X35.151712 Y176.028068 Z-0.125000 I0.845678 J-0.001558
G03 X35.468089 Y175.717216 Z-0.125000 I0.730003 J0.426552
G01 X38.184895 Y174.192031 Z-0.125000
G01 X38.184895 Y171.726399 Z-0.125000
G03 X38.432568 Y171.128461 Z-0.125000 I0.845615 J0.000000
G03 X39.030501 Y170.880788 Z-0.125000 I0.597933 J0.597928
G03 X39.628431 Y171.128460 Z-0.125000 I-0.000000 J0.845597
G03 X39.876104 Y171.726399 Z-0.125000 I-0.597944 J0.597939
G01 X39.876104 Y173.242870 Z-0.125000
G01 X42.764422 Y171.621605 Z-0.125000
G03 X43.213943 Y171.514051 Z-0.125000 I0.414037 J0.737303
G03 X43.652852 Y171.658898 Z-0.125000 I-0.035487 J0.844936
G01 X45.428961 Y172.677006 Z-0.125000
G01 X45.428961 Y167.514732 Z-0.125000
G03 X45.676640 Y166.916783 Z-0.125000 I0.845627 J-0.000000
G03 X46.274550 Y166.669121 Z-0.125000 I0.597910 J0.597911
G03 X46.872498 Y166.916799 Z-0.125000 I0.000000 J0.845626
G03 X47.120170 Y167.514732 Z-0.125000 I-0.597933 J0.597933
G01 X47.120170 Y173.646831 Z-0.125000
G01 X48.126086 Y174.223358 Z-0.125000
G03 X48.209885 Y174.278129 Z-0.125000 I-0.406634 J0.713629
G03 X48.284413 Y174.340596 Z-0.125000 I-0.503493 J0.676403
G01 X48.346851 Y174.376136 Z-0.125000
G01 X48.346851 Y169.159100 Z-0.125000
G03 X48.594531 Y168.561158 Z-0.125000 I0.845607 J0.000000
G03 X49.192468 Y168.313489 Z-0.125000 I0.597937 J0.597951
G03 X49.790390 Y168.561161 Z-0.125000 I0.000000 J0.845577
G03 X50.038060 Y169.159100 Z-0.125000 I-0.597955 J0.597939
G01 X50.038060 Y175.343721 Z-0.125000
G01 X51.264795 Y176.045449 Z-0.125000
G01 X51.264795 Y170.858038 Z-0.125000
G03 X51.512508 Y170.260005 Z-0.125000 I0.845748 J-0.000000
G03 X52.110519 Y170.012300 Z-0.125000 I0.598011 J0.598009
G03 X52.708556 Y170.260013 Z-0.125000 I-0.000000 J0.845757
G03 X52.956268 Y170.858038 Z-0.125000 I-0.598017 J0.598026
G01 X52.956268 Y177.027478 Z-0.125000
G01 X54.182990 Y177.739401 Z-0.125000
G01 X54.182990 Y172.517880 Z-0.125000
G03 X54.289669 Y172.086376 Z-0.125000 I0.851902 J-0.018326
G03 X54.599764 Y171.768287 Z-0.125000 I0.737801 J0.409064
G03 X55.028594 Y171.651531 Z-0.125000 I0.428830 J0.729137
G03 X55.457423 Y171.768287 Z-0.125000 I0.000000 J0.845893
G03 X55.767859 Y172.086351 Z-0.125000 I-0.428842 J0.729084
G03 X55.874198 Y172.517880 Z-0.125000 I-0.739347 J0.411059
G01 X55.874198 Y178.697283 Z-0.125000
G01 X57.100919 Y179.399009 Z-0.125000
G01 X57.100919 Y174.195658 Z-0.125000
G03 X57.348619 Y173.597654 Z-0.125000 I0.845706 J0.000000
G03 X57.946654 Y173.349939 Z-0.125000 I0.598035 J0.598032
G03 X58.544686 Y173.597649 Z-0.125000 I-0.000000 J0.845752
G03 X58.792393 Y174.195658 Z-0.125000 I-0.597998 J0.598009
G01 X58.792393 Y180.366607 Z-0.125000
G01 X59.410225 Y180.720071 Z-0.125000
G03 X59.721982 Y181.029947 Z-0.125000 I-0.419923 J0.734235
G03 X59.836129 Y181.454419 Z-0.125000 I-0.731630 J0.424330
G01 X59.835283 Y185.496270 Z-0.125000
G01 X59.838356 Y185.497402 Z-0.125000
G00 Z5.000000

(End cutting path id: path3385)


(Start cutting path id: path3385)
(Change tool to Default tool)

G00 Z5.000000
G00 X59.198928 Y186.007798

G01 Z-0.125000 F100.0(Penetrate)
G01 X59.198928 Y186.011862 Z-0.125000 F400.000000
G01 X59.198928 Y186.018184 Z-0.125000
G03 X59.198470 Y186.031475 Z-0.125000 I-0.192918 J-0.000000
G02 X59.197799 Y186.044769 Z-0.125000 I0.357839 J0.024712
G01 X59.196670 Y186.070084 Z-0.125000
G01 X59.193622 Y186.100468 Z-0.125000
G02 X59.192177 Y186.113940 Z-0.125000 I0.339270 J0.043219
G03 X59.190574 Y186.127054 Z-0.125000 I-0.190747 J-0.016654
G00 Z5.000000

(End cutting path id: path3385)


(Start cutting path id: path3385)
(Change tool to Default tool)

G00 Z5.000000
G00 X47.129336 Y175.600757

G01 Z-0.125000 F100.0(Penetrate)
G01 X46.682739 Y175.344850 Z-0.125000 F400.000000
G03 X46.392842 Y175.714308 Z-0.125000 I-2.360449 J-1.553675
G03 X45.930978 Y176.126983 Z-0.125000 I-2.441260 J-2.267448
G03 X45.302871 Y176.282754 Z-0.125000 I-0.502083 J-0.680298
G03 X44.748569 Y175.948757 Z-0.125000 I0.126033 J-0.836124
G03 X44.592806 Y175.320626 Z-0.125000 I0.680368 J-0.502094
G03 X44.926798 Y174.766334 Z-0.125000 I0.836115 J0.126035
G02 X45.095238 Y174.623132 Z-0.125000 I-0.968249 J-1.309569
G02 X45.207104 Y174.499238 Z-0.125000 I-0.912759 J-0.936591
G01 X44.027183 Y173.822907 Z-0.125000
G01 X44.027183 Y175.920622 Z-0.125000
G01 X58.147647 Y184.036196 Z-0.125000
G01 X58.148212 Y182.302398 Z-0.125000
G03 X57.890581 Y182.571023 Z-0.125000 I-2.440191 J-2.082465
G03 X57.603568 Y182.807985 Z-0.125000 I-2.181307 J-2.349740
G03 X56.980240 Y182.953273 Z-0.125000 I-0.489406 J-0.689920
G03 X56.433596 Y182.620375 Z-0.125000 I0.133914 J-0.835161
G03 X56.276587 Y181.999912 Z-0.125000 I0.680513 J-0.502302
G03 X56.599139 Y181.447078 Z-0.125000 I0.837567 J0.118168
G02 X56.751189 Y181.319864 Z-0.125000 I-0.963469 J-1.306037
G02 X56.857023 Y181.207359 Z-0.125000 I-0.913682 J-0.965533
G01 X55.414255 Y180.382166 Z-0.125000
G03 X55.129219 Y180.736740 Z-0.125000 I-2.364061 J-1.608570
G03 X54.685388 Y181.129942 Z-0.125000 I-2.423249 J-2.288181
G03 X54.063166 Y181.272855 Z-0.125000 I-0.486461 J-0.691992
G03 X53.518314 Y180.940185 Z-0.125000 I0.135753 J-0.834856
G03 X53.361139 Y180.321426 Z-0.125000 I0.680613 J-0.502228
G03 X53.681210 Y179.769058 Z-0.125000 I0.837764 J0.116528
G02 X53.823940 Y179.650648 Z-0.125000 I-0.970923 J-1.315567
G02 X53.925908 Y179.545013 Z-0.125000 I-0.930124 J-0.999866
G01 X52.499788 Y178.717583 Z-0.125000
G03 X52.214016 Y179.074361 Z-0.125000 I-2.357616 J-1.595567
G03 X51.767193 Y179.470346 Z-0.125000 I-2.419024 J-2.279500
G03 X51.143870 Y179.615642 Z-0.125000 I-0.489410 J-0.689895
G03 X50.597195 Y179.282758 Z-0.125000 I0.133924 J-0.835264
G03 X50.440210 Y178.662272 Z-0.125000 I0.680555 J-0.502286
G03 X50.762778 Y178.109451 Z-0.125000 I0.837584 J0.118207
G02 X50.921341 Y177.975924 Z-0.125000 I-0.960463 J-1.301459
G02 X51.029619 Y177.859278 Z-0.125000 I-0.940536 J-0.981642
G01 X49.575376 Y177.027360 Z-0.125000
G03 X49.290947 Y177.380388 Z-0.125000 I-2.355949 J-1.607055
G03 X48.848750 Y177.771650 Z-0.125000 I-2.421586 J-2.291318
G03 X48.220758 Y177.926957 Z-0.125000 I-0.501566 J-0.680801
G03 X47.666749 Y177.592919 Z-0.125000 I0.126427 J-0.836119
G03 X47.510963 Y176.965030 Z-0.125000 I0.680466 J-0.502102
G03 X47.844569 Y176.410755 Z-0.125000 I0.836246 J0.125786
G02 X47.990989 Y176.288873 Z-0.125000 I-0.974082 J-1.319077
G02 X48.094511 Y176.180512 Z-0.125000 I-0.916276 J-0.978991
G01 X47.288716 Y175.719491 Z-0.125000
G03 X47.205762 Y175.664525 Z-0.125000 I0.454784 J-0.776417
G03 X47.129415 Y175.600752 Z-0.125000 I0.537057 J-0.720539
G01 X47.129336 Y175.600757 Z-0.125000
G00 Z5.000000

(End cutting path id: path3385)


(Start cutting path id: path3385)
(Change tool to Default tool)

G00 Z5.000000
G00 X40.813262 Y182.363386

G01 Z-0.125000 F100.0(Penetrate)
G03 X40.827270 Y182.371023 Z-0.125000 I-0.148457 J0.288961 F400.000000
G02 X40.841583 Y182.379106 Z-0.125000 I0.425765 J-0.737253
G01 X45.338727 Y184.950802 Z-0.125000
G03 X45.353947 Y184.958626 Z-0.125000 I-0.066668 J0.148415
G02 X45.368365 Y184.967002 Z-0.125000 I3.646755 J-6.261035
G01 X49.863759 Y187.537685 Z-0.125000
G03 X49.881635 Y187.547128 Z-0.125000 I-0.139003 J0.284787
G03 X49.899850 Y187.557610 Z-0.125000 I-1.207308 J2.118983
G01 X51.709315 Y188.606847 Z-0.125000
G01 X55.790736 Y186.273877 Z-0.125000
G03 X55.810314 Y186.262302 Z-0.125000 I0.423736 J0.694332
G03 X55.829463 Y186.251497 Z-0.125000 I0.872885 J1.524592
G01 X57.258046 Y185.476334 Z-0.125000
G01 X43.172691 Y177.380431 Z-0.125000
G01 X42.037096 Y178.009245 Z-0.125000
G01 X40.846471 Y178.669893 Z-0.125000
G01 X37.891430 Y180.357133 Z-0.125000
G01 X37.597952 Y180.524906 Z-0.125000
G01 X40.813104 Y182.363491 Z-0.125000
G01 X40.813262 Y182.363386 Z-0.125000
G00 Z5.000000

(End cutting path id: path3385)


(Start cutting path id: path3385)
(Change tool to Default tool)

G00 Z5.000000
G00 X36.735317 Y179.069565

G01 Z-0.125000 F100.0(Penetrate)
G01 X37.055693 Y178.886595 Z-0.125000 F400.000000
G01 X40.001760 Y177.202851 Z-0.125000
G01 X40.012315 Y177.197066 Z-0.125000
G01 X41.243764 Y176.515265 Z-0.125000
G01 X42.336557 Y175.908868 Z-0.125000
G01 X42.336557 Y173.804416 Z-0.125000
G01 X36.732182 Y176.950378 Z-0.125000
G01 X36.736133 Y179.069257 Z-0.125000
G01 X36.735317 Y179.069565 Z-0.125000
G00 Z5.000000

(End cutting path id: path3385)


(Start cutting path id: path3385)
(Change tool to Default tool)

G00 Z5.000000
G00 X69.159851 Y166.006342

G01 Z-0.125000 F100.0(Penetrate)
G01 X47.437845 Y153.464767 Z-0.125000 F400.000000
G01 X25.715838 Y166.006342 Z-0.125000
G01 X25.715838 Y191.089488 Z-0.125000
G01 X47.437845 Y203.631063 Z-0.125000
G01 X69.159851 Y191.089488 Z-0.125000
G01 X69.159851 Y166.006342 Z-0.125000
G00 Z5.000000

(End cutting path id: path3385)


(Start cutting path id: path3385)
(Change tool to Default tool)

G00 Z5.000000
G00 X89.299729 Y188.306597

G01 Z-0.125000 F100.0(Penetrate)
G01 X89.299729 Y179.665251 Z-0.125000 F400.000000
G01 X94.355452 Y179.665251 Z-0.125000
G03 X94.937465 Y179.821101 Z-0.125000 I-0.000000 J1.164674
G03 X95.287714 Y180.203094 Z-0.125000 I-0.430612 J0.746396
G03 X95.484123 Y180.792320 Z-0.125000 I-3.142495 J1.374849
G03 X95.717987 Y182.031761 Z-0.125000 I-13.769751 J3.239930
G02 X95.803718 Y182.280114 Z-0.125000 I0.631137 J-0.078893
G02 X95.933125 Y182.390321 Z-0.125000 I0.228277 J-0.136967
G02 X96.121179 Y182.466221 Z-0.125000 I0.334049 J-0.556749
G02 X96.399257 Y182.497890 Z-0.125000 I0.278079 J-1.205007
G02 X96.506333 Y182.491960 Z-0.125000 I-0.000000 J-0.969600
G02 X96.721962 Y182.462034 Z-0.125000 I-0.441245 J-3.971166
G02 X96.970941 Y182.449616 Z-0.125000 I0.000000 J-2.502210
G02 X97.080525 Y182.426178 Z-0.125000 I-0.050313 J-0.503130
G03 X97.014095 Y181.601085 Z-0.125000 I64.429941 J-5.602623
G03 X96.937100 Y180.489944 Z-0.125000 I116.772858 J-8.649879
G03 X96.908624 Y179.414134 Z-0.125000 I78.420980 J-2.614040
G03 X96.901243 Y178.661277 Z-0.125000 I38.395599 J-0.752857
G03 X96.908745 Y178.016016 Z-0.125000 I27.753632 J-0.000000
G03 X96.937100 Y177.119460 Z-0.125000 I53.611891 J1.246793
G03 X96.986256 Y176.259831 Z-0.125000 I27.790809 J1.157954
G03 X97.080525 Y175.147370 Z-0.125000 I46.641112 J3.392095
G02 X96.966120 Y175.093549 Z-0.125000 I-0.237365 J0.356048
G02 X96.721962 Y175.039801 Z-0.125000 I-0.480780 J1.602599
G01 X96.399257 Y175.039801 Z-0.125000
G02 X95.905064 Y175.202208 Z-0.125000 I0.000000 J0.833102
G02 X95.717987 Y175.541787 Z-0.125000 I0.274508 J0.372549
G03 X95.430152 Y176.877444 Z-0.125000 I-12.131035 J-1.915409
G03 X95.216001 Y177.370454 Z-0.125000 I-1.832914 J-0.503152
G03 X94.877741 Y177.731240 Z-0.125000 I-0.774662 J-0.387333
G03 X94.355452 Y177.872440 Z-0.125000 I-0.522289 J-0.895354
G01 X89.299729 Y177.872440 Z-0.125000
G01 X89.299729 Y169.840650 Z-0.125000
G03 X89.527015 Y169.261857 Z-0.125000 I0.850602 J0.000000
G03 X90.231988 Y168.836678 Z-0.125000 I1.092589 J1.014547
G03 X91.175865 Y168.673502 Z-0.125000 I1.358120 J5.044429
G03 X93.387334 Y168.585684 Z-0.125000 I2.211469 J27.801229
G01 X94.893294 Y168.585684 Z-0.125000
G03 X95.952762 Y168.669905 Z-0.125000 I0.000000 J6.705939
G03 X96.686105 Y168.872532 Z-0.125000 I-0.542928 J3.393324
G03 X97.403175 Y169.219099 Z-0.125000 I-1.646099 J4.320995
G03 X98.012787 Y169.661368 Z-0.125000 I-2.113288 J3.554172
G03 X98.547416 Y170.231490 Z-0.125000 I-4.155734 J4.432761
G03 X99.016758 Y170.880481 Z-0.125000 I-4.925348 J4.056156
G03 X99.431977 Y171.605870 Z-0.125000 I-17.450292 J10.470217
G03 X99.877308 Y172.458154 Z-0.125000 I-23.647919 J12.898869
G02 X100.038003 Y172.628580 Z-0.125000 I0.312975 J-0.134132
G02 X100.379294 Y172.709148 Z-0.125000 I0.341291 J-0.682577
G02 X100.554157 Y172.687621 Z-0.125000 I-0.000000 J-0.720979
G02 X100.809570 Y172.601579 Z-0.125000 I-0.409203 J-1.636814
G01 X101.311555 Y172.386441 Z-0.125000
G02 X101.229080 Y172.103216 Z-0.125000 I-3.728755 J0.932189
G02 X101.132277 Y171.848599 Z-0.125000 I-3.109185 J1.036384
G01 X100.988851 Y171.346610 Z-0.125000
G03 X100.831102 Y170.944897 Z-0.125000 I3.747880 J-1.703594
G03 X100.702001 Y170.486061 Z-0.125000 I4.764078 J-1.588031
G02 X100.582629 Y170.023489 Z-0.125000 I-9.039592 J2.086072
G02 X100.486863 Y169.733081 Z-0.125000 I-3.654839 J1.044244
G02 X100.412172 Y169.375162 Z-0.125000 I-21.519240 J4.303882
G02 X100.307584 Y168.908388 Z-0.125000 I-36.704689 J7.979182
G02 X100.227276 Y168.479903 Z-0.125000 I-10.685123 J1.780866
G02 X100.128302 Y168.047842 Z-0.125000 I-10.963236 J2.284022
G02 X100.043937 Y167.656664 Z-0.125000 I-6.046618 J1.099385
G02 X99.949020 Y167.330715 Z-0.125000 I-4.291048 J1.072762
G02 X99.873114 Y167.009172 Z-0.125000 I-12.258829 J2.724208
G02 X99.841451 Y166.900442 Z-0.125000 I-1.431446 J0.357864
G02 X99.643243 Y166.702233 Z-0.125000 I-0.396419 J0.198210
G02 X99.267753 Y166.613591 Z-0.125000 I-0.375490 J0.750976
G02 X98.981110 Y166.619820 Z-0.125000 I-0.000000 J6.599001
G02 X98.443060 Y166.649447 Z-0.125000 I1.012541 J23.288366
G03 X97.905119 Y166.683680 Z-0.125000 I-5.940007 J-89.099641
G03 X97.259804 Y166.721160 Z-0.125000 I-7.768560 J-128.180938
G02 X96.650490 Y166.729863 Z-0.125000 I0.000000 J21.334572
G02 X96.004838 Y166.757016 Z-0.125000 I0.685230 J23.982934
G03 X95.359218 Y166.785360 Z-0.125000 I-1.541731 J-27.751038
G03 X94.893294 Y166.792873 Z-0.125000 I-0.465924 J-14.443601
G01 X86.753938 Y166.792873 Z-0.125000
G03 X85.714209 Y166.785114 Z-0.125000 I0.000000 J-69.669341
G03 X84.351572 Y166.757016 Z-0.125000 I1.786491 J-119.694463
G03 X83.025118 Y166.681571 Z-0.125000 I12.739264 J-235.675383
G03 X81.949206 Y166.613591 Z-0.125000 I9.261033 J-155.121750
G02 X81.898309 Y166.761931 Z-0.125000 I0.528396 J0.264198
G02 X81.877493 Y166.972154 Z-0.125000 I1.051120 J0.210224
G01 X81.877493 Y167.330715 Z-0.125000
G02 X81.999959 Y167.757730 Z-0.125000 I0.805690 J0.000000
G02 X82.236056 Y167.904416 Z-0.125000 I0.267484 J-0.167177
G03 X83.578991 Y168.213982 Z-0.125000 I-2.813145 J15.271465
G03 X84.172290 Y168.442258 Z-0.125000 I-0.884285 J3.183430
G03 X84.611447 Y168.837244 Z-0.125000 I-0.435891 J0.926264
G03 X84.781845 Y169.446233 Z-0.125000 I-1.003042 J0.608989
G01 X84.781845 Y187.410191 Z-0.125000
G03 X84.749235 Y187.761054 Z-0.125000 I-1.903867 J-0.000000
G03 X84.674276 Y187.983890 Z-0.125000 I-0.833013 J-0.156191
G03 X84.525272 Y188.193995 Z-0.125000 I-0.562632 J-0.241122
G03 X84.244003 Y188.378309 Z-0.125000 I-0.705005 J-0.769091
G03 X83.943822 Y188.524678 Z-0.125000 I-0.845111 J-1.352198
G03 X83.455166 Y188.665157 Z-0.125000 I-1.263086 J-3.473509
G03 X82.985076 Y188.792629 Z-0.125000 I-2.125347 J-6.907336
G03 X82.236056 Y188.952008 Z-0.125000 I-4.091715 J-17.389708
G02 X81.994336 Y189.146511 Z-0.125000 I0.118366 J0.394552
G02 X81.877493 Y189.597419 Z-0.125000 I0.811631 J0.450908
G01 X81.877493 Y189.920126 Z-0.125000
G02 X81.894913 Y190.096053 Z-0.125000 I0.897047 J-0.000000
G02 X81.949206 Y190.278687 Z-0.125000 I1.021731 J-0.204348
G03 X83.491682 Y190.184294 Z-0.125000 I6.300316 J90.304201
G03 X84.674276 Y190.135261 Z-0.125000 I2.791048 J53.029702
G03 X85.857646 Y190.106954 Z-0.125000 I2.811686 J92.792712
G03 X86.718081 Y190.099408 Z-0.125000 I0.860435 J49.048513
G01 X94.068604 Y190.099408 Z-0.125000
G03 X95.680663 Y190.130799 Z-0.125000 I0.000000 J41.408472
G03 X96.829531 Y190.206974 Z-0.125000 I-0.822053 J21.099837
G02 X98.013436 Y190.300238 Z-0.125000 I4.462974 J-49.092594
G02 X98.443060 Y190.314543 Z-0.125000 I0.429624 J-6.444342
G02 X98.784803 Y190.225023 Z-0.125000 I0.000000 J-0.697066
G02 X99.016758 Y189.991839 Z-0.125000 I-0.296222 J-0.526619
G02 X99.095440 Y189.698385 Z-0.125000 I-1.471526 J-0.551822
G02 X99.196040 Y188.916152 Z-0.125000 I-10.446187 J-1.741036
G03 X99.291232 Y188.166828 Z-0.125000 I11.972300 J1.140223
G03 X99.447034 Y187.338479 Z-0.125000 I14.789219 J2.352839
G03 X99.565002 Y186.731138 Z-0.125000 I17.738890 J3.130407
G03 X99.698026 Y186.155225 Z-0.125000 I16.083031 J3.411530
G03 X99.856617 Y185.586047 Z-0.125000 I10.711458 J2.677864
G03 X100.128302 Y184.756831 Z-0.125000 I23.015587 J7.081733
G02 X99.947966 Y184.687995 Z-0.125000 I-2.259034 J5.647584
G02 X99.733882 Y184.613406 Z-0.125000 I-2.867368 J7.885263
G02 X99.515896 Y184.559265 Z-0.125000 I-0.454016 J1.362083
G02 X99.303609 Y184.541696 Z-0.125000 I-0.212287 J1.273764
G02 X98.961864 Y184.631216 Z-0.125000 I-0.000000 J0.697070
G02 X98.729911 Y184.864400 Z-0.125000 I0.296217 J0.526609
G03 X98.269623 Y185.779866 Z-0.125000 I-13.901384 J-6.416043
G03 X97.869361 Y186.442073 Z-0.125000 I-7.664740 J-4.180768
G03 X97.419226 Y187.073337 Z-0.125000 I-3.549955 J-2.055246
G03 X96.937100 Y187.517760 Z-0.125000 I-2.217198 J-1.921571
G03 X96.397817 Y187.875830 Z-0.125000 I-1.723958 J-2.011286
G03 X95.717987 Y188.127315 Z-0.125000 I-1.485406 J-2.970818
G03 X95.029980 Y188.254501 Z-0.125000 I-1.195715 J-4.543698
G03 X94.068604 Y188.306597 Z-0.125000 I-0.961375 J-8.844608
G01 X89.299729 Y188.306597 Z-0.125000
G01 X89.299729 Y188.306597 Z-0.125000
G00 Z5.000000

(End cutting path id: path3385)


(Start cutting path id: path3385)
(Change tool to Default tool)

G00 Z5.000000
G00 X113.553650 Y177.800728

G01 Z-0.125000 F100.0(Penetrate)
G02 X113.145883 Y177.943503 Z-0.125000 I0.058658 J0.821207 F400.000000
G02 X112.979951 Y178.195147 Z-0.125000 I0.227038 J0.330236
G03 X112.520416 Y179.538820 Z-0.125000 I-4.381552 J-0.748073
G03 X111.832552 Y180.346519 Z-0.125000 I-2.188983 J-1.167459
G03 X110.871643 Y180.836311 Z-0.125000 I-1.837982 J-2.418400
G03 X109.573611 Y181.027786 Z-0.125000 I-1.298032 J-4.304001
G03 X108.427117 Y180.845135 Z-0.125000 I-0.000000 J-3.689581
G03 X107.709087 Y180.418232 Z-0.125000 I0.593584 J-1.815671
G03 X107.225694 Y179.738839 Z-0.125000 I1.473199 J-1.559858
G03 X107.063676 Y178.983984 Z-0.125000 I1.677457 J-0.754855
G03 X107.092741 Y178.594281 Z-0.125000 I2.627075 J0.000000
G03 X107.171245 Y178.266860 Z-0.125000 I1.928643 J0.289298
G03 X107.320530 Y177.971660 Z-0.125000 I1.075246 J0.358415
G03 X107.601518 Y177.657302 Z-0.125000 I1.504290 J1.061845
G03 X107.977060 Y177.397700 Z-0.125000 I2.041941 J2.552452
G03 X108.569636 Y177.083604 Z-0.125000 I3.596256 J6.068693
G03 X109.185433 Y176.849936 Z-0.125000 I4.488995 J10.901794
G03 X110.219022 Y176.509905 Z-0.125000 I10.570594 J30.390503
G02 X111.423519 Y176.112420 Z-0.125000 I-5.474004 J-18.611572
G02 X112.370394 Y175.721069 Z-0.125000 I-4.357648 J-11.884492
G02 X113.261948 Y175.262213 Z-0.125000 I-2.604572 J-6.156243
G02 X113.948067 Y174.752951 Z-0.125000 I-2.538795 J-4.137292
G02 X114.508580 Y174.120094 Z-0.125000 I-2.359399 J-2.654337
G02 X114.916185 Y173.354559 Z-0.125000 I-3.073130 J-2.127554
G02 X115.172866 Y172.543654 Z-0.125000 I-3.232198 J-1.469186
G02 X115.274748 Y171.454179 Z-0.125000 I-5.774200 J-1.089475
G02 X115.182531 Y170.431474 Z-0.125000 I-5.717072 J0.000000
G02 X114.916185 Y169.482089 Z-0.125000 I-5.186579 J0.943018
G02 X114.491545 Y168.615383 Z-0.125000 I-3.737128 J1.293614
G02 X113.840498 Y167.832704 Z-0.125000 I-3.685702 J2.403721
G02 X113.030516 Y167.247998 Z-0.125000 I-3.047584 J3.368384
G02 X111.940121 Y166.757016 Z-0.125000 I-3.206392 J5.664615
G02 X110.773787 Y166.475924 Z-0.125000 I-2.064439 J6.005668
G02 X109.179191 Y166.362600 Z-0.125000 I-1.594596 J11.162215
G02 X108.036258 Y166.416536 Z-0.125000 I0.000000 J12.136457
G02 X106.525834 Y166.613591 Z-0.125000 I2.025540 J21.412997
G02 X105.092489 Y166.972609 Z-0.125000 I1.630681 J9.551094
G02 X103.836617 Y167.509997 Z-0.125000 I2.618645 J7.855935
G02 X103.766850 Y168.442400 Z-0.125000 I223.430882 J17.187043
G02 X103.693192 Y169.482089 Z-0.125000 I277.732831 J20.198809
G02 X103.666146 Y170.557921 Z-0.125000 I65.690348 J2.189690
G02 X103.657336 Y171.597605 Z-0.125000 I61.341114 J1.039684
G01 X104.123468 Y171.597605 Z-0.125000
G02 X104.508423 Y171.557522 Z-0.125000 I-0.000000 J-1.868610
G02 X104.804736 Y171.454179 Z-0.125000 I-0.253081 J-1.202131
G02 X105.026487 Y171.295226 Z-0.125000 I-0.184144 J-0.491052
G02 X105.127443 Y171.059762 Z-0.125000 I-0.357889 J-0.292820
G03 X105.524394 Y169.691521 Z-0.125000 I3.805919 J0.362463
G03 X106.310696 Y168.729109 Z-0.125000 I2.594121 J1.317014
G03 X107.429960 Y168.176409 Z-0.125000 I1.994130 J2.628628
G03 X109.179191 Y167.940273 Z-0.125000 I1.749231 J6.360838
G03 X110.380378 Y168.105664 Z-0.125000 I0.000000 J4.444627
G03 X111.222997 Y168.513971 Z-0.125000 I-0.716300 J2.551824
G03 X111.807991 Y169.191471 Z-0.125000 I-1.155938 J1.589417
G03 X112.011833 Y170.019932 Z-0.125000 I-1.581606 J0.828460
G03 X111.832303 Y170.797459 Z-0.125000 I-1.773461 J0.000000
G03 X111.294709 Y171.490036 Z-0.125000 I-1.924067 J-0.938569
G03 X110.545541 Y171.977907 Z-0.125000 I-1.959962 J-2.190546
G03 X108.677205 Y172.673292 Z-0.125000 I-6.020442 J-13.317937
G02 X106.215019 Y173.671839 Z-0.125000 I3.498397 J12.161100
G02 X104.984017 Y174.645382 Z-0.125000 I2.079735 J3.894779
G02 X104.219374 Y175.999544 Z-0.125000 I3.383594 J2.803548
G02 X103.944186 Y177.621446 Z-0.125000 I4.641990 J1.621902
G02 X104.358447 Y179.696542 Z-0.125000 I5.404375 J-0.000000
G02 X105.450147 Y181.242924 Z-0.125000 I3.993207 J-1.660540
G02 X107.136470 Y182.223717 Z-0.125000 I3.300764 J-3.735076
G02 X109.430186 Y182.605459 Z-0.125000 I2.293716 J-6.700069
G02 X110.816039 Y182.513476 Z-0.125000 I-0.000000 J-10.485850
G02 X112.119402 Y182.246896 Z-0.125000 I-1.271461 J-9.535927
G02 X113.425324 Y181.867527 Z-0.125000 I-3.644587 J-14.983369
G02 X114.234917 Y181.529772 Z-0.125000 I-2.059917 J-6.076755
G02 X114.265927 Y181.242449 Z-0.125000 I-8.510624 J-1.063838
G02 X114.306630 Y180.740936 Z-0.125000 I-25.893145 J-2.353931
G02 X114.340641 Y180.274678 Z-0.125000 I-58.887195 J-4.529812
G02 X114.378343 Y179.701108 Z-0.125000 I-89.075670 J-6.143183
G02 X114.405242 Y179.162964 Z-0.125000 I-16.171239 J-1.078083
G02 X114.414199 Y178.625421 Z-0.125000 I-16.126276 J-0.537544
G02 X114.442594 Y178.123169 Z-0.125000 I-16.915269 J-1.208240
G02 X114.450055 Y177.764871 Z-0.125000 I-8.599105 J-0.358297
G01 X113.553650 Y177.800728 Z-0.125000
G01 X113.553650 Y177.800728 Z-0.125000
G00 Z5.000000

(End cutting path id: path3385)


(Start cutting path id: path3385)
(Change tool to Default tool)

G00 Z5.000000
G00 X125.048364 Y181.027786

G01 Z-0.125000 F100.0(Penetrate)
G03 X123.779786 Y180.643692 Z-0.125000 I-0.000000 J-2.286960 F400.000000
G03 X122.789423 Y179.521826 Z-0.125000 I1.617048 J-2.425572
G03 X122.266577 Y177.996214 Z-0.125000 I5.029407 J-2.576038
G03 X122.036443 Y175.541787 Z-0.125000 I12.973401 J-2.454427
G03 X122.454475 Y172.100300 Z-0.125000 I14.375184 J0.000000
G03 X123.327265 Y170.306782 Z-0.125000 I4.620184 J1.139223
G03 X124.873185 Y169.115099 Z-0.125000 I3.243140 J2.608616
G03 X127.020456 Y168.657396 Z-0.125000 I2.147272 J4.808023
G03 X127.876129 Y168.702783 Z-0.125000 I0.000000 J8.088670
G03 X128.705695 Y168.836678 Z-0.125000 I-0.822893 J7.735157
G03 X129.533218 Y169.128186 Z-0.125000 I-1.136969 J4.547921
G03 X130.570219 Y169.697225 Z-0.125000 I-3.570767 J7.736690
G02 X130.941121 Y169.867816 Z-0.125000 I0.962479 J-1.604132
G02 X131.215630 Y169.912363 Z-0.125000 I0.274509 J-0.823524
G02 X131.469538 Y169.848348 Z-0.125000 I0.000000 J-0.535557
G02 X131.681763 Y169.661368 Z-0.125000 I-0.296248 J-0.550174
G02 X131.838140 Y169.432198 Z-0.125000 I-1.112393 J-0.926992
G02 X132.076179 Y168.944244 Z-0.125000 I-4.858650 J-2.672249
G02 X130.820376 Y167.978564 Z-0.125000 I-6.482885 J7.131177
G02 X129.243540 Y167.115580 Z-0.125000 I-6.730009 J10.424922
G02 X127.581788 Y166.579969 Z-0.125000 I-2.965187 J6.353975
G02 X125.263502 Y166.362600 Z-0.125000 I-2.318286 J12.253802
G02 X123.704823 Y166.482498 Z-0.125000 I0.000000 J10.191383
G02 X122.251581 Y166.828729 Z-0.125000 I1.423424 J9.197531
G02 X120.928976 Y167.425023 Z-0.125000 I2.257101 J6.771289
G02 X119.777502 Y168.262977 Z-0.125000 I3.449108 J5.949715
G02 X118.865693 Y169.320855 Z-0.125000 I4.345460 J4.667347
G02 X118.128117 Y170.665343 Z-0.125000 I6.338546 J4.351838
G02 X117.688847 Y172.169350 Z-0.125000 I6.658767 J2.760950
G02 X117.518562 Y174.107539 Z-0.125000 I10.945082 J1.938189
G02 X117.710050 Y175.965563 Z-0.125000 I9.110000 J-0.000000
G02 X118.235686 Y177.549733 Z-0.125000 I7.121396 J-1.483624
G02 X119.109614 Y179.040459 Z-0.125000 I9.190778 J-4.386507
G02 X120.136063 Y180.238950 Z-0.125000 I6.935253 J-4.900906
G02 X121.368997 Y181.259601 Z-0.125000 I6.034051 J-6.034051
G02 X122.717710 Y181.995905 Z-0.125000 I4.425020 J-6.502070
G02 X124.181209 Y182.461851 Z-0.125000 I3.212469 J-7.558757
G02 X125.514496 Y182.605459 Z-0.125000 I1.333287 J-6.117445
G02 X127.217652 Y182.491733 Z-0.125000 I0.000000 J-12.810026
G02 X128.454704 Y182.211043 Z-0.125000 I-0.940572 J-7.011559
G02 X129.625363 Y181.727237 Z-0.125000 I-2.470514 J-7.636099
G02 X130.426794 Y181.207068 Z-0.125000 I-2.071603 J-4.069214
G02 X131.140882 Y180.568699 Z-0.125000 I-2.802700 J-3.853717
G02 X131.574194 Y179.952099 Z-0.125000 I-2.177125 J-1.990514
G02 X131.856000 Y179.286799 Z-0.125000 I-2.972767 J-1.651531
G02 X131.932754 Y178.768846 Z-0.125000 I-1.709251 J-0.517953
G02 X131.834205 Y178.553026 Z-0.125000 I-0.285593 J0.000000
G02 X131.394912 Y178.302716 Z-0.125000 I-0.849428 J0.980110
G02 X130.886355 Y178.148737 Z-0.125000 I-1.823503 J5.105781
G02 X130.247515 Y178.015866 Z-0.125000 I-1.982954 J7.931778
G02 X129.601410 Y177.952291 Z-0.125000 I-2.850572 J25.655144
G02 X128.992546 Y177.908297 Z-0.125000 I-1.949013 J22.738430
G01 X128.239566 Y177.908297 Z-0.125000
G02 X127.934767 Y177.957759 Z-0.125000 I0.000000 J0.963854
G02 X127.701724 Y178.087578 Z-0.125000 I0.227482 J0.682442
G02 X127.542914 Y178.314120 Z-0.125000 I1.276746 J1.063955
G02 X127.450729 Y178.517852 Z-0.125000 I0.937841 J0.547077
G03 X127.268357 Y178.982746 Z-0.125000 I-34.964085 J-13.447725
G03 X127.092169 Y179.414257 Z-0.125000 I-30.298855 J-12.119485
G03 X126.887780 Y179.867028 Z-0.125000 I-4.079612 J-1.569091
G03 X126.661893 Y180.238950 Z-0.125000 I-2.973438 J-1.551364
G03 X126.406702 Y180.555780 Z-0.125000 I-1.271288 J-0.762773
G03 X126.052338 Y180.812648 Z-0.125000 I-1.176034 J-1.249537
G03 X125.641885 Y180.964908 Z-0.125000 I-0.729781 J-1.337932
G03 X125.048364 Y181.027786 Z-0.125000 I-0.593521 J-2.769758
G01 X125.048364 Y181.027786 Z-0.125000
G00 Z5.000000

(End cutting path id: path3385)


(Start cutting path id: path3385)
(Change tool to Default tool)

G00 Z5.000000
G00 X142.328811 Y166.613591

G01 Z-0.125000 F100.0(Penetrate)
G03 X141.396454 Y166.683983 Z-0.125000 I-25.313318 J-329.071121 F400.000000
G03 X140.392577 Y166.757016 Z-0.125000 I-28.253417 J-381.419493
G03 X139.388432 Y166.783313 Z-0.125000 I-1.883596 J-52.740535
G03 X138.241205 Y166.792873 Z-0.125000 I-1.147226 J-68.833312
G03 X136.843007 Y166.782281 Z-0.125000 I-0.000000 J-92.291337
G03 X135.874696 Y166.757016 Z-0.125000 I0.671015 J-44.286813
G03 X134.942489 Y166.684605 Z-0.125000 I47.832004 J-621.814865
G03 X134.046029 Y166.613591 Z-0.125000 I45.106979 J-575.111599
G02 X133.991166 Y166.973823 Z-0.125000 I3.863405 J0.772681
G02 X133.974316 Y167.294861 Z-0.125000 I3.049866 J0.321039
G02 X134.011792 Y167.525796 Z-0.125000 I0.730275 J0.000000
G02 X134.081885 Y167.617566 Z-0.125000 I0.168779 J-0.056260
G02 X134.232271 Y167.710510 Z-0.125000 I0.590575 J-0.787434
G02 X134.368736 Y167.760991 Z-0.125000 I0.298169 J-0.596338
G03 X135.494320 Y168.001636 Z-0.125000 I-1.597994 J10.227112
G03 X135.946406 Y168.191264 Z-0.125000 I-0.494083 J1.811639
G03 X136.260106 Y168.540504 Z-0.125000 I-0.524309 J0.786464
G03 X136.376682 Y169.015957 Z-0.125000 I-0.911282 J0.475453
G01 X136.376682 Y187.804608 Z-0.125000
G03 X136.262399 Y188.845693 Z-0.125000 I-4.799149 J-0.000000
G03 X136.018118 Y189.418137 Z-0.125000 I-1.654413 J-0.367649
G03 X135.549687 Y189.811241 Z-0.125000 I-0.839437 J-0.524644
G03 X134.332879 Y190.099408 Z-0.125000 I-1.551319 J-3.837455
G02 X134.003361 Y190.288322 Z-0.125000 I0.080286 J0.521882
G02 X133.866747 Y190.673106 Z-0.125000 I0.473578 J0.384784
G01 X133.866747 Y190.924098 Z-0.125000
G02 X133.885930 Y191.098851 Z-0.125000 I0.805572 J-0.000000
G02 X133.938460 Y191.246805 Z-0.125000 I0.627187 J-0.139375
G01 X134.548014 Y191.246805 Z-0.125000
G02 X134.978678 Y191.273350 Z-0.125000 I0.830243 J-9.962916
G02 X135.444420 Y191.282661 Z-0.125000 I0.465742 J-11.643519
G01 X136.376682 Y191.354374 Z-0.125000
G03 X136.842687 Y191.391714 Z-0.125000 I-5.629603 J73.184401
G03 X137.237231 Y191.426086 Z-0.125000 I-4.374531 J52.494196
G03 X138.130210 Y191.554012 Z-0.125000 I-2.351139 J19.592764
G03 X138.958329 Y191.712934 Z-0.125000 I-2.834547 J17.007393
G02 X139.785471 Y191.869428 Z-0.125000 I3.302997 J-15.193734
G02 X140.069870 Y191.892216 Z-0.125000 I0.284399 J-1.763268
G02 X140.480994 Y191.729639 Z-0.125000 I-0.000000 J-0.601112
G02 X140.643571 Y191.354374 Z-0.125000 I-0.351809 J-0.375265
G02 X140.623311 Y190.961631 Z-0.125000 I-3.816764 J0.000000
G02 X140.536002 Y190.314543 Z-0.125000 I-10.465860 J1.082678
G03 X140.463431 Y189.701924 Z-0.125000 I5.354273 J-0.944876
G03 X140.428433 Y188.557588 Z-0.125000 I18.690752 J-1.144335
G01 X140.428433 Y179.270832 Z-0.125000
G02 X141.680960 Y180.662778 Z-0.125000 I9.131199 J-6.957096
G02 X142.974225 Y181.673198 Z-0.125000 I6.052196 J-6.413523
G02 X144.440772 Y182.380357 Z-0.125000 I3.266106 J-4.899154
G02 X145.878576 Y182.605459 Z-0.125000 I1.437805 J-4.479311
G02 X147.923231 Y182.254079 Z-0.125000 I-0.000000 J-6.124528
G02 X149.320770 Y181.386350 Z-0.125000 I-1.285518 J-3.629699
G02 X150.195841 Y180.006643 Z-0.125000 I-2.447966 J-2.519965
G02 X150.575739 Y177.729015 Z-0.125000 I-6.637654 J-2.277628
G01 X150.575739 Y168.980101 Z-0.125000
G03 X150.684554 Y168.537848 Z-0.125000 I0.953118 J0.000000
G03 X150.970156 Y168.227120 Z-0.125000 I0.725010 J0.379766
G03 X151.421715 Y168.033724 Z-0.125000 I1.005292 J1.723377
G03 X152.583685 Y167.760991 Z-0.125000 I3.268963 J11.315670
G02 X152.717068 Y167.707397 Z-0.125000 I-0.127561 J-0.510246
G02 X152.834680 Y167.617566 Z-0.125000 I-0.276591 J-0.484034
G02 X152.931016 Y167.516751 Z-0.125000 I-0.092335 J-0.184670
G02 X152.978105 Y167.294861 Z-0.125000 I-0.499246 J-0.221889
G02 X152.961255 Y166.973823 Z-0.125000 I-3.066716 J0.000000
G02 X152.906392 Y166.613591 Z-0.125000 I-3.918268 J0.412449
G01 X151.041869 Y166.757016 Z-0.125000
G03 X150.109400 Y166.782118 Z-0.125000 I-1.554759 J-40.423601
G03 X148.711215 Y166.792873 Z-0.125000 I-1.398185 J-90.881670
G03 X147.563989 Y166.783313 Z-0.125000 I-0.000000 J-68.842871
G03 X146.559844 Y166.757016 Z-0.125000 I0.879451 J-52.766832
G03 X145.555967 Y166.683983 Z-0.125000 I27.250662 J-381.508092
G03 X144.623607 Y166.613591 Z-0.125000 I24.382060 J-329.156928
G02 X144.571080 Y166.761545 Z-0.125000 I0.574676 J0.287326
G02 X144.551898 Y166.936298 Z-0.125000 I0.786422 J0.174753
G01 X144.551898 Y167.294861 Z-0.125000
G02 X144.662548 Y167.596932 Z-0.125000 I0.467644 J0.000000
G02 X144.946314 Y167.760991 Z-0.125000 I0.370613 J-0.313595
G03 X145.882276 Y168.006677 Z-0.125000 I-1.198231 J6.470427
G03 X146.201280 Y168.191264 Z-0.125000 I-0.309595 J0.902988
G03 X146.427506 Y168.489446 Z-0.125000 I-0.445721 J0.573070
G03 X146.523987 Y168.980101 Z-0.125000 I-1.199374 J0.490655
G01 X146.523987 Y176.007917 Z-0.125000
G03 X146.335107 Y178.065171 Z-0.125000 I-11.298079 J-0.000000
G03 X145.986145 Y178.912271 Z-0.125000 I-2.184772 J-0.404587
G03 X145.349763 Y179.497826 Z-0.125000 I-1.335669 J-0.813019
G03 X144.336760 Y179.736964 Z-0.125000 I-1.013004 J-2.026007
G03 X142.840611 Y179.447096 Z-0.125000 I0.000000 J-4.006106
G03 X141.575830 Y178.625421 Z-0.125000 I1.465444 J-3.639973
G03 X140.773717 Y177.400145 Z-0.125000 I2.124105 J-2.265707
G03 X140.428433 Y175.398362 Z-0.125000 I5.630024 J-2.001784
G01 X140.428433 Y168.980101 Z-0.125000
G03 X140.516173 Y168.482072 Z-0.125000 I1.457328 J-0.000000
G03 X140.715281 Y168.191264 Z-0.125000 I0.665233 J0.241901
G03 X141.034766 Y168.008218 Z-0.125000 I0.614657 J0.702473
G03 X142.006106 Y167.760991 Z-0.125000 I2.187223 J6.561698
G02 X142.289872 Y167.596932 Z-0.125000 I-0.086847 J-0.477654
G02 X142.400523 Y167.294861 Z-0.125000 I-0.356993 J-0.302071
G01 X142.400523 Y166.936298 Z-0.125000
G02 X142.381340 Y166.761545 Z-0.125000 I-0.805572 J0.000000
G02 X142.328811 Y166.613591 Z-0.125000 I-0.627187 J0.139375
G01 X142.328811 Y166.613591 Z-0.125000
G00 Z5.000000

(End cutting path id: path3385)


(Start cutting path id: path3385)
(Change tool to Default tool)

G00 Z5.000000
G00 X162.443584 Y181.027786

G01 Z-0.125000 F100.0(Penetrate)
G03 X161.207051 Y180.715413 Z-0.125000 I-0.000000 J-2.603599 F400.000000
G03 X160.184644 Y179.808677 Z-0.125000 I1.419662 J-2.630552
G03 X159.630202 Y178.540534 Z-0.125000 I2.907574 J-2.026489
G03 X159.359951 Y176.043773 Z-0.125000 I11.398262 J-2.496761
G01 X164.953519 Y176.294767 Z-0.125000
G03 X165.353697 Y176.459416 Z-0.125000 I-0.045240 J0.678592
G03 X165.491361 Y176.760897 Z-0.125000 I-0.261283 J0.301481
G03 X165.449255 Y177.437224 Z-0.125000 I-5.452795 J-0.000000
G03 X165.312082 Y178.195147 Z-0.125000 I-6.990492 J-0.873799
G03 X165.074003 Y178.922989 Z-0.125000 I-4.526092 J-1.077645
G03 X164.738381 Y179.557682 Z-0.125000 I-3.769175 J-1.587028
G03 X164.318379 Y180.147239 Z-0.125000 I-2.833185 J-1.573986
G03 X163.806119 Y180.597513 Z-0.125000 I-2.142280 J-1.920664
G03 X163.193870 Y180.912135 Z-0.125000 I-1.229132 J-1.638845
G03 X162.443584 Y181.027786 Z-0.125000 I-0.750286 J-2.375912
G01 X162.443584 Y181.027786 Z-0.125000
G00 Z5.000000

(End cutting path id: path3385)


(Start cutting path id: path3385)
(Change tool to Default tool)

G00 Z5.000000
G00 X168.574995 Y170.091644

G01 Z-0.125000 F100.0(Penetrate)
G02 X168.914509 Y170.293652 Z-0.125000 I0.978041 J-1.257482 F400.000000
G02 X169.148696 Y170.342639 Z-0.125000 I0.234187 J-0.535284
G02 X169.314938 Y170.306629 Z-0.125000 I0.000000 J-0.401738
G02 X169.543113 Y170.163357 Z-0.125000 I-0.417089 J-0.917589
G02 X169.756597 Y169.983355 Z-0.125000 I-0.384051 J-0.672089
G02 X170.045099 Y169.553802 Z-0.125000 I-2.051776 J-1.689696
G02 X168.504080 Y168.097018 Z-0.125000 I-7.349896 J6.231430
G02 X166.818043 Y167.115580 Z-0.125000 I-4.916272 J6.506825
G02 X164.982343 Y166.575472 Z-0.125000 I-3.330298 J7.929285
G02 X162.551153 Y166.362600 Z-0.125000 I-2.431190 J13.776750
G02 X161.169260 Y166.469633 Z-0.125000 I0.000000 J8.974202
G02 X159.790227 Y166.792873 Z-0.125000 I1.443132 J9.260117
G02 X158.530549 Y167.374422 Z-0.125000 I2.433626 J6.926459
G02 X157.387861 Y168.191264 Z-0.125000 I3.785357 J6.503052
G02 X156.432295 Y169.248951 Z-0.125000 I4.625283 J5.139205
G02 X155.630906 Y170.593630 Z-0.125000 I6.730569 J4.922358
G02 X155.168464 Y172.067149 Z-0.125000 I5.943722 J2.674674
G02 X154.985495 Y174.035827 Z-0.125000 I10.499625 J1.968678
G02 X155.187556 Y175.962169 Z-0.125000 I9.283388 J-0.000000
G02 X155.738475 Y177.585590 Z-0.125000 I7.114272 J-1.509088
G02 X156.651812 Y179.107257 Z-0.125000 I9.295932 J-4.544678
G02 X157.710565 Y180.310663 Z-0.125000 I6.837603 J-4.948260
G02 X158.971297 Y181.301794 Z-0.125000 I6.252618 J-6.656014
G02 X160.292213 Y181.995905 Z-0.125000 I4.321887 J-6.620763
G02 X161.720034 Y182.464292 Z-0.125000 I3.195811 J-7.331571
G02 X162.981426 Y182.605459 Z-0.125000 I1.261392 J-5.564969
G02 X166.189847 Y182.011252 Z-0.125000 I0.000000 J-8.959027
G02 X168.216434 Y180.597513 Z-0.125000 I-1.839918 J-4.796934
G02 X169.487072 Y178.390373 Z-0.125000 I-4.632698 J-4.136336
G02 X170.009245 Y175.111514 Z-0.125000 I-10.033304 J-3.278859
G02 X169.935731 Y174.934034 Z-0.125000 I-0.250994 J0.000000
G02 X169.758251 Y174.860520 Z-0.125000 I-0.177480 J0.177480
G01 X159.467520 Y174.430244 Z-0.125000
G03 X159.847412 Y171.771001 Z-0.125000 I9.497302 J-0.000000
G03 X160.722486 Y170.127501 Z-0.125000 I4.380425 J1.277623
G03 X162.178006 Y169.092287 Z-0.125000 I2.789620 J2.381387
G03 X164.487390 Y168.657396 Z-0.125000 I2.309384 J5.914280
G03 X165.584435 Y168.746722 Z-0.125000 I-0.000000 J6.781328
G03 X166.674618 Y169.015957 Z-0.125000 I-1.141868 J6.965422
G03 X167.695773 Y169.470034 Z-0.125000 I-1.830923 J5.492740
G03 X168.574995 Y170.091644 Z-0.125000 I-2.647663 J4.677530
G01 X168.574995 Y170.091644 Z-0.125000
G00 Z5.000000

(End cutting path id: path3385)


(Start cutting path id: path3385)
(Change tool to Default tool)

G00 Z5.000000
G00 X183.613869 Y182.569603

G01 Z-0.125000 F100.0(Penetrate)
G02 X184.582398 Y182.405522 Z-0.125000 I-0.000000 J-2.940535 F400.000000
G02 X185.155686 Y182.031761 Z-0.125000 I-0.470083 J-1.347574
G02 X185.548108 Y181.433681 Z-0.125000 I-1.244067 J-1.244060
G02 X185.693528 Y180.669223 Z-0.125000 I-1.936634 J-0.764458
G02 X185.663648 Y180.426508 Z-0.125000 I-1.000735 J-0.000000
G02 X185.585959 Y180.238950 Z-0.125000 I-0.669064 J0.167267
G02 X185.483952 Y180.084251 Z-0.125000 I-0.427832 J0.171126
G02 X185.191542 Y179.844533 Z-0.125000 I-1.356624 J1.356624
G02 X184.895383 Y179.644023 Z-0.125000 I-2.219760 J2.959679
G02 X184.366849 Y179.342544 Z-0.125000 I-5.567680 J9.146871
G02 X183.828482 Y179.092689 Z-0.125000 I-59.515699 J127.534402
G02 X182.968458 Y178.697133 Z-0.125000 I-150.027757 J325.060262
G03 X182.356572 Y179.210492 Z-0.125000 I-3.237485 J-3.237501
G03 X181.892771 Y179.450113 Z-0.125000 I-1.121660 J-1.602373
G03 X181.415266 Y179.613460 Z-0.125000 I-1.030398 J-2.232515
G03 X180.960509 Y179.665251 Z-0.125000 I-0.454757 J-1.970607
G03 X180.535938 Y179.630113 Z-0.125000 I-0.000000 J-2.582556
G03 X180.099960 Y179.521826 Z-0.125000 I0.472077 J-2.832452
G03 X179.746430 Y179.323260 Z-0.125000 I0.426992 J-1.174221
G03 X179.382836 Y178.948128 Z-0.125000 I1.295668 J-1.619586
G03 X179.109958 Y178.526759 Z-0.125000 I1.753142 J-1.434376
G03 X178.844994 Y177.872440 Z-0.125000 I4.006297 J-2.003143
G03 X178.720094 Y177.184137 Z-0.125000 I4.351152 J-1.145045
G03 X178.665712 Y176.115486 Z-0.125000 I10.472750 J-1.068651
G01 X178.665712 Y169.446233 Z-0.125000
G03 X178.823174 Y168.816382 Z-0.125000 I1.338436 J-0.000000
G03 X179.239411 Y168.370546 Z-0.125000 I1.042329 J0.555908
G03 X179.840420 Y168.124920 Z-0.125000 I1.282560 J2.280127
G03 X181.498354 Y167.760991 Z-0.125000 I4.658294 J17.263125
G02 X181.782120 Y167.596932 Z-0.125000 I-0.086847 J-0.477654
G02 X181.892771 Y167.294861 Z-0.125000 I-0.356993 J-0.302071
G02 X181.866687 Y166.797896 Z-0.125000 I-4.747255 J-0.000000
G02 X181.821058 Y166.613591 Z-0.125000 I-0.687245 J0.072342
G03 X181.354712 Y166.646099 Z-0.125000 I-2.498004 J-32.473861
G03 X180.673661 Y166.685304 Z-0.125000 I-4.326371 J-69.221598
G02 X179.992596 Y166.693816 Z-0.125000 I0.000000 J27.251057
G02 X179.239411 Y166.721160 Z-0.125000 I0.833911 J33.356369
G01 X177.733450 Y166.792873 Z-0.125000
G01 X176.442628 Y166.792873 Z-0.125000
G03 X175.080287 Y166.782394 Z-0.125000 I0.000000 J-88.562325
G03 X174.111975 Y166.757016 Z-0.125000 I0.688680 J-44.764034
G03 X173.144021 Y166.683208 Z-0.125000 I16.553565 J-223.472484
G03 X172.283307 Y166.613591 Z-0.125000 I13.864204 J-176.768047
G02 X172.237679 Y166.797896 Z-0.125000 I0.641616 J0.256647
G02 X172.211595 Y167.294861 Z-0.125000 I4.721171 J0.496965
G02 X172.322246 Y167.596931 Z-0.125000 I0.467641 J0.000000
G02 X172.606014 Y167.760991 Z-0.125000 I0.370616 J-0.313600
G03 X173.732493 Y168.032263 Z-0.125000 I-2.095763 J11.177348
G03 X174.183687 Y168.227120 Z-0.125000 I-0.579735 J1.962185
G03 X174.494335 Y168.546824 Z-0.125000 I-0.418496 J0.717417
G03 X174.613960 Y169.015957 Z-0.125000 I-0.860080 J0.469133
G01 X174.613960 Y178.661277 Z-0.125000
G03 X174.518464 Y179.457922 Z-0.125000 I-3.370609 J-0.000000
G03 X174.291256 Y179.987956 Z-0.125000 I-1.691874 J-0.411535
G03 X173.898227 Y180.331218 Z-0.125000 I-0.691544 J-0.395168
G03 X172.606014 Y180.669223 Z-0.125000 I-1.955799 J-4.838033
G02 X172.240952 Y180.859689 Z-0.125000 I0.087559 J0.612910
G02 X172.104028 Y181.207068 Z-0.125000 I0.372194 J0.347379
G01 X172.104028 Y181.493916 Z-0.125000
G02 X172.125305 Y181.666756 Z-0.125000 I0.712663 J0.000000
G02 X172.175738 Y181.780767 Z-0.125000 I0.354330 J-0.088579
G01 X172.785296 Y181.780767 Z-0.125000
G02 X173.180153 Y181.806925 Z-0.125000 I0.730976 J-8.040680
G02 X173.645845 Y181.816623 Z-0.125000 I0.465692 J-11.176582
G01 X174.578104 Y181.888336 Z-0.125000
G03 X175.042545 Y181.936454 Z-0.125000 I-0.676650 J8.796453
G03 X175.402797 Y181.995905 Z-0.125000 I-0.697758 J5.349458
G03 X176.190487 Y182.110865 Z-0.125000 I-5.724332 J41.978286
G03 X177.016326 Y182.246896 Z-0.125000 I-7.198944 J46.279284
G02 X177.879153 Y182.404079 Z-0.125000 I3.549538 J-17.037725
G02 X178.163726 Y182.426178 Z-0.125000 I0.284573 J-1.821264
G02 X178.513651 Y182.274117 Z-0.125000 I0.000000 J-0.478657
G02 X178.665712 Y181.888336 Z-0.125000 I-0.413337 J-0.385781
G01 X178.665712 Y179.952099 Z-0.125000
G02 X179.999745 Y181.212215 Z-0.125000 I9.710310 J-8.943705
G02 X181.068078 Y181.924192 Z-0.125000 I4.099777 J-4.994271
G02 X182.259741 Y182.400626 Z-0.125000 I2.389333 J-4.247711
G02 X183.613869 Y182.569603 Z-0.125000 I1.354128 J-5.341287
G01 X183.613869 Y182.569603 Z-0.125000
G00 Z5.000000

(End cutting path id: path3385)


(Footer)
M5
G00 X0.0000 Y0.0000
M2
(Using default footer. To add your own footer create file "footer" in the output dir.)
(end)
%