%
(Header)
(Generated by gcodetools from Inkscape.)
(Using default header. To add your own header create file "header" in the output dir.)
M3
(Header end.)
G21 (All units in mm)

(Start cutting path id: path8351)
(Change tool to Default tool)

G00 Z5.000000
G00 X13.543089 Y41.595476

G01 Z-0.125000 F100.0(Penetrate)
G01 X30.803314 Y41.595476 Z-0.125000 F400.000000
G02 X31.574989 Y41.436248 Z-0.125000 I0.000000 J-1.949515
G02 X32.275512 Y40.960908 Z-0.125000 I-0.890805 J-2.066668
G02 X32.768688 Y40.255337 Z-0.125000 I-1.539918 J-1.601508
G02 X32.935461 Y39.463330 Z-0.125000 I-1.797252 J-0.792008
G02 X32.773337 Y38.640236 Z-0.125000 I-2.170470 J-0.000000
G02 X32.300892 Y37.914985 Z-0.125000 I-2.137976 J0.876221
G02 X31.599351 Y37.442113 Z-0.125000 I-1.565076 J1.565076
G02 X30.803314 Y37.280420 Z-0.125000 I-0.796037 J1.878654
G01 X24.356113 Y37.280420 Z-0.125000
G01 X24.356113 Y12.126187 Z-0.125000
G01 X30.803314 Y12.126187 Z-0.125000
G02 X31.620924 Y11.960109 Z-0.125000 I-0.000000 J-2.095608
G02 X32.300892 Y11.491611 Z-0.125000 I-0.800908 J-1.890114
G02 X32.769383 Y10.811648 Z-0.125000 I-1.421587 J-1.480841
G02 X32.935461 Y9.994027 Z-0.125000 I-1.929591 J-0.817621
G02 X32.771377 Y9.173612 Z-0.125000 I-2.133067 J-0.000000
G02 X32.300892 Y8.471071 Z-0.125000 I-2.010945 J0.837898
G02 X31.603368 Y8.018389 Z-0.125000 I-1.529943 J1.593707
G02 X30.803314 Y7.861894 Z-0.125000 I-0.800054 J1.966824
G01 X13.543089 Y7.861894 Z-0.125000
G02 X12.718575 Y8.020679 Z-0.125000 I0.000000 J2.220096
G02 X12.020128 Y8.471071 Z-0.125000 I0.807727 J2.019343
G02 X11.569728 Y9.169527 Z-0.125000 I1.569004 J1.506221
G02 X11.410944 Y9.994027 Z-0.125000 I2.061240 J0.824499
G02 X11.571697 Y10.815847 Z-0.125000 I2.181069 J0.000000
G02 X12.020128 Y11.491611 Z-0.125000 I1.895034 J-0.770859
G02 X12.722663 Y11.962100 Z-0.125000 I1.540414 J-1.540391
G02 X13.543089 Y12.126187 Z-0.125000 I0.820426 J-1.968993
G01 X20.091822 Y12.126187 Z-0.125000
G01 X20.091822 Y37.280420 Z-0.125000
G01 X13.543089 Y37.280420 Z-0.125000
G02 X12.722661 Y37.444505 Z-0.125000 I0.000000 J2.133118
G02 X12.020128 Y37.914985 Z-0.125000 I0.837866 J2.010883
G02 X11.567440 Y38.612513 Z-0.125000 I1.593714 J1.529963
G02 X11.410944 Y39.412563 Z-0.125000 I1.966790 J0.800050
G02 X11.571953 Y40.261564 Z-0.125000 I2.318887 J-0.000000
G02 X12.020128 Y40.960908 Z-0.125000 I1.993786 J-0.784440
G02 X12.722662 Y41.431390 Z-0.125000 I1.540403 J-1.540400
G02 X13.543089 Y41.595476 Z-0.125000 I0.820427 J-1.969023
G01 X13.543089 Y41.595476 Z-0.125000
G00 Z5.000000

(End cutting path id: path8351)


(Footer)
M5
G00 X0.0000 Y0.0000
M2
(Using default footer. To add your own footer create file "footer" in the output dir.)
(end)
%