%
(Header)
(Generated by gcodetools from Inkscape.)
(Using default header. To add your own header create file "header" in the output dir.)
M3
(Header end.)
G21 (All units in mm)

(Start cutting path id: path4208)
(Change tool to Default tool)

G00 Z5.000000
G00 X191.104758 Y264.482540

G01 Z-0.125000 F100.0(Penetrate)
G01 X172.190699 Y265.299119 Z-0.125000 F400.000000
G01 X160.795356 Y250.181098 Z-0.125000
G01 X155.727201 Y268.421773 Z-0.125000
G01 X137.827753 Y274.587665 Z-0.125000
G01 X153.609521 Y285.044447 Z-0.125000
G01 X153.942399 Y303.973196 Z-0.125000
G01 X168.764222 Y292.195168 Z-0.125000
G01 X186.869398 Y297.727886 Z-0.125000
G01 X180.248022 Y279.991882 Z-0.125000
G01 X191.104758 Y264.482540 Z-0.125000
G00 Z5.000000

(End cutting path id: path4208)


(Start cutting path id: path4168)
(Change tool to Default tool)

G00 Z5.000000
G00 X158.368018 Y188.986874

G01 Z-0.125000 F100.0(Penetrate)
G01 X158.368018 Y210.514735 Z-0.125000 F400.000000
G01 X229.621305 Y210.514735 Z-0.125000
G01 X229.621305 Y188.797213 Z-0.125000
G02 X229.065820 Y185.688591 Z-0.125000 I-8.976019 J-0.000000
G02 X227.520640 Y183.107000 Z-0.125000 I-7.643756 J2.821858
G02 X225.170455 Y181.400854 Z-0.125000 I-5.437568 J5.018408
G02 X222.563175 Y180.830925 Z-0.125000 I-2.607280 J5.678854
G02 X219.881064 Y181.421206 Z-0.125000 I0.000000 J6.388608
G02 X217.437628 Y183.201831 Z-0.125000 I3.250690 J7.027511
G02 X215.884618 Y185.780478 Z-0.125000 I6.192558 J5.486493
G02 X215.337005 Y188.797213 Z-0.125000 I8.035613 J3.016735
G01 X215.337005 Y194.582208 Z-0.125000
G01 X201.052749 Y194.582208 Z-0.125000
G01 X201.052749 Y92.633017 Z-0.125000
G02 X200.497277 Y89.524435 Z-0.125000 I-8.975997 J0.000000
G02 X198.952127 Y86.942853 Z-0.125000 I-7.643838 J2.821855
G02 X196.601942 Y85.236707 Z-0.125000 I-5.437568 J5.018408
G02 X193.994662 Y84.666777 Z-0.125000 I-2.607280 J5.678854
G02 X191.226745 Y85.253711 Z-0.125000 I0.000000 J6.820070
G02 X188.869114 Y86.942853 Z-0.125000 I2.908206 J6.549057
G02 X187.323964 Y89.524435 Z-0.125000 I6.098688 J5.403437
G02 X186.768492 Y92.633017 Z-0.125000 I8.420525 J3.108582
G01 X186.768492 Y194.582208 Z-0.125000
G01 X172.484236 Y194.582208 Z-0.125000
G01 X172.484236 Y188.986874 Z-0.125000
G02 X171.928754 Y185.878299 Z-0.125000 I-8.975815 J0.000000
G02 X170.383570 Y183.296710 Z-0.125000 I-7.643807 J2.821901
G02 X168.103574 Y181.605906 Z-0.125000 I-5.152026 J4.564694
G02 X165.426105 Y181.020634 Z-0.125000 I-2.677468 J5.831729
G02 X162.738582 Y181.599187 Z-0.125000 I-0.000000 J6.531391
G02 X160.384621 Y183.296710 Z-0.125000 I2.995200 J6.634339
G02 X158.904851 Y185.865042 Z-0.125000 I6.233395 J5.301889
G02 X158.368018 Y188.986874 Z-0.125000 I8.808744 J3.121832
G01 X158.368018 Y188.986874 Z-0.125000
G00 Z5.000000

(End cutting path id: path4168)


(Start cutting path id: path4170)
(Change tool to Default tool)

G00 Z5.000000
G00 X262.223023 Y92.633017

G01 Z-0.125000 F100.0(Penetrate)
G01 X262.223023 Y202.738156 Z-0.125000 F400.000000
G02 X262.759353 Y205.759168 Z-0.125000 I8.776469 J0.000000
G02 X264.239626 Y208.238660 Z-0.125000 I7.299135 J-2.676019
G02 X266.593588 Y209.936178 Z-0.125000 I5.349117 J-4.936776
G02 X269.281153 Y210.514735 Z-0.125000 I2.687565 J-5.952981
G02 X271.942936 Y209.910984 Z-0.125000 I0.000000 J-6.169428
G02 X274.238618 Y208.143829 Z-0.125000 I-2.998860 J-6.270491
G02 X275.776632 Y205.647812 Z-0.125000 I-5.613662 J-5.180928
G02 X276.339240 Y202.548496 Z-0.125000 I-8.255511 J-3.099316
G01 X276.339240 Y162.337831 Z-0.125000
G01 X287.682634 Y170.683441 Z-0.125000
G02 X295.762914 Y175.088393 Z-0.125000 I22.410048 J-31.494595
G02 X301.462730 Y176.183944 Z-0.125000 I5.699816 J-14.279422
G01 X310.201340 Y176.183944 Z-0.125000
G02 X318.063094 Y174.422221 Z-0.125000 I0.000000 J-18.422546
G02 X325.073821 Y169.166057 Z-0.125000 I-9.299006 J-19.706686
G02 X329.695977 Y161.608350 Z-0.125000 I-18.119666 J-16.273926
G02 X331.543727 Y152.285177 Z-0.125000 I-26.176277 J-10.032537
G01 X333.308270 Y92.633017 Z-0.125000
G02 X332.814105 Y89.524676 Z-0.125000 I-8.648108 J-0.218572
G02 X331.291668 Y86.942853 Z-0.125000 I-7.394721 J2.620700
G02 X328.937705 Y85.245334 Z-0.125000 I-5.349117 J4.936776
G02 X326.250140 Y84.666777 Z-0.125000 I-2.687565 J5.952981
G02 X323.588357 Y85.270529 Z-0.125000 I0.000000 J6.169428
G02 X321.292675 Y87.037683 Z-0.125000 I2.998860 J6.270491
G02 X319.767891 Y89.686402 Z-0.125000 I7.280672 J5.954498
G02 X319.192053 Y92.633017 Z-0.125000 I8.497614 J3.190208
G01 X317.427510 Y152.474838 Z-0.125000
G03 X316.818594 Y155.492278 Z-0.125000 I-8.932443 J-0.232397
G03 X315.242868 Y158.070171 Z-0.125000 I-8.018477 J-3.130734
G03 X312.873580 Y159.844093 Z-0.125000 I-5.491720 J-4.865663
G03 X310.201340 Y160.441077 Z-0.125000 I-2.672240 J-5.682289
G01 X302.303013 Y160.441077 Z-0.125000
G03 X299.776272 Y159.950979 Z-0.125000 I-0.000000 J-6.758463
G03 X296.421245 Y158.070171 Z-0.125000 I5.642548 J-13.998092
G01 X276.339240 Y143.275706 Z-0.125000
G01 X276.339240 Y92.633017 Z-0.125000
G02 X275.783768 Y89.524435 Z-0.125000 I-8.975997 J0.000000
G02 X274.238618 Y86.942853 Z-0.125000 I-7.643838 J2.821855
G02 X271.958621 Y85.252049 Z-0.125000 I-5.152026 J4.564694
G02 X269.281153 Y84.666777 Z-0.125000 I-2.677468 J5.831729
G02 X266.593588 Y85.245334 Z-0.125000 I0.000000 J6.531538
G02 X264.239626 Y86.942853 Z-0.125000 I2.995154 J6.634294
G02 X262.759856 Y89.511185 Z-0.125000 I6.233395 J5.301889
G02 X262.223023 Y92.633017 Z-0.125000 I8.808744 J3.121832
G01 X262.223023 Y92.633017 Z-0.125000
G00 Z5.000000

(End cutting path id: path4170)


(Start cutting path id: path4172)
(Change tool to Default tool)

G00 Z5.000000
G00 X380.866489 Y147.448486

G01 Z-0.125000 F100.0(Penetrate)
G01 X380.866489 Y135.119757 Z-0.125000 F400.000000
G01 X423.719259 Y135.119757 Z-0.125000
G01 X423.719259 Y146.215643 Z-0.125000
G03 X423.000315 Y150.369387 Z-0.125000 I-12.358740 J-0.000000
G03 X421.282558 Y153.043869 Z-0.125000 I-6.617899 J-2.361644
G01 X417.165333 Y157.121819 Z-0.125000
G03 X413.754696 Y159.503992 Z-0.125000 I-10.509075 J-11.413547
G03 X411.451605 Y160.061756 Z-0.125000 I-2.303091 J-4.476027
G01 X393.722324 Y160.061756 Z-0.125000
G03 X390.694277 Y159.439377 Z-0.125000 I-0.000000 J-7.677335
G03 X387.756537 Y157.501189 Z-0.125000 I3.924909 J-9.144529
G01 X383.639312 Y153.612851 Z-0.125000
G03 X381.607183 Y150.900733 Z-0.125000 I5.038449 J-5.892570
G03 X380.866489 Y147.448486 Z-0.125000 I7.674816 J-3.452246
G01 X380.866489 Y147.448486 Z-0.125000
G00 Z5.000000

(End cutting path id: path4172)


(Start cutting path id: path4172)
(Change tool to Default tool)

G00 Z5.000000
G00 X437.667437 Y146.215643

G01 Z-0.125000 F100.0(Penetrate)
G01 X437.667437 Y126.963808 Z-0.125000 F400.000000
G02 X437.119820 Y123.947077 Z-0.125000 I-8.583148 J-0.000000
G02 X435.566814 Y121.368474 Z-0.125000 I-7.745304 J2.907772
G02 X433.201581 Y119.585544 Z-0.125000 I-5.584039 J4.947457
G02 X430.609349 Y118.997569 Z-0.125000 I-2.592232 J5.420248
G01 X380.698406 Y118.997569 Z-0.125000
G01 X380.698406 Y114.350588 Z-0.125000
G03 X381.496719 Y110.624169 Z-0.125000 I9.096372 J-0.000000
G03 X383.807351 Y107.427531 Z-0.125000 I8.888846 J3.991724
G01 X387.924576 Y103.539193 Z-0.125000
G03 X391.515638 Y101.211749 Z-0.125000 I9.843118 J11.253068
G03 X394.310505 Y100.599305 Z-0.125000 I2.794867 J6.070919
G01 X430.609349 Y100.599305 Z-0.125000
G02 X433.201573 Y100.011320 Z-0.125000 I0.000000 J-6.008106
G02 X435.566814 Y98.228351 Z-0.125000 I-3.218874 J-6.730393
G02 X437.104828 Y95.732333 Z-0.125000 I-5.613662 J-5.180928
G02 X437.667437 Y92.633017 Z-0.125000 I-8.255511 J-3.099316
G02 X437.101866 Y89.629429 Z-0.125000 I-8.258399 J-0.000000
G02 X435.482795 Y87.037683 Z-0.125000 I-7.690465 J3.002665
G02 X433.121733 Y85.245483 Z-0.125000 I-5.682166 J5.034398
G02 X430.609349 Y84.666777 Z-0.125000 I-2.512384 J5.164256
G01 X393.386202 Y84.666777 Z-0.125000
G02 X389.766906 Y85.057490 Z-0.125000 I0.000000 J16.958704
G02 X385.571895 Y86.373822 Z-0.125000 I5.279524 J24.167987
G02 X381.707262 Y88.423106 Z-0.125000 I13.244793 J29.646324
G02 X379.606107 Y90.072450 Z-0.125000 I6.379896 J10.290600
G01 X373.304197 Y96.331645 Z-0.125000
G02 X370.760864 Y99.270383 Z-0.125000 I10.617251 J11.758646
G02 X368.346733 Y103.728903 Z-0.125000 I22.397739 J15.010429
G02 X366.840851 Y108.554329 Z-0.125000 I27.727375 J11.300628
G02 X366.414150 Y112.453834 Z-0.125000 I17.604893 J3.899505
G01 X366.414150 Y148.965870 Z-0.125000
G02 X366.788984 Y152.024030 Z-0.125000 I12.662726 J-0.000000
G02 X368.514772 Y157.406310 Z-0.125000 I41.353752 J-10.291953
G02 X371.158532 Y162.392900 Z-0.125000 I26.882266 J-11.058156
G02 X373.976398 Y165.657089 Z-0.125000 I14.148939 J-9.365930
G01 X379.858166 Y170.873101 Z-0.125000
G02 X386.161398 Y174.883766 Z-0.125000 I14.498734 J-15.827998
G02 X392.714001 Y176.183944 Z-0.125000 I6.552603 J-15.861737
G01 X412.543947 Y176.183944 Z-0.125000
G02 X419.335344 Y174.588891 Z-0.125000 I0.000000 J-15.255695
G02 X426.660164 Y169.166057 Z-0.125000 I-11.590834 J-23.314529
G01 X431.953751 Y163.475844 Z-0.125000
G02 X435.932319 Y156.978436 Z-0.125000 I-11.900631 J-11.753938
G02 X437.667437 Y146.215643 Z-0.125000 I-32.512812 J-10.762793
G01 X437.667437 Y146.215643 Z-0.125000
G00 Z5.000000

(End cutting path id: path4172)


(Start cutting path id: path4174)
(Change tool to Default tool)

G00 Z5.000000
G00 X484.553454 Y146.784625

G01 Z-0.125000 F100.0(Penetrate)
G01 X484.553454 Y114.540248 Z-0.125000 F400.000000
G03 X485.329141 Y110.517285 Z-0.125000 I10.820036 J0.000000
G03 X487.326277 Y107.617192 Z-0.125000 I7.419360 J2.971603
G01 X492.619864 Y102.496010 Z-0.125000
G03 X494.586824 Y101.289419 Z-0.125000 I3.699020 J3.823522
G03 X497.577329 Y100.788966 Z-0.125000 I2.990505 J8.684791
G01 X513.962251 Y100.788966 Z-0.125000
G03 X517.281164 Y101.499264 Z-0.125000 I-0.000000 J8.109067
G03 X520.516177 Y103.728903 Z-0.125000 I-4.447396 J9.914465
G01 X524.801484 Y107.996513 Z-0.125000
G03 X526.668830 Y110.607515 Z-0.125000 I-4.597132 J5.261044
G03 X527.406267 Y114.350588 Z-0.125000 I-9.130801 J3.743072
G01 X527.406267 Y146.594964 Z-0.125000
G03 X526.618883 Y150.979164 Z-0.125000 I-12.599430 J0.000000
G03 X524.801484 Y153.612851 Z-0.125000 I-6.095726 J-2.262511
G01 X519.843976 Y158.070171 Z-0.125000
G03 X517.083290 Y159.835702 Z-0.125000 I-6.076606 J-6.460581
G03 X513.962251 Y160.441077 Z-0.125000 I-3.121040 J-7.742651
G01 X499.341872 Y160.441077 Z-0.125000
G03 X494.860947 Y159.687181 Z-0.125000 I0.000000 J-13.693570
G03 X491.947663 Y157.880511 Z-0.125000 I2.550321 J-7.364624
G01 X487.158238 Y153.233529 Z-0.125000
G03 X485.267760 Y150.460380 Z-0.125000 I5.420441 J-5.726110
G03 X484.553454 Y146.784625 Z-0.125000 I9.100409 J-3.675755
G01 X484.553454 Y146.784625 Z-0.125000
G00 Z5.000000

(End cutting path id: path4174)


(Start cutting path id: path4174)
(Change tool to Default tool)

G00 Z5.000000
G00 X541.522484 Y147.448486

G01 Z-0.125000 F100.0(Penetrate)
G01 X541.522484 Y113.781557 Z-0.125000 F400.000000
G02 X539.394467 Y103.938680 Z-0.125000 I-23.827504 J0.000000
G02 X532.531771 Y93.960740 Z-0.125000 I-31.380890 J14.234356
G02 X522.774756 Y86.877958 Z-0.125000 I-25.701069 J25.143108
G02 X514.130290 Y84.856438 Z-0.125000 I-8.644466 J17.472069
G01 X497.577329 Y84.856438 Z-0.125000
G02 X488.794965 Y86.920916 Z-0.125000 I0.000000 J19.712491
G02 X479.091828 Y94.055570 Z-0.125000 I15.651645 J31.451717
G02 X472.321058 Y104.168343 Z-0.125000 I26.176010 J24.848526
G02 X470.269198 Y113.781557 Z-0.125000 I21.493604 J9.613214
G01 X470.269198 Y147.448486 Z-0.125000
G02 X472.281739 Y157.088277 Z-0.125000 I24.092888 J0.000000
G02 X478.839726 Y167.079642 Z-0.125000 I32.521868 J-14.198328
G02 X488.427662 Y174.229113 Z-0.125000 I24.407572 J-22.728471
G02 X497.577329 Y176.373605 Z-0.125000 I9.149667 J-18.446689
G01 X514.130290 Y176.373605 Z-0.125000
G02 X522.773507 Y174.480991 Z-0.125000 I0.378951 J-18.951693
G02 X532.531771 Y167.459013 Z-0.125000 I-15.257288 J-31.494059
G02 X539.374003 Y157.472671 Z-0.125000 I-24.265992 J-23.963240
G02 X541.522484 Y147.448486 Z-0.125000 I-22.310713 J-10.024185
G01 X541.522484 Y147.448486 Z-0.125000
G00 Z5.000000

(End cutting path id: path4174)


(Start cutting path id: path4206)
(Change tool to Default tool)

G00 Z5.000000
G00 X537.028591 Y244.323813

G01 Z-0.125000 F100.0(Penetrate)
G01 X553.628789 Y259.084936 Z-0.125000 F400.000000
G01 X550.879832 Y281.128072 Z-0.125000
G01 X570.048224 Y269.901797 Z-0.125000
G01 X590.163020 Y279.327917 Z-0.125000
G01 X585.409551 Y257.628576 Z-0.125000
G01 X600.590144 Y241.411105 Z-0.125000
G01 X578.483931 Y239.226451 Z-0.125000
G01 X567.751274 Y219.777380 Z-0.125000
G01 X558.842337 Y240.126528 Z-0.125000
G01 X537.028591 Y244.323813 Z-0.125000
G00 Z5.000000

(End cutting path id: path4206)


(Start cutting path id: path4204)
(Change tool to Default tool)

G00 Z5.000000
G00 X417.688891 Y245.130156

G01 Z-0.125000 F100.0(Penetrate)
G01 X380.072902 Y241.493824 Z-0.125000 F400.000000
G01 X361.743359 Y208.445176 Z-0.125000
G01 X346.661008 Y243.096423 Z-0.125000
G01 X309.565719 Y250.316271 Z-0.125000
G01 X337.860332 Y275.368252 Z-0.125000
G01 X333.263750 Y312.879015 Z-0.125000
G01 X365.833098 Y293.710744 Z-0.125000
G01 X400.087538 Y309.673820 Z-0.125000
G01 X391.921918 Y272.775197 Z-0.125000
G01 X417.688891 Y245.130156 Z-0.125000
G00 Z5.000000

(End cutting path id: path4204)


(Start cutting path id: path4155)
(Change tool to Default tool)

G00 Z5.000000
G00 X400.462957 Y404.218864

G01 Z-0.125000 F100.0(Penetrate)
G01 X400.462957 Y384.816048 Z-0.125000 F400.000000
G02 X400.136179 Y381.642232 Z-0.125000 I-15.576180 J0.000000
G02 X399.289277 Y379.176805 Z-0.125000 I-10.179720 J2.118677
G02 X397.815465 Y377.269069 Z-0.125000 I-5.413382 J2.658920
G02 X396.519387 Y376.787271 Z-0.125000 I-1.296079 J1.502383
G01 X368.632668 Y376.787271 Z-0.125000
G01 X368.632668 Y372.103842 Z-0.125000
G03 X369.119893 Y368.129940 Z-0.125000 I16.449562 J-0.000000
G03 X370.369721 Y365.126460 Z-0.125000 I10.538767 J2.623677
G01 X372.670148 Y361.207653 Z-0.125000
G03 X374.828126 Y358.753789 Z-0.125000 I8.857685 J5.613814
G03 X376.238136 Y358.244659 Z-0.125000 I1.410010 J1.697911
G01 X396.519387 Y358.244659 Z-0.125000
G02 X397.815469 Y357.762864 Z-0.125000 I0.000000 J-1.984200
G02 X399.289277 Y355.855154 Z-0.125000 I-3.939497 J-4.566624
G02 X400.126860 Y353.480241 Z-0.125000 I-8.398908 J-4.297279
G02 X400.462957 Y350.215911 Z-0.125000 I-15.684299 J-3.264330
G02 X400.124002 Y347.047734 Z-0.125000 I-14.975780 J-0.000000
G02 X399.242329 Y344.576668 Z-0.125000 I-9.924207 J2.148119
G02 X397.774286 Y342.659703 Z-0.125000 I-5.536826 J2.719585
G02 X396.519387 Y342.187162 Z-0.125000 I-1.254899 J1.430010
G01 X375.721724 Y342.187162 Z-0.125000
G02 X373.778759 Y342.556162 Z-0.125000 I-0.000000 J5.299832
G02 X371.355624 Y343.907598 Z-0.125000 I3.824038 J9.704593
G02 X369.282756 Y345.876800 Z-0.125000 I11.027087 J13.683194
G02 X368.022361 Y347.635243 Z-0.125000 I7.500992 J6.707395
G01 X364.501307 Y353.943555 Z-0.125000
G02 X363.141182 Y356.736506 Z-0.125000 I13.604386 J8.352790
G02 X361.731417 Y361.398816 Z-0.125000 I36.788352 J13.668159
G02 X360.895518 Y366.205064 Z-0.125000 I47.591096 J10.752817
G02 X360.651633 Y370.192243 Z-0.125000 I32.470337 J3.987179
G01 X360.651633 Y406.990723 Z-0.125000
G02 X360.866598 Y410.121559 Z-0.125000 I22.906794 J0.000000
G02 X361.825313 Y415.497378 Z-0.125000 I68.705702 J-9.479462
G02 X363.371235 Y420.716597 Z-0.125000 I41.651724 J-9.498601
G02 X364.876889 Y423.812871 Z-0.125000 I16.044838 J-5.888052
G01 X368.163204 Y429.069788 Z-0.125000
G02 X372.023623 Y433.320522 Z-0.125000 I12.800916 J-7.747158
G02 X375.346142 Y434.422315 Z-0.125000 I3.322519 J-4.458726
G01 X386.425716 Y434.422315 Z-0.125000
G02 X389.818704 Y433.123780 Z-0.125000 I-0.000000 J-5.082094
G02 X394.312856 Y427.349352 Z-0.125000 I-13.764029 J-15.348423
G01 X397.270537 Y421.614528 Z-0.125000
G02 X399.434473 Y415.520982 Z-0.125000 I-17.830101 J-9.762814
G02 X400.462957 Y404.218864 Z-0.125000 I-61.585840 J-11.302118
G01 X400.462957 Y404.218864 Z-0.125000
G00 Z5.000000

(End cutting path id: path4155)


(Start cutting path id: path4155)
(Change tool to Default tool)

G00 Z5.000000
G00 X368.726564 Y405.461421

G01 Z-0.125000 F100.0(Penetrate)
G01 X368.726564 Y393.035959 Z-0.125000 F400.000000
G01 X392.669698 Y393.035959 Z-0.125000
G01 X392.669698 Y404.218864 Z-0.125000
G03 X392.240726 Y408.597526 Z-0.125000 I-22.561708 J0.000000
G03 X391.308227 Y411.100664 Z-0.125000 I-8.158555 J-1.614060
G01 X389.007815 Y415.210634 Z-0.125000
G03 X386.968077 Y417.721137 Z-0.125000 I-9.904938 J-5.963705
G03 X385.815395 Y418.173628 Z-0.125000 I-1.152682 J-1.241935
G01 X375.909515 Y418.173628 Z-0.125000
G03 X374.379338 Y417.650512 Z-0.125000 I0.000000 J-2.499535
G03 X372.576252 Y415.592959 Z-0.125000 I4.379512 J-5.656700
G01 X370.275826 Y411.674152 Z-0.125000
G03 X369.179614 Y409.150629 Z-0.125000 I7.009876 J-4.544930
G03 X368.726564 Y405.461421 Z-0.125000 I14.794175 J-3.689208
G01 X368.726564 Y405.461421 Z-0.125000
G00 Z5.000000

(End cutting path id: path4155)


(Start cutting path id: path4153)
(Change tool to Default tool)

G00 Z5.000000
G00 X342.436069 Y426.393539

G01 Z-0.125000 F100.0(Penetrate)
G01 X342.436069 Y411.100664 Z-0.125000 F400.000000
G01 X328.774396 Y347.826405 Z-0.125000
G02 X326.796608 Y343.022817 Z-0.125000 I-15.725094 J3.665564
G02 X325.300290 Y342.187162 Z-0.125000 I-1.496318 J0.921820
G01 X320.229988 Y342.187162 Z-0.125000
G02 X318.282395 Y343.207459 Z-0.125000 I0.000000 J2.368979
G02 X316.192508 Y348.017568 Z-0.125000 I11.081243 J7.673615
G01 X302.624731 Y410.909502 Z-0.125000
G01 X302.624731 Y426.393539 Z-0.125000
G02 X302.948230 Y429.663697 Z-0.125000 I16.690290 J0.000000
G02 X303.751477 Y432.032782 Z-0.125000 I9.484536 J-1.895053
G02 X305.230925 Y433.931470 Z-0.125000 I5.297326 J-2.601916
G02 X306.568315 Y434.422315 Z-0.125000 I1.337390 J-1.576547
G02 X307.898048 Y433.928007 Z-0.125000 I-0.000000 J-2.035704
G02 X309.338205 Y432.032782 Z-0.125000 I-3.743630 J-4.339526
G02 X310.175788 Y429.657869 Z-0.125000 I-8.398908 J-4.297279
G02 X310.511885 Y426.393539 Z-0.125000 I-15.684299 J-3.264330
G01 X310.511885 Y414.063658 Z-0.125000
G01 X322.530400 Y359.009310 Z-0.125000
G01 X334.455020 Y414.254821 Z-0.125000
G01 X334.455020 Y426.393539 Z-0.125000
G02 X334.791116 Y429.657869 Z-0.125000 I16.020396 J0.000000
G02 X335.628700 Y432.032782 Z-0.125000 I9.236491 J-1.922365
G02 X337.113669 Y433.922626 Z-0.125000 I5.188167 J-2.548330
G02 X338.492485 Y434.422315 Z-0.125000 I1.378817 J-1.652471
G02 X339.822221 Y433.928008 Z-0.125000 I-0.000000 J-2.035713
G02 X341.262389 Y432.032782 Z-0.125000 I-3.743651 J-4.339573
G02 X342.099972 Y429.657869 Z-0.125000 I-8.398908 J-4.297279
G02 X342.436069 Y426.393539 Z-0.125000 I-15.684299 J-3.264330
G01 X342.436069 Y426.393539 Z-0.125000
G00 Z5.000000

(End cutting path id: path4153)


(Start cutting path id: path4151)
(Change tool to Default tool)

G00 Z5.000000
G00 X284.409167 Y405.461421

G01 Z-0.125000 F100.0(Penetrate)
G01 X284.409167 Y371.530354 Z-0.125000 F400.000000
G02 X283.113045 Y361.061344 Z-0.125000 I-42.928084 J0.000000
G02 X279.385813 Y351.554049 Z-0.125000 I-39.013442 J9.810541
G02 X273.427961 Y344.027078 Z-0.125000 I-24.565471 J13.322993
G02 X269.104351 Y342.378325 Z-0.125000 I-4.323610 J4.844635
G01 X259.855726 Y342.378325 Z-0.125000
G02 X255.466792 Y344.059246 Z-0.125000 I-0.000000 J6.570276
G02 X249.527316 Y351.649631 Z-0.125000 I18.457510 J20.562014
G02 X245.844258 Y361.324470 Z-0.125000 I38.043661 J20.021080
G02 X244.597843 Y371.530354 Z-0.125000 I41.160656 J10.205883
G01 X244.597843 Y405.461421 Z-0.125000
G02 X245.816745 Y415.679091 Z-0.125000 I43.435222 J0.000000
G02 X249.386473 Y425.246591 Z-0.125000 I41.575825 J-10.062650
G02 X255.285635 Y432.867431 Z-0.125000 I23.633446 J-12.200606
G02 X259.855726 Y434.613450 Z-0.125000 I4.570090 J-5.107948
G01 X269.104351 Y434.613450 Z-0.125000
G02 X273.424421 Y433.080068 Z-0.125000 I0.224278 J-6.220393
G02 X279.385813 Y425.628888 Z-0.125000 I-17.747740 J-20.309584
G02 X283.101866 Y416.118734 Z-0.125000 I-34.974805 J-19.147354
G02 X284.409167 Y405.461421 Z-0.125000 I-42.786346 J-10.657312
G01 X284.409167 Y405.461421 Z-0.125000
G00 Z5.000000

(End cutting path id: path4151)


(Start cutting path id: path4151)
(Change tool to Default tool)

G00 Z5.000000
G00 X252.578893 Y404.792352

G01 Z-0.125000 F100.0(Penetrate)
G01 X252.578893 Y372.295004 Z-0.125000 F400.000000
G03 X253.046919 Y368.027988 Z-0.125000 I19.685304 J-0.000000
G03 X254.128155 Y365.317622 Z-0.125000 I8.880596 J1.971853
G01 X257.085836 Y360.156286 Z-0.125000
G03 X258.324826 Y358.872570 Z-0.125000 I3.161688 J1.811763
G03 X259.855726 Y358.435822 Z-0.125000 I1.530900 J2.464697
G01 X269.010455 Y358.435822 Z-0.125000
G03 X270.681008 Y359.027033 Z-0.125000 I0.000000 J2.655801
G03 X272.672339 Y361.398816 Z-0.125000 I-5.102054 J6.305490
G01 X275.066661 Y365.699948 Z-0.125000
G03 X276.075439 Y368.123588 Z-0.125000 I-6.515273 J4.133577
G03 X276.522027 Y372.103842 Z-0.125000 I-17.513885 J3.980254
G01 X276.522027 Y404.601189 Z-0.125000
G03 X276.049422 Y409.242956 Z-0.125000 I-23.031212 J-0.000000
G03 X275.066661 Y411.674152 Z-0.125000 I-7.125848 J-1.466249
G01 X272.296771 Y416.166447 Z-0.125000
G03 X270.594147 Y418.041057 Z-0.125000 I-5.364951 J-3.162232
G03 X269.010455 Y418.555953 Z-0.125000 I-1.583691 J-2.178069
G01 X260.841615 Y418.555953 Z-0.125000
G03 X258.549428 Y417.898872 Z-0.125000 I-0.000000 J-4.326617
G03 X256.710254 Y415.975285 Z-0.125000 I2.855317 J-4.571043
G01 X254.034259 Y411.291827 Z-0.125000
G03 X253.009917 Y408.689815 Z-0.125000 I7.827565 J-4.584136
G03 X252.578893 Y404.792352 Z-0.125000 I17.405557 J-3.897463
G01 X252.578893 Y404.792352 Z-0.125000
G00 Z5.000000

(End cutting path id: path4151)


(Start cutting path id: path4149)
(Change tool to Default tool)

G00 Z5.000000
G00 X218.495126 Y342.187162

G01 Z-0.125000 F100.0(Penetrate)
G01 X194.645887 Y342.187162 Z-0.125000 F400.000000
G02 X193.308493 Y342.678005 Z-0.125000 I0.000000 J2.067412
G02 X191.829049 Y344.576668 Z-0.125000 I3.817807 J4.500573
G02 X191.016105 Y347.129568 Z-0.125000 I10.417217 J4.723141
G02 X190.702317 Y350.407073 Z-0.125000 I16.959830 J3.277506
G02 X191.016824 Y353.586379 Z-0.125000 I16.226785 J0.000000
G02 X191.829049 Y356.046316 Z-0.125000 I10.462266 J-2.090382
G02 X193.308493 Y357.944979 Z-0.125000 I5.297251 J-2.601910
G02 X194.645887 Y358.435822 Z-0.125000 I1.337394 J-1.576569
G01 X202.533041 Y358.435822 Z-0.125000
G01 X202.533041 Y453.156062 Z-0.125000
G01 X194.551991 Y453.156062 Z-0.125000
G02 X193.202428 Y453.636068 Z-0.125000 I-0.000000 J2.137190
G02 X191.735153 Y455.450014 Z-0.125000 I3.580434 J4.396561
G02 X190.926998 Y457.910863 Z-0.125000 I9.523785 J4.490785
G02 X190.608421 Y461.184839 Z-0.125000 I16.663830 J3.273976
G02 X190.931917 Y464.454999 Z-0.125000 I16.690494 J-0.000000
G02 X191.735153 Y466.824082 Z-0.125000 I9.484613 J-1.895045
G02 X193.214598 Y468.722744 Z-0.125000 I5.297251 J-2.601910
G02 X194.551991 Y469.213587 Z-0.125000 I1.337394 J-1.576569
G01 X206.570506 Y469.213587 Z-0.125000
G02 X207.866588 Y468.731792 Z-0.125000 I-0.000000 J-1.984200
G02 X209.340396 Y466.824082 Z-0.125000 I-3.939497 J-4.566624
G02 X210.187309 Y464.358653 Z-0.125000 I-9.332728 J-4.584114
G02 X210.514090 Y461.184839 Z-0.125000 I-15.249216 J-3.173814
G01 X210.514090 Y358.435822 Z-0.125000
G01 X218.495126 Y358.435822 Z-0.125000
G02 X219.791210 Y357.954028 Z-0.125000 I-0.000000 J-1.984209
G02 X221.265030 Y356.046316 Z-0.125000 I-3.939520 J-4.566673
G02 X222.111932 Y353.580889 Z-0.125000 I-9.332817 J-4.584104
G02 X222.438710 Y350.407073 Z-0.125000 I-15.249403 J-3.173816
G02 X222.112629 Y347.134884 Z-0.125000 I-16.581100 J0.000000
G02 X221.265030 Y344.576668 Z-0.125000 I-10.917641 J2.197758
G02 X219.824865 Y342.681467 Z-0.125000 I-5.183745 J2.444340
G02 X218.495126 Y342.187162 Z-0.125000 I-1.329739 J1.541427
G01 X218.495126 Y342.187162 Z-0.125000
G00 Z5.000000

(End cutting path id: path4149)


(Start cutting path id: path4147)
(Change tool to Default tool)

G00 Z5.000000
G00 X74.460736 Y469.213587

G01 Z-0.125000 F100.0(Penetrate)
G01 X106.384920 Y469.213587 Z-0.125000 F400.000000
G02 X107.639819 Y468.741046 Z-0.125000 I-0.000000 J-1.902551
G02 X109.107863 Y466.824082 Z-0.125000 I-4.068783 J-4.636549
G02 X109.989535 Y464.353015 Z-0.125000 I-9.042534 J-4.619186
G02 X110.328490 Y461.184839 Z-0.125000 I-14.636825 J-3.168176
G02 X110.002410 Y457.912649 Z-0.125000 I-16.581100 J-0.000000
G02 X109.154810 Y455.354433 Z-0.125000 I-10.917641 J2.197758
G02 X107.680999 Y453.446697 Z-0.125000 I-5.413382 J2.658920
G02 X106.384920 Y452.964899 Z-0.125000 I-1.296079 J1.502383
G01 X94.460301 Y452.964899 Z-0.125000
G01 X94.460301 Y358.244659 Z-0.125000
G01 X106.384920 Y358.244659 Z-0.125000
G02 X107.714657 Y357.750354 Z-0.125000 I-0.000000 J-2.035723
G02 X109.154810 Y355.855154 Z-0.125000 I-3.743559 J-4.339495
G02 X109.992394 Y353.480241 Z-0.125000 I-8.398908 J-4.297279
G02 X110.328490 Y350.215911 Z-0.125000 I-15.684299 J-3.264330
G02 X109.997467 Y346.947500 Z-0.125000 I-16.301102 J0.000000
G02 X109.154810 Y344.481086 Z-0.125000 I-10.052642 J2.057358
G02 X107.692873 Y342.658445 Z-0.125000 I-5.156218 J2.638165
G02 X106.384920 Y342.187162 Z-0.125000 I-1.307952 J1.579339
G01 X74.460736 Y342.187162 Z-0.125000
G02 X73.111169 Y342.667165 Z-0.125000 I-0.000000 J2.137211
G02 X71.643899 Y344.481086 Z-0.125000 I3.580366 J4.396531
G02 X70.835743 Y346.941935 Z-0.125000 I9.523785 J4.490785
G02 X70.517166 Y350.215911 Z-0.125000 I16.663830 J3.273976
G02 X70.840662 Y353.486071 Z-0.125000 I16.690494 J0.000000
G02 X71.643899 Y355.855154 Z-0.125000 I9.484613 J-1.895045
G02 X73.123343 Y357.753817 Z-0.125000 I5.297251 J-2.601910
G02 X74.460736 Y358.244659 Z-0.125000 I1.337394 J-1.576569
G01 X86.573147 Y358.244659 Z-0.125000
G01 X86.573147 Y452.964899 Z-0.125000
G01 X74.460736 Y452.964899 Z-0.125000
G02 X73.123346 Y453.455745 Z-0.125000 I-0.000000 J2.067392
G02 X71.643899 Y455.354433 Z-0.125000 I3.817878 J4.500604
G02 X70.831674 Y457.814370 Z-0.125000 I9.650041 J4.550320
G02 X70.517166 Y460.993676 Z-0.125000 I15.912278 J3.179306
G02 X70.839683 Y464.362351 Z-0.125000 I17.754111 J-0.000000
G02 X71.643899 Y466.824082 Z-0.125000 I10.208852 J-1.972872
G02 X73.123343 Y468.722744 Z-0.125000 I5.297251 J-2.601910
G02 X74.460736 Y469.213587 Z-0.125000 I1.337394 J-1.576569
G01 X74.460736 Y469.213587 Z-0.125000
G00 Z5.000000

(End cutting path id: path4147)


(Start cutting path id: path4157)
(Change tool to Default tool)

G00 Z5.000000
G00 X516.610641 Y410.909502

G01 Z-0.125000 F100.0(Penetrate)
G01 X495.343501 Y313.035105 Z-0.125000 F400.000000
G02 X493.472752 Y308.748132 Z-0.125000 I-11.047253 J2.269135
G02 X491.587722 Y307.778188 Z-0.125000 I-1.885030 J1.346750
G01 X480.648992 Y307.778188 Z-0.125000
G02 X479.299425 Y308.258190 Z-0.125000 I0.000000 J2.137211
G02 X477.832154 Y310.072112 Z-0.125000 I3.580366 J4.396531
G02 X477.032829 Y312.442108 Z-0.125000 I8.574596 J4.211731
G02 X476.705408 Y315.806936 Z-0.125000 I17.126041 J3.364828
G02 X477.028907 Y319.077095 Z-0.125000 I16.690290 J0.000000
G02 X477.832154 Y321.446179 Z-0.125000 I9.484536 J-1.895053
G02 X479.299428 Y323.260126 Z-0.125000 I5.047708 J-2.582615
G02 X480.648992 Y323.740131 Z-0.125000 I1.349563 J-1.657184
G01 X489.099505 Y323.740131 Z-0.125000
G01 X494.498456 Y349.260097 Z-0.125000
G01 X492.573611 Y349.260097 Z-0.125000
G02 X490.701676 Y350.248734 Z-0.125000 I0.000000 J2.266527
G02 X488.723923 Y354.899368 Z-0.125000 I10.667982 J7.282574
G01 X476.893199 Y410.909502 Z-0.125000
G01 X476.893199 Y426.393539 Z-0.125000
G02 X477.216698 Y429.663697 Z-0.125000 I16.690290 J0.000000
G02 X478.019945 Y432.032782 Z-0.125000 I9.484536 J-1.895053
G02 X479.454337 Y433.937099 Z-0.125000 I5.297671 J-2.498001
G02 X480.742887 Y434.422315 Z-0.125000 I1.288550 J-1.468340
G02 X482.080278 Y433.931470 Z-0.125000 I-0.000000 J-2.067392
G02 X483.559725 Y432.032782 Z-0.125000 I-3.817878 J-4.500604
G02 X484.431751 Y429.651883 Z-0.125000 I-8.140539 J-4.331690
G02 X484.780353 Y426.393539 Z-0.125000 I-15.053397 J-3.258344
G01 X484.780353 Y414.445983 Z-0.125000
G01 X495.155710 Y365.508785 Z-0.125000
G01 X497.925600 Y365.508785 Z-0.125000
G01 X508.629592 Y414.254821 Z-0.125000
G01 X508.629592 Y426.584701 Z-0.125000
G02 X508.951982 Y429.663956 Z-0.125000 I14.866679 J-0.000000
G02 X509.803272 Y432.128363 Z-0.125000 I10.314495 J-2.183740
G02 X511.333985 Y434.115691 Z-0.125000 I5.673427 J-2.786712
G02 X512.667071 Y434.613450 Z-0.125000 I1.333087 J-1.536241
G02 X513.963144 Y434.131659 Z-0.125000 I0.000000 J-1.984185
G02 X515.436961 Y432.223945 Z-0.125000 I-3.939556 J-4.566693
G02 X516.283864 Y429.758518 Z-0.125000 I-9.332817 J-4.584104
G02 X516.610641 Y426.584701 Z-0.125000 I-15.249403 J-3.173816
G01 X516.610641 Y410.909502 Z-0.125000
G01 X516.610641 Y410.909502 Z-0.125000
G00 Z5.000000

(End cutting path id: path4157)


(Start cutting path id: path4159)
(Change tool to Default tool)

G00 Z5.000000
G00 X542.713359 Y404.792352

G01 Z-0.125000 F100.0(Penetrate)
G01 X542.713359 Y372.295004 Z-0.125000 F400.000000
G03 X543.181385 Y368.027988 Z-0.125000 I19.685304 J-0.000000
G03 X544.262621 Y365.317622 Z-0.125000 I8.880596 J1.971853
G01 X547.220302 Y360.156286 Z-0.125000
G03 X548.459293 Y358.872570 Z-0.125000 I3.161688 J1.811763
G03 X549.990192 Y358.435822 Z-0.125000 I1.530900 J2.464697
G01 X559.144922 Y358.435822 Z-0.125000
G03 X560.815474 Y359.027033 Z-0.125000 I-0.000000 J2.655801
G03 X562.806805 Y361.398816 Z-0.125000 I-5.102054 J6.305490
G01 X565.201127 Y365.699948 Z-0.125000
G03 X566.209906 Y368.123588 Z-0.125000 I-6.515273 J4.133577
G03 X566.656494 Y372.103842 Z-0.125000 I-17.513885 J3.980254
G01 X566.656494 Y404.601189 Z-0.125000
G03 X566.183888 Y409.242956 Z-0.125000 I-23.031212 J-0.000000
G03 X565.201127 Y411.674152 Z-0.125000 I-7.125848 J-1.466249
G01 X562.431223 Y416.166447 Z-0.125000
G03 X560.728611 Y418.041056 Z-0.125000 I-5.364917 J-3.162181
G03 X559.144922 Y418.555953 Z-0.125000 I-1.583689 J-2.178058
G01 X550.976081 Y418.555953 Z-0.125000
G03 X548.683894 Y417.898872 Z-0.125000 I-0.000000 J-4.326617
G03 X546.844720 Y415.975285 Z-0.125000 I2.855317 J-4.571043
G01 X544.168726 Y411.291827 Z-0.125000
G03 X543.144383 Y408.689815 Z-0.125000 I7.827565 J-4.584136
G03 X542.713359 Y404.792352 Z-0.125000 I17.405557 J-3.897463
G01 X542.713359 Y404.792352 Z-0.125000
G00 Z5.000000

(End cutting path id: path4159)


(Start cutting path id: path4159)
(Change tool to Default tool)

G00 Z5.000000
G00 X574.543634 Y405.461421

G01 Z-0.125000 F100.0(Penetrate)
G01 X574.543634 Y371.530354 Z-0.125000 F400.000000
G02 X573.247512 Y361.061344 Z-0.125000 I-42.928084 J-0.000000
G02 X569.520279 Y351.554049 Z-0.125000 I-39.013442 J9.810541
G02 X563.562428 Y344.027078 Z-0.125000 I-24.565471 J13.322993
G02 X559.238817 Y342.378325 Z-0.125000 I-4.323610 J4.844635
G01 X549.990192 Y342.378325 Z-0.125000
G02 X545.601259 Y344.059246 Z-0.125000 I-0.000000 J6.570276
G02 X539.661782 Y351.649631 Z-0.125000 I18.457510 J20.562014
G02 X535.978724 Y361.324470 Z-0.125000 I38.043661 J20.021080
G02 X534.732310 Y371.530354 Z-0.125000 I41.160656 J10.205883
G01 X534.732310 Y405.461421 Z-0.125000
G02 X535.951211 Y415.679091 Z-0.125000 I43.435222 J0.000000
G02 X539.520939 Y425.246591 Z-0.125000 I41.575825 J-10.062650
G02 X545.420092 Y432.867428 Z-0.125000 I23.633364 J-12.200529
G02 X549.990192 Y434.613450 Z-0.125000 I4.570100 J-5.107959
G01 X559.238817 Y434.613450 Z-0.125000
G02 X563.558888 Y433.080068 Z-0.125000 I0.224278 J-6.220393
G02 X569.520279 Y425.628888 Z-0.125000 I-17.747740 J-20.309584
G02 X573.236333 Y416.118734 Z-0.125000 I-34.974805 J-19.147354
G02 X574.543634 Y405.461421 Z-0.125000 I-42.786346 J-10.657312
G01 X574.543634 Y405.461421 Z-0.125000
G00 Z5.000000

(End cutting path id: path4159)


(Start cutting path id: path4161)
(Change tool to Default tool)

G00 Z5.000000
G00 X611.585082 Y358.435822

G01 Z-0.125000 F100.0(Penetrate)
G01 X624.871172 Y375.640323 Z-0.125000 F400.000000
G01 X624.871172 Y426.393539 Z-0.125000
G02 X625.189749 Y429.667515 Z-0.125000 I16.982407 J-0.000000
G02 X625.997905 Y432.128363 Z-0.125000 I10.331940 J-2.029937
G02 X627.489137 Y434.112287 Z-0.125000 I5.556850 J-2.624441
G02 X628.814742 Y434.613450 Z-0.125000 I1.325606 J-1.502570
G02 X630.132670 Y434.108894 Z-0.125000 I0.000000 J-1.973525
G02 X631.584632 Y432.128363 Z-0.125000 I-3.990952 J-4.448335
G02 X632.427299 Y429.661948 Z-0.125000 I-9.209897 J-4.523781
G02 X632.758326 Y426.393539 Z-0.125000 I-15.969883 J-3.268409
G01 X632.758326 Y350.215911 Z-0.125000
G02 X632.431545 Y347.042096 Z-0.125000 I-15.575997 J0.000000
G02 X631.584632 Y344.576668 Z-0.125000 I-10.179641 J2.118685
G02 X630.110824 Y342.668957 Z-0.125000 I-5.413305 J2.658913
G02 X628.814742 Y342.187162 Z-0.125000 I-1.296082 J1.502405
G02 X627.518660 Y342.668957 Z-0.125000 I0.000000 J1.984200
G02 X626.044852 Y344.576668 Z-0.125000 I3.939497 J4.566624
G02 X625.197950 Y347.042095 Z-0.125000 I9.332817 J4.584104
G02 X624.871172 Y350.215911 Z-0.125000 I15.249403 J3.173816
G01 X624.871172 Y356.524223 Z-0.125000
G01 X618.016855 Y347.444080 Z-0.125000
G02 X613.456566 Y343.247935 Z-0.125000 I-14.356287 J11.026045
G02 X609.848029 Y342.187162 Z-0.125000 I-3.608537 J5.607376
G01 X606.186131 Y342.187162 Z-0.125000
G02 X602.228174 Y343.613298 Z-0.125000 I0.000000 J6.205328
G02 X597.876461 Y349.068935 Z-0.125000 I10.890719 J13.150431
G02 X595.340874 Y356.185940 Z-0.125000 I26.994870 J13.627690
G02 X594.167616 Y365.891111 Z-0.125000 I49.440881 J10.900407
G01 X593.040884 Y426.393539 Z-0.125000
G02 X593.291782 Y429.472965 Z-0.125000 I13.930502 J0.414937
G02 X594.120668 Y431.937201 Z-0.125000 I9.686696 J-1.886758
G02 X595.651383 Y433.924556 Z-0.125000 I5.673541 J-2.786736
G02 X596.984454 Y434.422315 Z-0.125000 I1.333071 J-1.536199
G02 X598.273007 Y433.937100 Z-0.125000 I-0.000000 J-1.953566
G02 X599.707410 Y432.032782 Z-0.125000 I-3.863301 J-4.402365
G02 X600.565259 Y429.567490 Z-0.125000 I-9.649430 J-4.739618
G02 X600.928038 Y426.393539 Z-0.125000 I-15.738122 J-3.406555
G01 X601.960875 Y367.038087 Z-0.125000
G03 X603.816684 Y360.179097 Z-0.125000 I14.479362 J0.237068
G03 X606.796452 Y358.435822 Z-0.125000 I2.979768 J1.675012
G01 X611.585082 Y358.435822 Z-0.125000
G01 X611.585082 Y358.435822 Z-0.125000
G00 Z5.000000

(End cutting path id: path4161)


(Footer)
M5
G00 X0.0000 Y0.0000
M2
(Using default footer. To add your own footer create file "footer" in the output dir.)
(end)
%