%
(Header)
(Generated by gcodetools from Inkscape.)
(Using default header. To add your own header create file "header" in the output dir.)
M3
(Header end.)
G21 (All units in mm)

(Start cutting path id: path4157)
(Change tool to Default tool)

G00 Z5.000000
G00 X169.509215 Y15.364670

G01 Z-0.125000 F100.0(Penetrate)
G01 X169.509215 Y11.015784 Z-0.125000 F400.000000
G02 X169.207884 Y9.765965 Z-0.125000 I-2.742576 J-0.000000
G02 X168.198420 Y8.455436 Z-0.125000 I-4.041798 J2.069238
G02 X166.796400 Y7.547789 Z-0.125000 I-3.488293 J3.851629
G02 X165.515579 Y7.279387 Z-0.125000 I-1.280821 J2.921852
G01 X163.102249 Y7.279387 Z-0.125000
G02 X161.800718 Y7.553583 Z-0.125000 I-0.000000 J3.226106
G02 X160.407156 Y8.467684 Z-0.125000 I2.043407 J4.634509
G02 X159.411625 Y9.794580 Z-0.125000 I3.228702 J3.459309
G02 X159.120864 Y11.015784 Z-0.125000 I2.419162 J1.221204
G01 X159.120864 Y15.364670 Z-0.125000
G02 X159.406310 Y16.589758 Z-0.125000 I2.771654 J-0.000000
G02 X160.370405 Y17.900505 Z-0.125000 I4.159920 J-2.049816
G02 X161.746059 Y18.816196 Z-0.125000 I3.304237 J-3.472817
G02 X163.102249 Y19.101047 Z-0.125000 I1.356190 J-3.086021
G01 X165.515579 Y19.101047 Z-0.125000
G02 X166.796285 Y18.849593 Z-0.125000 I0.054984 J-3.107122
G02 X168.198420 Y17.949507 Z-0.125000 I-1.997592 J-4.653960
G02 X169.204892 Y16.637650 Z-0.125000 I-2.999711 J-3.343430
G02 X169.509215 Y15.364670 Z-0.125000 I-2.510266 J-1.272980
G01 X169.509215 Y15.364670 Z-0.125000
G00 Z5.000000

(End cutting path id: path4157)


(Start cutting path id: path4157)
(Change tool to Default tool)

G00 Z5.000000
G00 X161.203432 Y15.278917

G01 Z-0.125000 F100.0(Penetrate)
G01 X161.203432 Y11.113771 Z-0.125000 F400.000000
G03 X161.313630 Y10.602479 Z-0.125000 I1.241237 J0.000000
G03 X161.607696 Y10.219494 Z-0.125000 I0.963956 J0.435762
G01 X162.379472 Y9.557965 Z-0.125000
G03 X162.661071 Y9.403264 Z-0.125000 I0.510498 J0.595602
G03 X163.102249 Y9.337465 Z-0.125000 I0.441177 J1.446133
G01 X165.491079 Y9.337465 Z-0.125000
G03 X165.982198 Y9.431481 Z-0.125000 I-0.000000 J1.329748
G03 X166.446610 Y9.717223 Z-0.125000 I-0.584006 J1.469452
G01 X167.071382 Y10.268488 Z-0.125000
G03 X167.346486 Y10.613837 Z-0.125000 I-0.570166 J0.736438
G03 X167.451144 Y11.089275 Z-0.125000 I-1.027574 J0.475437
G01 X167.451144 Y15.254417 Z-0.125000
G03 X167.339077 Y15.811970 Z-0.125000 I-1.443003 J-0.000000
G03 X167.071382 Y16.160946 Z-0.125000 I-0.796051 J-0.333480
G01 X166.348609 Y16.736716 Z-0.125000
G03 X165.952180 Y16.963107 Z-0.125000 I-0.835244 J-1.002297
G03 X165.491079 Y17.042975 Z-0.125000 I-0.461100 J-1.291087
G01 X163.359505 Y17.042975 Z-0.125000
G03 X162.698354 Y16.943830 Z-0.125000 I0.000000 J-2.254022
G03 X162.281470 Y16.712216 Z-0.125000 I0.336436 J-1.096538
G01 X161.583196 Y16.111944 Z-0.125000
G03 X161.304900 Y15.746104 Z-0.125000 I0.669055 J-0.797722
G03 X161.203432 Y15.278917 Z-0.125000 I1.024793 J-0.467187
G01 X161.203432 Y15.278917 Z-0.125000
G00 Z5.000000

(End cutting path id: path4157)


(Start cutting path id: path4155)
(Change tool to Default tool)

G00 Z5.000000
G00 X154.367711 Y15.205415

G01 Z-0.125000 F100.0(Penetrate)
G01 X154.367711 Y12.718572 Z-0.125000 F400.000000
G02 X154.289674 Y12.334391 Z-0.125000 I-0.984693 J0.000000
G02 X154.061449 Y11.995801 Z-0.125000 I-0.983624 J0.416794
G02 X153.722864 Y11.767572 Z-0.125000 I-0.755361 J0.755340
G02 X153.338675 Y11.689533 Z-0.125000 I-0.384189 J0.906665
G01 X146.061928 Y11.689533 Z-0.125000
G01 X146.061928 Y11.089275 Z-0.125000
G03 X146.174932 Y10.616364 Z-0.125000 I1.046040 J-0.000000
G03 X146.515193 Y10.194997 Z-0.125000 I1.157654 J0.586759
G01 X147.115463 Y9.692726 Z-0.125000
G03 X147.633209 Y9.394014 Z-0.125000 I1.350241 J1.742268
G03 X148.046494 Y9.312968 Z-0.125000 I0.413286 J1.013229
G01 X153.338675 Y9.312968 Z-0.125000
G02 X153.722864 Y9.234928 Z-0.125000 I-0.000000 J-0.984704
G02 X154.061449 Y9.006700 Z-0.125000 I-0.416776 J-0.983568
G02 X154.287559 Y8.678520 Z-0.125000 I-0.686173 J-0.714745
G02 X154.367711 Y8.283929 Z-0.125000 I-0.931225 J-0.394591
G02 X154.287223 Y7.901692 Z-0.125000 I-0.947869 J-0.000000
G02 X154.049200 Y7.561158 Z-0.125000 I-0.981273 J0.432427
G02 X153.711106 Y7.331740 Z-0.125000 I-0.768034 J0.768019
G02 X153.338675 Y7.254890 Z-0.125000 I-0.372431 J0.864022
G01 X147.911742 Y7.254890 Z-0.125000
G02 X147.381761 Y7.305706 Z-0.125000 I0.000000 J2.789142
G02 X146.772453 Y7.475391 Z-0.125000 I0.747960 J3.864586
G02 X146.205133 Y7.742212 Z-0.125000 I1.841786 J4.652564
G02 X145.902672 Y7.953165 Z-0.125000 I0.833487 J1.517352
G01 X144.983892 Y8.761703 Z-0.125000
G02 X144.608647 Y9.147275 Z-0.125000 I1.356241 J1.695302
G02 X144.261118 Y9.717223 Z-0.125000 I2.665456 J2.016203
G02 X144.041036 Y10.343263 Z-0.125000 I3.243256 J1.491862
G02 X143.979359 Y10.844277 Z-0.125000 I2.004087 J0.501014
G01 X143.979359 Y15.560676 Z-0.125000
G02 X144.033471 Y15.953410 Z-0.125000 I1.452248 J0.000000
G02 X144.285618 Y16.650963 Z-0.125000 I4.894115 J-1.374746
G02 X144.666037 Y17.288248 Z-0.125000 I3.258047 J-1.512663
G02 X145.081894 Y17.716750 Z-0.125000 I1.862617 J-1.391608
G01 X145.939423 Y18.390521 Z-0.125000
G02 X146.845578 Y18.904932 Z-0.125000 I1.993435 J-2.456196
G02 X147.813737 Y19.076544 Z-0.125000 I0.968159 J-2.645151
G01 X150.704836 Y19.076544 Z-0.125000
G02 X151.711394 Y18.864683 Z-0.125000 I0.000000 J-2.497024
G02 X152.762905 Y18.170016 Z-0.125000 I-1.510951 J-3.430273
G01 X153.534681 Y17.434990 Z-0.125000
G02 X154.119834 Y16.577077 Z-0.125000 I-1.452574 J-1.619263
G02 X154.367711 Y15.205415 Z-0.125000 I-3.671206 J-1.371662
G01 X154.367711 Y15.205415 Z-0.125000
G00 Z5.000000

(End cutting path id: path4155)


(Start cutting path id: path4155)
(Change tool to Default tool)

G00 Z5.000000
G00 X146.086430 Y15.364670

G01 Z-0.125000 F100.0(Penetrate)
G01 X146.086430 Y13.772107 Z-0.125000 F400.000000
G01 X152.334142 Y13.772107 Z-0.125000
G01 X152.334142 Y15.205415 Z-0.125000
G03 X152.231647 Y15.734220 Z-0.125000 I-1.415391 J0.000000
G03 X151.978880 Y16.087444 Z-0.125000 I-0.853688 J-0.343846
G01 X151.378608 Y16.614212 Z-0.125000
G03 X150.886706 Y16.919887 Z-0.125000 I-1.430839 J-1.753922
G03 X150.545581 Y16.993976 Z-0.125000 I-0.341125 J-0.748272
G01 X147.960744 Y16.993976 Z-0.125000
G03 X147.513040 Y16.911722 Z-0.125000 I-0.000000 J-1.259548
G03 X147.090963 Y16.663214 Z-0.125000 I0.518361 J-1.363097
G01 X146.490694 Y16.160946 Z-0.125000
G03 X146.191231 Y15.802602 Z-0.125000 I0.628304 J-0.829364
G03 X146.086430 Y15.364670 Z-0.125000 I0.862593 J-0.437932
G01 X146.086430 Y15.364670 Z-0.125000
G00 Z5.000000

(End cutting path id: path4155)


(Start cutting path id: path4153)
(Change tool to Default tool)

G00 Z5.000000
G00 X128.788838 Y8.283929

G01 Z-0.125000 F100.0(Penetrate)
G01 X128.788838 Y22.506662 Z-0.125000 F400.000000
G02 X128.865315 Y22.891499 Z-0.125000 I1.006495 J0.000000
G02 X129.082849 Y23.217185 Z-0.125000 I0.926659 J-0.383447
G02 X129.419939 Y23.434560 Z-0.125000 I0.726925 J-0.757208
G02 X129.817874 Y23.511195 Z-0.125000 I0.397935 J-0.994835
G02 X130.212475 Y23.431043 Z-0.125000 I-0.000000 J-1.011414
G02 X130.540648 Y23.204936 Z-0.125000 I-0.386539 J-0.912234
G02 X130.766754 Y22.876763 Z-0.125000 I-0.686125 J-0.714709
G02 X130.846907 Y22.482160 Z-0.125000 I-0.931272 J-0.394604
G01 X130.846907 Y17.287984 Z-0.125000
G01 X132.500712 Y18.366022 Z-0.125000
G02 X133.669420 Y18.932321 Z-0.125000 I3.118245 J-4.946201
G02 X134.509782 Y19.076544 Z-0.125000 I0.840362 J-2.376203
G01 X135.783826 Y19.076544 Z-0.125000
G02 X136.948807 Y18.842820 Z-0.125000 I0.000000 J-3.020237
G02 X137.952148 Y18.170016 Z-0.125000 I-1.204218 J-2.880363
G02 X138.631830 Y17.177036 Z-0.125000 I-2.214705 J-2.245045
G02 X138.895430 Y15.989440 Z-0.125000 I-2.958142 J-1.279646
G01 X139.152690 Y8.283929 Z-0.125000
G02 X139.082294 Y7.888034 Z-0.125000 I-0.989458 J-0.028267
G02 X138.858679 Y7.548910 Z-0.125000 I-0.937938 J0.375179
G02 X138.521585 Y7.331527 Z-0.125000 I-0.726945 J0.757215
G02 X138.123654 Y7.254890 Z-0.125000 I-0.397931 J0.994797
G02 X137.729055 Y7.335045 Z-0.125000 I0.000000 J1.011387
G02 X137.400880 Y7.561158 Z-0.125000 I0.386549 J0.912233
G02 X137.176868 Y7.908272 Z-0.125000 I0.885255 J0.817147
G02 X137.094618 Y8.283929 Z-0.125000 I0.961169 J0.407279
G01 X136.837362 Y16.013942 Z-0.125000
G03 X136.750516 Y16.398265 Z-0.125000 I-1.027532 J-0.030217
G03 X136.518851 Y16.736716 Z-0.125000 I-1.019285 J-0.449176
G03 X136.179787 Y16.963783 Z-0.125000 I-0.743445 J-0.743452
G03 X135.783826 Y17.042975 Z-0.125000 I-0.395961 J-0.950311
G01 X134.632286 Y17.042975 Z-0.125000
G03 X134.259604 Y16.978422 Z-0.125000 I-0.000000 J-1.108067
G03 X133.774757 Y16.736716 Z-0.125000 I0.764592 J-2.140867
G01 X130.846907 Y14.825651 Z-0.125000
G01 X130.846907 Y8.283929 Z-0.125000
G02 X130.767717 Y7.887978 Z-0.125000 I-1.029470 J0.000000
G02 X130.540648 Y7.548910 Z-0.125000 I-0.970559 J0.404401
G02 X130.214500 Y7.332476 Z-0.125000 I-0.698211 J0.698191
G02 X129.817874 Y7.254890 Z-0.125000 I-0.396626 J0.975007
G02 X129.419941 Y7.331528 Z-0.125000 I-0.000000 J1.071440
G02 X129.082849 Y7.548910 Z-0.125000 I0.389844 J0.974580
G02 X128.865472 Y7.886007 Z-0.125000 I0.757263 J0.726957
G02 X128.788838 Y8.283929 Z-0.125000 I0.994796 J0.397922
G01 X128.788838 Y8.283929 Z-0.125000
G00 Z5.000000

(End cutting path id: path4153)


(Start cutting path id: path4151)
(Change tool to Default tool)

G00 Z5.000000
G00 X113.647325 Y20.730353

G01 Z-0.125000 F100.0(Penetrate)
G01 X113.647325 Y23.511195 Z-0.125000 F400.000000
G01 X124.035677 Y23.511195 Z-0.125000
G01 X124.035677 Y20.705850 Z-0.125000
G02 X123.956484 Y20.309889 Z-0.125000 I-1.029494 J-0.000000
G02 X123.729415 Y19.970825 Z-0.125000 I-0.970519 J0.404385
G02 X123.392770 Y19.752346 Z-0.125000 I-0.738396 J0.769165
G02 X123.006641 Y19.676817 Z-0.125000 I-0.386129 J0.949239
G02 X122.609393 Y19.755062 Z-0.125000 I0.000000 J1.047533
G02 X122.259367 Y19.983076 Z-0.125000 I0.422886 J1.031845
G02 X122.031143 Y20.321662 Z-0.125000 I0.755363 J0.755363
G02 X121.953105 Y20.705850 Z-0.125000 I0.906678 J0.384188
G01 X121.953105 Y21.453127 Z-0.125000
G01 X119.870534 Y21.453127 Z-0.125000
G01 X119.870534 Y8.283929 Z-0.125000
G02 X119.791344 Y7.887978 Z-0.125000 I-1.029470 J0.000000
G02 X119.564275 Y7.548910 Z-0.125000 I-0.970559 J0.404401
G02 X119.227628 Y7.330422 Z-0.125000 I-0.738411 J0.769151
G02 X118.841501 Y7.254890 Z-0.125000 I-0.386127 J0.949198
G02 X118.431750 Y7.332600 Z-0.125000 I0.000000 J1.119128
G02 X118.094224 Y7.548910 Z-0.125000 I0.378605 J0.962260
G02 X117.867156 Y7.887978 Z-0.125000 I0.743490 J0.743469
G02 X117.787965 Y8.283929 Z-0.125000 I0.950279 J0.395951
G01 X117.787965 Y21.453127 Z-0.125000
G01 X115.705394 Y21.453127 Z-0.125000
G01 X115.705394 Y20.730353 Z-0.125000
G02 X115.626202 Y20.334389 Z-0.125000 I-1.029509 J-0.000000
G02 X115.399135 Y19.995327 Z-0.125000 I-0.970503 J0.404374
G02 X115.072988 Y19.778900 Z-0.125000 I-0.698197 J0.698197
G02 X114.676358 Y19.701317 Z-0.125000 I-0.396630 J0.975049
G02 X114.278426 Y19.777952 Z-0.125000 I-0.000000 J1.071460
G02 X113.941336 Y19.995327 Z-0.125000 I0.389837 J0.974586
G02 X113.723960 Y20.332418 Z-0.125000 I0.757208 J0.726925
G02 X113.647325 Y20.730353 Z-0.125000 I0.994835 J0.397935
G01 X113.647325 Y20.730353 Z-0.125000
G00 Z5.000000

(End cutting path id: path4151)


(Start cutting path id: path4149)
(Change tool to Default tool)

G00 Z5.000000
G00 X93.752651 Y15.205415

G01 Z-0.125000 F100.0(Penetrate)
G01 X93.752651 Y12.718572 Z-0.125000 F400.000000
G02 X93.674614 Y12.334391 Z-0.125000 I-0.984693 J-0.000000
G02 X93.446389 Y11.995801 Z-0.125000 I-0.983624 J0.416794
G02 X93.107804 Y11.767572 Z-0.125000 I-0.755361 J0.755340
G02 X92.723615 Y11.689533 Z-0.125000 I-0.384189 J0.906665
G01 X85.446868 Y11.689533 Z-0.125000
G01 X85.446868 Y11.089275 Z-0.125000
G03 X85.559872 Y10.616364 Z-0.125000 I1.046040 J-0.000000
G03 X85.900133 Y10.194997 Z-0.125000 I1.157654 J0.586759
G01 X86.500403 Y9.692726 Z-0.125000
G03 X87.018149 Y9.394014 Z-0.125000 I1.350241 J1.742268
G03 X87.431435 Y9.312968 Z-0.125000 I0.413286 J1.013229
G01 X92.723615 Y9.312968 Z-0.125000
G02 X93.107804 Y9.234928 Z-0.125000 I-0.000000 J-0.984704
G02 X93.446389 Y9.006700 Z-0.125000 I-0.416776 J-0.983568
G02 X93.672500 Y8.678520 Z-0.125000 I-0.686173 J-0.714745
G02 X93.752651 Y8.283929 Z-0.125000 I-0.931225 J-0.394591
G02 X93.672163 Y7.901693 Z-0.125000 I-0.947860 J0.000000
G02 X93.434138 Y7.561158 Z-0.125000 I-0.981273 J0.432430
G02 X93.096046 Y7.331740 Z-0.125000 I-0.768027 J0.768005
G02 X92.723615 Y7.254890 Z-0.125000 I-0.372431 J0.864017
G01 X87.296682 Y7.254890 Z-0.125000
G02 X86.766701 Y7.305706 Z-0.125000 I0.000000 J2.789142
G02 X86.157393 Y7.475391 Z-0.125000 I0.747960 J3.864586
G02 X85.590073 Y7.742212 Z-0.125000 I1.841786 J4.652564
G02 X85.287612 Y7.953165 Z-0.125000 I0.833487 J1.517352
G01 X84.368832 Y8.761703 Z-0.125000
G02 X83.993587 Y9.147275 Z-0.125000 I1.356241 J1.695302
G02 X83.646058 Y9.717223 Z-0.125000 I2.665456 J2.016203
G02 X83.425974 Y10.343263 Z-0.125000 I3.243230 J1.491865
G02 X83.364296 Y10.844277 Z-0.125000 I2.004066 J0.501014
G01 X83.364296 Y15.560676 Z-0.125000
G02 X83.418409 Y15.953410 Z-0.125000 I1.452235 J0.000000
G02 X83.670558 Y16.650963 Z-0.125000 I4.894084 J-1.374750
G02 X84.050977 Y17.288248 Z-0.125000 I3.258047 J-1.512663
G02 X84.466834 Y17.716750 Z-0.125000 I1.862617 J-1.391608
G01 X85.324363 Y18.390521 Z-0.125000
G02 X86.230518 Y18.904932 Z-0.125000 I1.993435 J-2.456196
G02 X87.198677 Y19.076544 Z-0.125000 I0.968159 J-2.645151
G01 X90.089776 Y19.076544 Z-0.125000
G02 X91.096334 Y18.864683 Z-0.125000 I0.000000 J-2.497024
G02 X92.147845 Y18.170016 Z-0.125000 I-1.510951 J-3.430273
G01 X92.919621 Y17.434990 Z-0.125000
G02 X93.504774 Y16.577077 Z-0.125000 I-1.452574 J-1.619263
G02 X93.752651 Y15.205415 Z-0.125000 I-3.671206 J-1.371662
G01 X93.752651 Y15.205415 Z-0.125000
G00 Z5.000000

(End cutting path id: path4149)


(Start cutting path id: path4149)
(Change tool to Default tool)

G00 Z5.000000
G00 X85.471370 Y15.364670

G01 Z-0.125000 F100.0(Penetrate)
G01 X85.471370 Y13.772107 Z-0.125000 F400.000000
G01 X91.719082 Y13.772107 Z-0.125000
G01 X91.719082 Y15.205415 Z-0.125000
G03 X91.616586 Y15.734219 Z-0.125000 I-1.415380 J0.000000
G03 X91.363817 Y16.087444 Z-0.125000 I-0.853689 J-0.343849
G01 X90.763548 Y16.614212 Z-0.125000
G03 X90.271646 Y16.919887 Z-0.125000 I-1.430839 J-1.753922
G03 X89.930521 Y16.993976 Z-0.125000 I-0.341125 J-0.748272
G01 X87.345681 Y16.993976 Z-0.125000
G03 X86.897980 Y16.911723 Z-0.125000 I-0.000000 J-1.259537
G03 X86.475904 Y16.663214 Z-0.125000 I0.518364 J-1.363101
G01 X85.875634 Y16.160946 Z-0.125000
G03 X85.576171 Y15.802602 Z-0.125000 I0.628304 J-0.829364
G03 X85.471370 Y15.364670 Z-0.125000 I0.862593 J-0.437932
G01 X85.471370 Y15.364670 Z-0.125000
G00 Z5.000000

(End cutting path id: path4149)


(Start cutting path id: path4147)
(Change tool to Default tool)

G00 Z5.000000
G00 X78.611141 Y18.047511

G01 Z-0.125000 F100.0(Penetrate)
G01 X78.611141 Y16.087444 Z-0.125000 F400.000000
G01 X75.046270 Y7.977662 Z-0.125000
G02 X74.601178 Y7.416327 Z-0.125000 I-1.435989 J0.681492
G02 X74.139739 Y7.254890 Z-0.125000 I-0.461440 J0.578758
G01 X72.816695 Y7.254890 Z-0.125000
G02 X72.218085 Y7.445632 Z-0.125000 I-0.000000 J1.034692
G02 X71.763159 Y8.002158 Z-0.125000 I0.783574 J1.104721
G01 X68.222789 Y16.062944 Z-0.125000
G01 X68.222789 Y18.047511 Z-0.125000
G02 X68.300372 Y18.444139 Z-0.125000 I1.052622 J-0.000000
G02 X68.516800 Y18.770285 Z-0.125000 I0.914627 J-0.372053
G02 X68.855861 Y18.997352 Z-0.125000 I0.743436 J-0.743436
G02 X69.251825 Y19.076544 Z-0.125000 I0.395964 J-0.950317
G02 X69.646426 Y18.996392 Z-0.125000 I0.000000 J-1.011414
G02 X69.974599 Y18.770285 Z-0.125000 I-0.386539 J-0.912234
G02 X70.200705 Y18.442113 Z-0.125000 I-0.686127 J-0.714711
G02 X70.280858 Y18.047511 Z-0.125000 I-0.931262 J-0.394601
G01 X70.280858 Y16.467208 Z-0.125000
G01 X73.416965 Y9.410955 Z-0.125000
G01 X76.528569 Y16.491708 Z-0.125000
G01 X76.528569 Y18.047511 Z-0.125000
G02 X76.608722 Y18.442112 Z-0.125000 I1.011405 J0.000000
G02 X76.834831 Y18.770285 Z-0.125000 I0.912234 J-0.386542
G02 X77.174357 Y18.996231 Z-0.125000 I0.732213 J-0.732213
G02 X77.582105 Y19.076544 Z-0.125000 I0.407748 J-0.994907
G02 X77.976708 Y18.996392 Z-0.125000 I-0.000000 J-1.011420
G02 X78.304879 Y18.770285 Z-0.125000 I-0.386532 J-0.912218
G02 X78.530988 Y18.442112 Z-0.125000 I-0.686125 J-0.714715
G02 X78.611141 Y18.047511 Z-0.125000 I-0.931252 J-0.394601
G01 X78.611141 Y18.047511 Z-0.125000
G00 Z5.000000

(End cutting path id: path4147)


(Start cutting path id: path4145)
(Change tool to Default tool)

G00 Z5.000000
G00 X63.469628 Y15.364670

G01 Z-0.125000 F100.0(Penetrate)
G01 X63.469628 Y11.015784 Z-0.125000 F400.000000
G02 X63.168296 Y9.765965 Z-0.125000 I-2.742576 J0.000000
G02 X62.158832 Y8.455436 Z-0.125000 I-4.041798 J2.069238
G02 X60.756812 Y7.547789 Z-0.125000 I-3.488293 J3.851629
G02 X59.475991 Y7.279387 Z-0.125000 I-1.280821 J2.921852
G01 X57.062661 Y7.279387 Z-0.125000
G02 X55.761130 Y7.553583 Z-0.125000 I-0.000000 J3.226106
G02 X54.367569 Y8.467684 Z-0.125000 I2.043407 J4.634509
G02 X53.372037 Y9.794580 Z-0.125000 I3.228702 J3.459309
G02 X53.081276 Y11.015784 Z-0.125000 I2.419162 J1.221204
G01 X53.081276 Y15.364670 Z-0.125000
G02 X53.366723 Y16.589758 Z-0.125000 I2.771654 J-0.000000
G02 X54.330818 Y17.900505 Z-0.125000 I4.159920 J-2.049816
G02 X55.706471 Y18.816196 Z-0.125000 I3.304237 J-3.472817
G02 X57.062661 Y19.101047 Z-0.125000 I1.356190 J-3.086021
G01 X59.475991 Y19.101047 Z-0.125000
G02 X60.756697 Y18.849593 Z-0.125000 I0.054984 J-3.107122
G02 X62.158832 Y17.949507 Z-0.125000 I-1.997592 J-4.653960
G02 X63.165304 Y16.637650 Z-0.125000 I-2.999711 J-3.343430
G02 X63.469628 Y15.364670 Z-0.125000 I-2.510266 J-1.272980
G01 X63.469628 Y15.364670 Z-0.125000
G00 Z5.000000

(End cutting path id: path4145)


(Start cutting path id: path4145)
(Change tool to Default tool)

G00 Z5.000000
G00 X55.163844 Y15.278917

G01 Z-0.125000 F100.0(Penetrate)
G01 X55.163844 Y11.113771 Z-0.125000 F400.000000
G03 X55.274043 Y10.602479 Z-0.125000 I1.241237 J0.000000
G03 X55.568108 Y10.219494 Z-0.125000 I0.963956 J0.435762
G01 X56.339884 Y9.557965 Z-0.125000
G03 X56.621484 Y9.403264 Z-0.125000 I0.510498 J0.595602
G03 X57.062661 Y9.337465 Z-0.125000 I0.441177 J1.446133
G01 X59.451492 Y9.337465 Z-0.125000
G03 X59.942610 Y9.431481 Z-0.125000 I-0.000000 J1.329748
G03 X60.407023 Y9.717223 Z-0.125000 I-0.584006 J1.469452
G01 X61.031795 Y10.268488 Z-0.125000
G03 X61.306898 Y10.613837 Z-0.125000 I-0.570166 J0.736438
G03 X61.411556 Y11.089275 Z-0.125000 I-1.027574 J0.475437
G01 X61.411556 Y15.254417 Z-0.125000
G03 X61.299490 Y15.811970 Z-0.125000 I-1.443003 J-0.000000
G03 X61.031795 Y16.160946 Z-0.125000 I-0.796051 J-0.333480
G01 X60.309021 Y16.736716 Z-0.125000
G03 X59.912592 Y16.963107 Z-0.125000 I-0.835244 J-1.002297
G03 X59.451492 Y17.042975 Z-0.125000 I-0.461100 J-1.291087
G01 X57.319918 Y17.042975 Z-0.125000
G03 X56.658767 Y16.943830 Z-0.125000 I0.000000 J-2.254022
G03 X56.241883 Y16.712216 Z-0.125000 I0.336436 J-1.096538
G01 X55.543608 Y16.111944 Z-0.125000
G03 X55.265313 Y15.746104 Z-0.125000 I0.669055 J-0.797722
G03 X55.163844 Y15.278917 Z-0.125000 I1.024793 J-0.467187
G01 X55.163844 Y15.278917 Z-0.125000
G00 Z5.000000

(End cutting path id: path4145)


(Start cutting path id: path4143)
(Change tool to Default tool)

G00 Z5.000000
G00 X37.915260 Y7.254890

G01 Z-0.125000 F100.0(Penetrate)
G01 X37.915260 Y22.506662 Z-0.125000 F400.000000
G02 X37.993298 Y22.890853 Z-0.125000 I0.984731 J0.000000
G02 X38.221519 Y23.229436 Z-0.125000 I0.983570 J-0.416766
G02 X38.560106 Y23.457660 Z-0.125000 I0.755360 J-0.755360
G02 X38.944296 Y23.535698 Z-0.125000 I0.384190 J-0.906688
G02 X39.328484 Y23.457660 Z-0.125000 I0.000000 J-0.984716
G02 X39.667070 Y23.229436 Z-0.125000 I-0.416776 J-0.983587
G02 X39.895292 Y22.890853 Z-0.125000 I-0.755349 J-0.755349
G02 X39.973329 Y22.506662 Z-0.125000 I-0.906693 J-0.384191
G01 X39.973329 Y9.312968 Z-0.125000
G01 X47.250077 Y9.312968 Z-0.125000
G02 X47.646036 Y9.233774 Z-0.125000 I0.000000 J-1.029475
G02 X47.985102 Y9.006700 Z-0.125000 I-0.404391 J-0.970517
G02 X48.220951 Y8.676490 Z-0.125000 I-0.675585 J-0.731860
G02 X48.303612 Y8.283929 Z-0.125000 I-0.890809 J-0.392561
G02 X48.221921 Y7.889956 Z-0.125000 I-0.990854 J-0.000000
G02 X47.985102 Y7.548910 Z-0.125000 I-0.968176 J0.419545
G02 X47.648008 Y7.331527 Z-0.125000 I-0.726945 J0.757215
G02 X47.250077 Y7.254890 Z-0.125000 I-0.397931 J0.994797
G01 X37.915260 Y7.254890 Z-0.125000
G01 X37.915260 Y7.254890 Z-0.125000
G00 Z5.000000

(End cutting path id: path4143)


(Start cutting path id: path4141)
(Change tool to Default tool)

G00 Z5.000000
G00 X8.636767 Y23.535698

G01 Z-0.125000 F100.0(Penetrate)
G01 X16.967050 Y23.535698 Z-0.125000 F400.000000
G02 X17.339482 Y23.458849 Z-0.125000 I0.000000 J-0.940887
G02 X17.677574 Y23.229436 Z-0.125000 I-0.429929 J-0.997430
G02 X17.915595 Y22.888909 Z-0.125000 I-0.743198 J-0.772930
G02 X17.996085 Y22.506662 Z-0.125000 I-0.867405 J-0.382247
G02 X17.917839 Y22.109411 Z-0.125000 I-1.047538 J0.000000
G02 X17.689824 Y21.759386 Z-0.125000 I-1.031841 J0.422885
G02 X17.351240 Y21.531164 Z-0.125000 I-0.755352 J0.755355
G02 X16.967050 Y21.453127 Z-0.125000 I-0.384190 J0.906693
G01 X13.855444 Y21.453127 Z-0.125000
G01 X13.855444 Y9.312968 Z-0.125000
G01 X16.967050 Y9.312968 Z-0.125000
G02 X17.361651 Y9.232814 Z-0.125000 I-0.000000 J-1.011391
G02 X17.689824 Y9.006700 Z-0.125000 I-0.386546 J-0.912228
G02 X17.915934 Y8.678520 Z-0.125000 I-0.686175 J-0.714743
G02 X17.996085 Y8.283929 Z-0.125000 I-0.931230 J-0.394591
G02 X17.916894 Y7.887978 Z-0.125000 I-1.029465 J0.000000
G02 X17.689824 Y7.548910 Z-0.125000 I-0.970558 J0.404402
G02 X17.353176 Y7.330422 Z-0.125000 I-0.738414 J0.769157
G02 X16.967050 Y7.254890 Z-0.125000 I-0.386126 J0.949198
G01 X8.636767 Y7.254890 Z-0.125000
G02 X8.238836 Y7.331527 Z-0.125000 I0.000000 J1.071435
G02 X7.901743 Y7.548910 Z-0.125000 I0.389847 J0.974587
G02 X7.684366 Y7.886007 Z-0.125000 I0.757264 J0.726957
G02 X7.607733 Y8.283929 Z-0.125000 I0.994798 J0.397922
G02 X7.685314 Y8.680546 Z-0.125000 I1.052594 J0.000000
G02 X7.901743 Y9.006700 Z-0.125000 I0.914678 J-0.372074
G02 X8.240807 Y9.233774 Z-0.125000 I0.743452 J-0.743434
G02 X8.636767 Y9.312968 Z-0.125000 I0.395961 J-0.950283
G01 X11.797375 Y9.312968 Z-0.125000
G01 X11.797375 Y21.453127 Z-0.125000
G01 X8.636767 Y21.453127 Z-0.125000
G02 X8.240805 Y21.532319 Z-0.125000 I-0.000000 J1.029505
G02 X7.901743 Y21.759386 Z-0.125000 I0.404378 J0.970510
G02 X7.683262 Y22.096034 Z-0.125000 I0.769179 J0.738408
G02 X7.607733 Y22.482160 Z-0.125000 I0.949225 J0.386126
G02 X7.685441 Y22.891914 Z-0.125000 I1.119169 J-0.000000
G02 X7.901743 Y23.229436 Z-0.125000 I0.962247 J-0.378588
G02 X8.240806 Y23.456505 Z-0.125000 I0.743444 J-0.743440
G02 X8.636767 Y23.535698 Z-0.125000 I0.395962 J-0.950303
G01 X8.636767 Y23.535698 Z-0.125000
G00 Z5.000000

(End cutting path id: path4141)


(Footer)
M5
G00 X0.0000 Y0.0000
M2
(Using default footer. To add your own footer create file "footer" in the output dir.)
(end)
%