%
(Header)
(Generated by gcodetools from Inkscape.)
(Using default header. To add your own header create file "header" in the output dir.)
M3
(Header end.)
G21 (All units in mm)

(Start cutting path id: path11449)
(Change tool to Default tool)

G00 Z5.000000
G00 X59.643747 Y9.000378

G01 Z-0.125000 F100.0(Penetrate)
G03 X58.514835 Y9.273876 Z-0.125000 I-1487.585778 J-6139.224238 F400.000000
G03 X55.576245 Y9.985419 Z-0.125000 I-11976.688008 J-49421.074310
G02 X51.399129 Y11.578031 Z-0.125000 I4.161598 J17.189266
G02 X50.163219 Y12.879495 Z-0.125000 I1.344063 J2.513923
G03 X49.491742 Y14.130735 Z-0.125000 I-12.078183 J-5.675955
G03 X48.917623 Y14.930581 Z-0.125000 I-5.484143 J-3.330473
G02 X48.353377 Y15.739010 Z-0.125000 I4.196544 J3.530120
G02 X46.094111 Y19.869470 Z-0.125000 I108.573901 J62.070509
G03 X43.897781 Y24.043695 Z-0.125000 I-784.274554 J-409.992790
G03 X40.293479 Y30.822899 Z-0.125000 I-2072.357235 J-1097.463130
G02 X36.839338 Y37.672011 Z-0.125000 I145.852588 J77.851863
G02 X34.254000 Y43.522899 Z-0.125000 I103.824092 J49.373502
G03 X27.722414 Y57.637427 Z-0.125000 I-159.426547 J-65.207098
G03 X26.567141 Y58.339566 Z-0.125000 I-1.155273 J-0.599354
G03 X25.684310 Y58.020264 Z-0.125000 I-0.000000 J-1.380111
G03 X23.380541 Y55.687605 Z-0.125000 I10.766839 J-12.937439
G02 X20.924973 Y53.670814 Z-0.125000 I-6.162466 J4.999886
G02 X19.306170 Y53.535122 Z-0.125000 I-0.968805 J1.833823
G02 X17.054097 Y54.916388 Z-0.125000 I1.805204 J5.469846
G02 X14.115490 Y58.686058 Z-0.125000 I13.280181 J13.382640
G02 X11.358041 Y65.226225 Z-0.125000 I22.510908 J13.342375
G02 X11.059227 Y70.039226 Z-0.125000 I11.663994 J3.139932
G02 X11.802706 Y73.003661 Z-0.125000 I14.200700 J-1.986079
G02 X16.587537 Y85.067099 Z-0.125000 I242.647562 J-89.262865
G03 X17.726665 Y88.568404 Z-0.125000 I-19.235925 J8.194245
G03 X18.589398 Y93.758455 Z-0.125000 I-41.603041 J9.582337
G02 X18.974189 Y96.854126 Z-0.125000 I75.318373 J-7.790285
G02 X19.737397 Y101.660677 Z-0.125000 I182.371275 J-26.493940
G03 X20.562287 Y106.458800 Z-0.125000 I-5726.252537 J986.923700
G03 X21.382919 Y111.256232 Z-0.125000 I-5717.404533 J980.467825
G03 X22.064726 Y116.068727 Z-0.125000 I-84.784204 J14.466300
G03 X22.387085 Y120.146233 Z-0.125000 I-60.521361 J6.836185
G02 X23.005435 Y127.279462 Z-0.125000 I86.913251 J-3.940730
G02 X23.502879 Y128.841163 Z-0.125000 I4.521954 J-0.580289
G02 X23.967567 Y129.558812 Z-0.125000 I4.417757 J-2.351292
G02 X25.465980 Y131.369812 Z-0.125000 I29.879424 J-23.196703
G03 X26.877646 Y133.235443 Z-0.125000 I-11.784373 J10.383778
G03 X28.129195 Y135.495571 Z-0.125000 I-16.092460 J10.387810
G02 X37.431350 Y145.918433 Z-0.125000 I22.088431 J-10.350989
G02 X57.102085 Y153.328344 Z-0.125000 I28.947374 J-47.030772
G02 X66.430452 Y154.404303 Z-0.125000 I14.627729 J-85.844142
G02 X73.593046 Y154.333766 Z-0.125000 I3.083570 J-50.576692
G02 X93.451039 Y150.477836 Z-0.125000 I-7.337246 J-90.848895
G02 X103.429901 Y145.006339 Z-0.125000 I-8.607327 J-27.533381
G02 X107.273173 Y140.990599 Z-0.125000 I-16.729631 J-19.858101
G02 X110.557678 Y135.750181 Z-0.125000 I-25.468394 J-19.612182
G03 X112.133043 Y132.995343 Z-0.125000 I25.375432 J12.683184
G03 X113.569610 Y131.106779 Z-0.125000 I13.308051 J8.632328
G02 X115.056853 Y129.255950 Z-0.125000 I-18.415955 J-16.321206
G02 X115.587950 Y128.330677 Z-0.125000 I-4.018704 J-2.921749
G02 X115.861996 Y127.304651 Z-0.125000 I-3.201173 J-1.404629
G02 X116.387373 Y120.992899 Z-0.125000 I-123.619573 J-13.467560
G03 X116.920101 Y114.662569 Z-0.125000 I120.192682 J6.927228
G03 X117.638097 Y109.704010 Z-0.125000 I74.436528 J8.247092
G02 X119.881403 Y96.456319 Z-0.125000 I-695.376438 J-124.565765
G02 X120.317628 Y92.911788 Z-0.125000 I-49.292627 J-7.865546
G03 X121.018255 Y89.092814 Z-0.125000 I20.436108 J1.775443
G03 X123.277659 Y82.469566 Z-0.125000 I64.114664 J18.174584
G02 X127.526868 Y71.135408 Z-0.125000 I-248.569182 J-99.652924
G02 X127.800411 Y69.522934 Z-0.125000 I-4.615813 J-1.612473
G02 X127.449353 Y66.211461 Z-0.125000 I-15.793814 J-0.000000
G02 X126.126579 Y61.717162 Z-0.125000 I-30.565766 J6.554383
G02 X123.565991 Y57.000499 Z-0.125000 I-18.499776 J6.989803
G02 X120.557150 Y54.134011 Z-0.125000 I-9.556548 J7.018764
G02 X118.482952 Y53.846688 Z-0.125000 I-1.336505 J2.017760
G02 X115.352746 Y55.799566 Z-0.125000 I2.290035 J7.155718
G03 X112.179981 Y57.846378 Z-0.125000 I-5.900440 J-5.663814
G03 X110.765450 Y57.422343 Z-0.125000 I-0.417248 J-1.179483
G03 X109.791103 Y55.779138 Z-0.125000 I6.747149 J-5.111229
G03 X104.902932 Y44.369565 Z-0.125000 I325.994446 J-146.416785
G02 X102.220012 Y38.230466 Z-0.125000 I-126.068208 J51.438745
G02 X99.239872 Y32.234010 Z-0.125000 I-123.258398 J57.518630
G03 X96.110896 Y26.306971 Z-0.125000 I24951.318190 J-13175.894721
G03 X93.165572 Y20.724505 Z-0.125000 I22128.542153 J-11678.715655
G02 X88.452483 Y12.258234 Z-0.125000 I-189.586507 J99.995918
G02 X87.724858 Y11.450829 Z-0.125000 I-2.326074 J1.364670
G02 X84.633815 Y9.994929 Z-0.125000 I-5.246357 J7.129347
G02 X76.994222 Y8.756905 Z-0.125000 I-11.058363 J44.048714
G02 X74.823530 Y9.149536 Z-0.125000 I-0.330069 J4.371923
G02 X74.134678 Y10.079568 Z-0.125000 I0.506682 J1.095410
G01 X74.037080 Y10.785124 Z-0.125000
G01 X69.592662 Y10.862848 Z-0.125000
G01 X65.148243 Y10.940572 Z-0.125000
G01 X64.693685 Y9.804514 Z-0.125000
G01 X64.239126 Y8.668457 Z-0.125000
G01 X62.505881 Y8.697639 Z-0.125000
G02 X60.782396 Y8.803105 Z-0.125000 I0.329348 J19.516931
G02 X59.643747 Y9.000378 Z-0.125000 I0.918771 J8.687848
G01 X59.643747 Y9.000378 Z-0.125000
G00 Z5.000000

(End cutting path id: path11449)


(Start cutting path id: path11449)
(Change tool to Default tool)

G00 Z5.000000
G00 X45.471577 Y48.050215

G01 Z-0.125000 F100.0(Penetrate)
G03 X46.587830 Y49.456236 Z-0.125000 I-2.388177 J3.042107 F400.000000
G03 X46.322519 Y49.872899 Z-0.125000 I-0.265310 J0.123863
G03 X43.765365 Y48.959060 Z-0.125000 I-0.000000 J-4.034703
G03 X42.851525 Y47.028855 Z-0.125000 I1.581559 J-1.930205
G03 X43.229463 Y46.770545 Z-0.125000 I0.277243 J0.000000
G03 X45.471577 Y48.050215 Z-0.125000 I-3.202381 J8.214944
G01 X45.471577 Y48.050215 Z-0.125000
G00 Z5.000000

(End cutting path id: path11449)


(Start cutting path id: path11449)
(Change tool to Default tool)

G00 Z5.000000
G00 X49.841670 Y52.624565

G01 Z-0.125000 F100.0(Penetrate)
G03 X51.238965 Y54.208417 Z-0.125000 I-2.832330 J3.907002 F400.000000
G03 X50.965414 Y54.670499 Z-0.125000 I-0.273394 J0.150163
G03 X48.291135 Y53.745090 Z-0.125000 I0.002177 J-4.333107
G03 X47.367080 Y51.844328 Z-0.125000 I1.492886 J-1.900761
G03 X47.743454 Y51.568360 Z-0.125000 I0.289361 J0.000000
G03 X49.841670 Y52.624565 Z-0.125000 I-2.204351 J6.991296
G01 X49.841670 Y52.624565 Z-0.125000
G00 Z5.000000

(End cutting path id: path11449)


(Start cutting path id: path11449)
(Change tool to Default tool)

G00 Z5.000000
G00 X54.654879 Y57.479990

G01 Z-0.125000 F100.0(Penetrate)
G03 X56.102079 Y58.971815 Z-0.125000 I-4.907867 J6.208927 F400.000000
G03 X56.122723 Y59.457527 Z-0.125000 I-0.347684 J0.258072
G03 X55.830876 Y59.540323 Z-0.125000 I-0.191190 J-0.118162
G03 X54.117754 Y58.453276 Z-0.125000 I4.502320 J-8.988799
G03 X52.426163 Y57.010706 Z-0.125000 I17.358456 J-22.068020
G03 X52.234415 Y56.713791 Z-0.125000 I0.481517 J-0.521337
G03 X52.569396 Y56.373685 Z-0.125000 I0.254137 J-0.084712
G03 X54.654879 Y57.479990 Z-0.125000 I-1.977136 J6.245891
G01 X54.654879 Y57.479990 Z-0.125000
G00 Z5.000000

(End cutting path id: path11449)


(Start cutting path id: path11449)
(Change tool to Default tool)

G00 Z5.000000
G00 X49.624858 Y73.466016

G01 Z-0.125000 F100.0(Penetrate)
G02 X42.770823 Y74.180387 Z-0.125000 I13.100083 J158.926503 F400.000000
G02 X41.032357 Y74.549724 Z-0.125000 I1.327251 J10.523503
G02 X39.911193 Y74.954716 Z-0.125000 I3.225984 J10.685089
G02 X37.266090 Y76.142366 Z-0.125000 I25.718663 J60.819279
G01 X34.643989 Y77.389566 Z-0.125000
G01 X34.726090 Y85.574010 Z-0.125000
G02 X35.640866 Y94.403990 Z-0.125000 I47.691431 J-0.478404
G02 X36.775145 Y95.870956 Z-0.125000 I2.041042 J-0.406160
G02 X37.994441 Y96.244616 Z-0.125000 I1.817427 J-3.754287
G02 X40.699346 Y96.439566 Z-0.125000 I2.704905 J-18.667666
G02 X46.772747 Y95.838093 Z-0.125000 I0.000000 J-30.963979
G02 X57.668191 Y93.045293 Z-0.125000 I-20.627913 J-103.124284
G03 X69.423058 Y91.330631 Z-0.125000 I11.204204 J35.660350
G03 X82.362636 Y93.409126 Z-0.125000 I-0.670209 J45.488997
G02 X91.326320 Y95.726393 Z-0.125000 I27.256883 J-86.940060
G02 X96.851059 Y96.378513 Z-0.125000 I6.604698 J-32.226058
G02 X100.442304 Y96.308751 Z-0.125000 I1.128755 J-34.364686
G02 X101.696498 Y96.030606 Z-0.125000 I-0.315014 J-4.387173
G02 X103.007262 Y94.522830 Z-0.125000 I-0.756743 J-1.981499
G02 X104.027733 Y85.856232 Z-0.125000 I-39.444775 J-9.037901
G02 X103.997230 Y77.705670 Z-0.125000 I-315.556781 J-2.894417
G02 X103.886621 Y77.376169 Z-0.125000 I-0.574608 J0.009572
G02 X103.588030 Y77.131341 Z-0.125000 I-0.623705 J0.456176
G02 X98.934553 Y75.079489 Z-0.125000 I-56.395427 J121.598619
G02 X95.446662 Y74.087682 Z-0.125000 I-5.882108 J14.056785
G02 X88.289303 Y73.385843 Z-0.125000 I-9.417327 J59.191599
G01 X83.914858 Y73.220782 Z-0.125000
G01 X81.798192 Y74.129191 Z-0.125000
G03 X78.419026 Y75.023936 Z-0.125000 I-4.720296 J-10.998664
G03 X69.220580 Y75.547473 Z-0.125000 I-9.316582 J-82.621278
G03 X62.455034 Y75.149741 Z-0.125000 I-0.080120 J-56.377974
G03 X58.232636 Y74.235241 Z-0.125000 I2.716770 J-22.748801
G02 X54.490226 Y73.482763 Z-0.125000 I-5.299907 J16.676232
G02 X49.624858 Y73.466016 Z-0.125000 I-2.530169 J28.313106
G01 X49.624858 Y73.466016 Z-0.125000
G00 Z5.000000

(End cutting path id: path11449)


(Start cutting path id: path11449)
(Change tool to Default tool)

G00 Z5.000000
G00 X57.385969 Y76.412614

G01 Z-0.125000 F100.0(Penetrate)
G01 X60.772636 Y77.635573 Z-0.125000 F400.000000
G01 X68.674858 Y77.738243 Z-0.125000
G02 X77.406294 Y77.248760 Z-0.125000 I0.823988 J-63.422440
G02 X82.618950 Y75.986185 Z-0.125000 I-2.974266 J-23.671275
G03 X92.122468 Y75.224001 Z-0.125000 I6.127398 J16.771487
G03 X99.828997 Y79.299990 Z-0.125000 I-2.822947 J14.660802
G03 X101.104079 Y80.854775 Z-0.125000 I-7.022534 J7.059432
G03 X101.734429 Y82.172211 Z-0.125000 I-4.377346 J2.903936
G03 X102.622446 Y87.200354 Z-0.125000 I-18.490748 J5.858128
G03 X102.137146 Y91.574938 Z-0.125000 I-14.399877 J0.616741
G03 X100.896228 Y93.940872 Z-0.125000 I-5.928536 J-1.601086
G03 X99.342604 Y94.877102 Z-0.125000 I-2.160913 J-1.828729
G03 X98.568896 Y94.889791 Z-0.125000 I-0.418184 J-1.904010
G03 X94.062765 Y93.897757 Z-0.125000 I12.640284 J-68.146318
G02 X78.859687 Y90.534184 Z-0.125000 I-59.728262 J233.926788
G02 X69.774336 Y89.664951 Z-0.125000 I-9.353356 J49.847323
G02 X60.695280 Y90.450896 Z-0.125000 I-0.263124 J49.792982
G02 X45.833169 Y93.642896 Z-0.125000 I40.089345 J222.853373
G03 X40.204771 Y94.893616 Z-0.125000 I-26.433790 J-105.665801
G03 X39.452279 Y94.884581 Z-0.125000 I-0.354431 J-1.821379
G03 X38.062093 Y94.079139 Z-0.125000 I0.566839 J-2.580807
G03 X36.794711 Y91.955083 Z-0.125000 I4.638191 J-4.207654
G03 X36.212062 Y88.390294 Z-0.125000 I9.663381 J-3.409447
G03 X36.930288 Y83.012781 Z-0.125000 I23.114234 J0.350438
G03 X37.740101 Y80.919791 Z-0.125000 I9.173239 J2.346119
G03 X38.835288 Y79.423702 Z-0.125000 I5.708629 J3.030006
G03 X41.637358 Y77.344402 Z-0.125000 I7.987443 J7.836211
G03 X46.238191 Y75.552313 Z-0.125000 I10.383107 J19.854660
G03 X48.375468 Y75.169236 Z-0.125000 I3.352423 J12.550230
G03 X51.177080 Y75.088280 Z-0.125000 I2.024668 J21.549373
G03 X53.952493 Y75.431459 Z-0.125000 I-0.576835 J16.059567
G03 X57.385969 Y76.412614 Z-0.125000 I-5.465748 J25.625135
G01 X57.385969 Y76.412614 Z-0.125000
G00 Z5.000000

(End cutting path id: path11449)


(Start cutting path id: path11449)
(Change tool to Default tool)

G00 Z5.000000
G00 X77.239848 Y68.184927

G01 Z-0.125000 F100.0(Penetrate)
G03 X77.481489 Y68.486126 Z-0.125000 I-0.319097 J0.503530 F400.000000
G03 X77.518334 Y68.956718 Z-0.125000 I-0.837905 J0.302341
G03 X77.206673 Y69.236364 Z-0.125000 I-0.339963 J-0.065389
G03 X70.082233 Y69.566673 Z-0.125000 I-8.210728 J-100.098571
G03 X62.139398 Y69.034684 Z-0.125000 I-0.554690 J-51.279277
G03 X61.921684 Y68.378614 Z-0.125000 I0.055708 J-0.382646
G03 X62.450639 Y68.141622 Z-0.125000 I0.575344 J0.575344
G03 X69.612239 Y67.939442 Z-0.125000 I7.087490 J124.112641
G03 X76.826220 Y68.057645 Z-0.125000 I-0.129195 J228.080634
G03 X77.239848 Y68.184927 Z-0.125000 I-0.026470 J0.821740
G01 X77.239848 Y68.184927 Z-0.125000
G00 Z5.000000

(End cutting path id: path11449)


(Start cutting path id: path11449)
(Change tool to Default tool)

G00 Z5.000000
G00 X78.538573 Y65.936813

G01 Z-0.125000 F100.0(Penetrate)
G03 X78.559147 Y66.180007 Z-0.125000 I-0.229580 J0.141890 F400.000000
G03 X78.252848 Y66.642368 Z-0.125000 I-1.291795 J-0.523135
G03 X77.720006 Y66.879004 Z-0.125000 I-0.573785 J-0.573785
G03 X69.423052 Y67.088454 Z-0.125000 I-8.296954 J-164.229125
G03 X61.105958 Y66.877220 Z-0.125000 I0.000000 J-163.843229
G03 X60.383355 Y66.628985 Z-0.125000 I0.070145 J-1.380043
G03 X60.027455 Y66.176448 Z-0.125000 I0.571105 J-0.815368
G03 X60.108892 Y65.927751 Z-0.125000 I0.191530 J-0.074965
G03 X60.660771 Y65.762196 Z-0.125000 I0.571154 J0.901322
G03 X69.442268 Y65.685037 Z-0.125000 I8.548850 J473.197511
G03 X78.250183 Y65.772348 Z-0.125000 I-0.229806 J467.496627
G03 X78.538573 Y65.936810 Z-0.125000 I-0.006706 J0.346841
G01 X78.538573 Y65.936813 Z-0.125000
G00 Z5.000000

(End cutting path id: path11449)


(Start cutting path id: path11449)
(Change tool to Default tool)

G00 Z5.000000
G00 X80.253609 Y63.149705

G01 Z-0.125000 F100.0(Penetrate)
G03 X80.301383 Y63.434935 Z-0.125000 I-0.325426 J0.201122 F400.000000
G03 X80.094599 Y63.855260 Z-0.125000 I-0.979127 J-0.220664
G03 X79.660877 Y64.068841 Z-0.125000 I-0.455678 J-0.378179
G03 X69.134192 Y64.261911 Z-0.125000 I-10.412445 J-280.645611
G03 X58.550522 Y64.134635 Z-0.125000 I0.174801 J-454.643282
G03 X58.109672 Y64.001197 Z-0.125000 I0.020413 J-0.862395
G03 X57.938189 Y63.707823 Z-0.125000 I0.197630 J-0.312323
G03 X58.073674 Y63.299965 Z-0.125000 I0.590402 J-0.030308
G03 X58.542890 Y63.068127 Z-0.125000 I0.494771 J0.410622
G03 X69.257204 Y62.855121 Z-0.125000 I10.714314 J269.362037
G03 X79.991399 Y62.998876 Z-0.125000 I0.000000 J400.833238
G03 X80.253609 Y63.149705 Z-0.125000 I-0.008523 J0.318153
G01 X80.253609 Y63.149705 Z-0.125000
G00 Z5.000000

(End cutting path id: path11449)


(Start cutting path id: path11449)
(Change tool to Default tool)

G00 Z5.000000
G00 X86.526235 Y56.716788

G01 Z-0.125000 F100.0(Penetrate)
G03 X84.927528 Y58.958005 Z-0.125000 I-4.422569 J-1.463907 F400.000000
G03 X82.988619 Y59.412992 Z-0.125000 I-1.477863 J-1.939070
G03 X82.802114 Y59.013840 Z-0.125000 I0.051457 J-0.267192
G03 X84.012143 Y57.567279 Z-0.125000 I4.360316 J2.417977
G03 X86.177323 Y56.370153 Z-0.125000 I4.393334 J5.389414
G03 X86.526235 Y56.716788 Z-0.125000 I0.088053 J0.260288
G01 X86.526235 Y56.716788 Z-0.125000
G00 Z5.000000

(End cutting path id: path11449)


(Start cutting path id: path11449)
(Change tool to Default tool)

G00 Z5.000000
G00 X91.324013 Y51.919010

G01 Z-0.125000 F100.0(Penetrate)
G03 X89.881550 Y53.934700 Z-0.125000 I-3.962422 J-1.311608 F400.000000
G03 X87.690769 Y54.670677 Z-0.125000 I-2.190781 J-2.892659
G03 X87.486617 Y54.312909 Z-0.125000 I0.000000 J-0.237131
G03 X88.816463 Y52.765677 Z-0.125000 I5.008187 J2.959418
G03 X90.975060 Y51.572135 Z-0.125000 I4.368936 J5.352755
G03 X91.324013 Y51.919010 Z-0.125000 I0.087951 J0.260481
G01 X91.324013 Y51.919010 Z-0.125000
G00 Z5.000000

(End cutting path id: path11449)


(Start cutting path id: path11449)
(Change tool to Default tool)

G00 Z5.000000
G00 X95.762025 Y47.356261

G01 Z-0.125000 F100.0(Penetrate)
G03 X94.118628 Y49.429756 Z-0.125000 I-4.464511 J-1.850449 F400.000000
G03 X92.330962 Y49.823022 Z-0.125000 I-1.350247 J-1.878086
G03 X92.158261 Y49.417586 Z-0.125000 I0.050245 J-0.260903
G03 X93.619829 Y47.834916 Z-0.125000 I5.327879 J3.454002
G03 X95.446668 Y46.980981 Z-0.125000 I2.846068 J3.707584
G03 X95.762025 Y47.356261 Z-0.125000 I0.060225 J0.269533
G01 X95.762025 Y47.356261 Z-0.125000
G00 Z5.000000

(End cutting path id: path11449)


(Start cutting path id: path11449)
(Change tool to Default tool)

G00 Z5.000000
G00 X38.908172 Y51.468403

G01 Z-0.125000 F100.0(Penetrate)
G03 X40.783511 Y53.173173 Z-0.125000 I-4.764593 J7.125180 F400.000000
G03 X41.158191 Y54.224644 Z-0.125000 I-1.288039 J1.051471
G03 X40.898654 Y54.972481 Z-0.125000 I-1.207187 J0.000000
G03 X38.471599 Y57.629065 Z-0.125000 I-19.581769 J-15.452929
G02 X36.139882 Y60.441397 Z-0.125000 I10.473422 J11.056347
G02 X36.378910 Y60.879566 Z-0.125000 I0.239028 J0.153888
G02 X38.356965 Y60.420674 Z-0.125000 I0.000000 J-4.492650
G02 X42.711898 Y57.774023 Z-0.125000 I-12.458571 J-25.406206
G03 X44.369987 Y56.950951 Z-0.125000 I3.149921 J4.263898
G03 X45.272274 Y57.023154 Z-0.125000 I0.356701 J1.216308
G03 X46.757140 Y58.361850 Z-0.125000 I-1.511228 J3.169080
G03 X46.751813 Y59.444959 Z-0.125000 I-0.879395 J0.537243
G03 X46.345896 Y59.963027 Z-0.125000 I-2.629137 J-1.641928
G03 X46.180593 Y60.032899 Z-0.125000 I-0.165304 J-0.160603
G02 X46.010697 Y60.105749 Z-0.125000 I0.000000 J0.234535
G02 X44.555148 Y61.740885 Z-0.125000 I23.826309 J22.674868
G02 X43.225943 Y64.420503 Z-0.125000 I4.966205 J4.132929
G02 X43.776708 Y65.112899 Z-0.125000 I0.550765 J0.127145
G02 X45.682145 Y64.682706 Z-0.125000 I0.000000 J-4.434934
G02 X49.287780 Y62.490761 Z-0.125000 I-8.891295 J-18.687230
G03 X50.263503 Y62.094368 Z-0.125000 I1.225576 J1.617690
G03 X51.364244 Y62.233168 Z-0.125000 I0.277277 J2.235147
G03 X56.445862 Y66.257239 Z-0.125000 I-4.069213 J10.359207
G03 X56.045414 Y68.994914 Z-0.125000 I-1.667263 J1.154249
G03 X54.242625 Y69.474001 Z-0.125000 I-1.445052 J-1.806218
G03 X50.954082 Y68.197926 Z-0.125000 I1.279261 J-8.172206
G01 X49.635594 Y67.324595 Z-0.125000
G01 X48.790640 Y67.926257 Z-0.125000
G02 X48.091706 Y68.632503 Z-0.125000 I1.685422 J2.366943
G02 X47.624182 Y69.601011 Z-0.125000 I2.793166 J1.945432
G02 X48.673523 Y71.280664 Z-0.125000 I1.263173 J0.378456
G02 X56.307067 Y71.027910 Z-0.125000 I3.180195 J-19.351934
G03 X59.784111 Y70.896787 Z-0.125000 I2.076896 J8.907243
G03 X61.847795 Y71.886232 Z-0.125000 I-0.605738 J3.910220
G01 X63.391777 Y73.297343 Z-0.125000
G01 X69.454934 Y73.297343 Z-0.125000
G01 X75.518089 Y73.297343 Z-0.125000
G01 X77.270622 Y71.733590 Z-0.125000
G03 X79.067453 Y70.371918 Z-0.125000 I9.385357 J10.518344
G03 X79.493449 Y70.313727 Z-0.125000 I0.275995 J0.432076
G02 X82.428177 Y71.069415 Z-0.125000 I9.879468 J-32.290684
G02 X86.957123 Y71.882228 Z-0.125000 I16.010297 J-76.184605
G02 X90.481399 Y71.331641 Z-0.125000 I0.881548 J-5.911906
G02 X91.268872 Y69.756860 Z-0.125000 I-0.643886 J-1.306257
G02 X90.362479 Y67.891005 Z-0.125000 I-3.867056 J0.725454
G02 X89.184870 Y67.375813 Z-0.125000 I-1.136790 J0.994971
G02 X89.009468 Y67.426359 Z-0.125000 I0.009822 J0.363694
G02 X87.749194 Y68.224997 Z-0.125000 I12.375109 J20.921956
G03 X84.078513 Y69.520527 Z-0.125000 I-4.307774 J-6.357487
G03 X82.599443 Y68.653701 Z-0.125000 I-0.123575 J-1.484429
G03 X82.412526 Y67.965679 Z-0.125000 I2.008045 J-0.914934
G03 X82.459893 Y67.303813 Z-0.125000 I1.901337 J-0.196557
G03 X84.010001 Y64.584256 Z-0.125000 I5.647482 J1.417436
G03 X87.689408 Y62.124383 Z-0.125000 I8.191110 J8.270313
G03 X88.477426 Y62.060171 Z-0.125000 I0.491967 J1.170041
G03 X89.737684 Y62.615687 Z-0.125000 I-0.898367 J3.745345
G02 X94.636862 Y65.113027 Z-0.125000 I12.507384 J-18.482291
G02 X95.516638 Y64.711410 Z-0.125000 I0.235327 J-0.648915
G02 X95.451094 Y63.631377 Z-0.125000 I-1.219563 J-0.467993
G02 X93.501309 Y60.911443 Z-0.125000 I-11.039529 J5.854867
G03 X92.543703 Y58.670031 Z-0.125000 I2.567768 J-2.422304
G03 X93.310225 Y57.187478 Z-0.125000 I1.652943 J-0.084815
G01 X94.576144 Y56.384655 Z-0.125000
G01 X95.875086 Y57.528030 Z-0.125000
G02 X99.907136 Y60.284731 Z-0.125000 I13.249754 J-15.052506
G02 X102.350469 Y60.879566 Z-0.125000 I2.443333 J-4.720679
G02 X102.615180 Y60.404781 Z-0.125000 I0.000000 J-0.311186
G02 X100.418951 Y57.754290 Z-0.125000 I-10.613995 J6.559728
G03 X97.906441 Y54.660427 Z-0.125000 I9.101951 J-9.958779
G03 X97.838805 Y53.389049 Z-0.125000 I1.185214 J-0.700540
G03 X99.266100 Y51.529686 Z-0.125000 I4.735609 J2.157680
G03 X100.737476 Y51.001788 Z-0.125000 I1.471376 J1.786584
G03 X101.496383 Y51.326383 Z-0.125000 I-0.000000 J1.049464
G03 X105.312944 Y55.792143 Z-0.125000 I-38.437455 J36.713457
G02 X106.509238 Y57.324780 Z-0.125000 I71.060339 J-54.232649
G02 X109.173744 Y60.629043 Z-0.125000 I333.000560 J-265.800116
G03 X114.914765 Y71.223298 Z-0.125000 I-25.125459 J20.468125
G03 X115.360422 Y79.969054 Z-0.125000 I-16.302342 J5.214952
G02 X114.493910 Y86.332308 Z-0.125000 I43.414847 J9.152616
G02 X113.982303 Y101.847200 Z-0.125000 I258.719875 J16.297228
G03 X113.294761 Y107.028791 Z-0.125000 I-20.328178 J-0.060923
G03 X111.591486 Y110.804564 Z-0.125000 I-12.335810 J-3.292696
G03 X108.082813 Y114.091930 Z-0.125000 I-8.735367 J-5.807315
G03 X103.347210 Y115.542522 Z-0.125000 I-5.546026 J-9.650332
G03 X98.233875 Y115.497119 Z-0.125000 I-2.279606 J-31.225623
G03 X92.945969 Y114.597233 Z-0.125000 I3.118035 J-34.308507
G03 X91.271655 Y114.110044 Z-0.125000 I5.803352 J-23.064952
G03 X88.007080 Y112.961495 Z-0.125000 I29.454310 J-88.933156
G02 X82.936713 Y111.366673 Z-0.125000 I-17.847790 J47.885453
G02 X76.545728 Y110.001800 Z-0.125000 I-19.315133 J74.797405
G02 X64.708783 Y109.731926 Z-0.125000 I-6.840634 J40.312021
G02 X49.907080 Y113.281465 Z-0.125000 I8.257543 J67.070833
G03 X37.380240 Y115.818428 Z-0.125000 I-14.748121 J-40.626689
G03 X30.584140 Y114.275855 Z-0.125000 I-0.660388 J-12.832581
G03 X28.546703 Y112.585532 Z-0.125000 I3.266271 J-6.010089
G03 X26.020518 Y108.672742 Z-0.125000 I16.415437 J-13.370049
G03 X25.384161 Y106.464872 Z-0.125000 I5.664850 J-2.828376
G03 X24.482365 Y93.052899 Z-0.125000 I215.657509 J-21.236719
G02 X23.967528 Y84.184726 Z-0.125000 I-202.946390 J7.332915
G02 X23.488539 Y80.635121 Z-0.125000 I-32.911186 J2.633962
G03 X24.104933 Y71.327586 Z-0.125000 I18.195513 J-3.469176
G03 X30.502296 Y59.516920 Z-0.125000 I36.450807 J12.106007
G03 X37.416747 Y51.288118 Z-0.125000 I157.848799 J125.616865
G03 X38.053355 Y51.001788 Z-0.125000 I0.636608 J0.564531
G03 X38.199090 Y51.038974 Z-0.125000 I0.000000 J0.304169
G03 X38.908172 Y51.468403 Z-0.125000 I-4.426955 J8.110015
G01 X38.908172 Y51.468403 Z-0.125000
G00 Z5.000000

(End cutting path id: path11449)


(Start cutting path id: path11449)
(Change tool to Default tool)

G00 Z5.000000
G00 X31.017919 Y67.556359

G01 Z-0.125000 F100.0(Penetrate)
G02 X28.924516 Y70.941632 Z-0.125000 I8.936047 J7.865819 F400.000000
G02 X27.879652 Y75.281611 Z-0.125000 I13.873252 J5.635799
G02 X27.634074 Y83.833549 Z-0.125000 I73.600918 J6.393025
G02 X28.329075 Y90.654010 Z-0.125000 I47.418644 J-1.386291
G03 X28.428522 Y91.506001 Z-0.125000 I-7.328725 J1.287235
G03 X28.717678 Y97.286232 Z-0.125000 I-338.126880 J19.812116
G02 X29.655228 Y104.025664 Z-0.125000 I35.175978 J-1.458547
G02 X30.836958 Y106.137297 Z-0.125000 I4.330177 J-1.036809
G02 X33.102860 Y107.522808 Z-0.125000 I4.006159 J-4.006167
G02 X36.924858 Y108.102269 Z-0.125000 I3.686635 J-11.421969
G02 X39.627649 Y107.797696 Z-0.125000 I-0.152228 J-13.495478
G02 X52.305969 Y104.773204 Z-0.125000 I-65.563725 J-302.920841
G03 X63.944686 Y102.226980 Z-0.125000 I37.766484 J144.756297
G03 X69.400206 Y101.741116 Z-0.125000 I5.521942 J31.131474
G03 X74.437600 Y102.155992 Z-0.125000 I0.063036 J30.023883
G03 X84.338192 Y104.250723 Z-0.125000 I-19.940069 J118.689823
G02 X97.765063 Y107.561825 Z-0.125000 I195.332476 J-763.214831
G02 X100.232213 Y108.022561 Z-0.125000 I5.991510 J-25.247424
G02 X105.551238 Y107.632091 Z-0.125000 I1.741370 J-12.702264
G02 X108.475640 Y105.627118 Z-0.125000 I-1.581262 J-5.441603
G02 X109.505466 Y103.429667 Z-0.125000 I-4.556730 J-3.475531
G02 X110.022838 Y98.864157 Z-0.125000 I-20.025549 J-4.581402
G03 X110.091092 Y95.736892 Z-0.125000 I71.676625 J0.000000
G03 X110.292699 Y92.629566 Z-0.125000 I73.562057 J3.212585
G02 X110.528406 Y89.522890 Z-0.125000 I-151.762087 J-13.076624
G02 X110.866796 Y83.877045 Z-0.125000 I-500.838038 J-32.851327
G02 X110.047806 Y72.103024 Z-0.125000 I-47.764572 J-2.593038
G02 X107.666593 Y67.513301 Z-0.125000 I-9.010321 J1.762117
G02 X105.698932 Y66.440000 Z-0.125000 I-2.674242 J2.562346
G02 X104.667276 Y66.930387 Z-0.125000 I-0.183520 J0.944287
G02 X104.468443 Y68.773438 Z-0.125000 I2.181642 J1.167613
G02 X106.319405 Y72.753081 Z-0.125000 I13.344599 J-3.786407
G01 X108.050077 Y75.314479 Z-0.125000
G01 X108.371217 Y86.317558 Z-0.125000
G03 X107.597918 Y101.868190 Z-0.125000 I-98.771428 J2.882853
G03 X106.061426 Y104.186094 Z-0.125000 I-3.126242 J-0.404115
G03 X103.312655 Y104.954283 Z-0.125000 I-2.841336 J-4.865024
G03 X96.191525 Y104.348276 Z-0.125000 I-0.580420 J-35.322451
G03 X90.866942 Y103.153315 Z-0.125000 I14.626190 J-77.632552
G03 X81.096629 Y100.408403 Z-0.125000 I69.003446 J-264.373566
G02 X78.249122 Y99.693335 Z-0.125000 I-9.119518 J30.288152
G02 X73.784252 Y98.929093 Z-0.125000 I-14.930854 J73.804822
G01 X69.290100 Y98.298324 Z-0.125000
G01 X64.951354 Y98.933637 Z-0.125000
G02 X60.643549 Y99.710933 Z-0.125000 I9.575159 J65.391515
G02 X56.741512 Y100.697596 Z-0.125000 I11.737015 J54.626527
G03 X41.652310 Y104.436923 Z-0.125000 I-53.376365 J-183.074001
G03 X36.426310 Y104.861173 Z-0.125000 I-4.355406 J-21.251192
G03 X32.698217 Y103.987780 Z-0.125000 I0.406881 J-10.130190
G03 X31.139302 Y102.499486 Z-0.125000 I1.310090 J-2.932846
G03 X30.790302 Y101.323944 Z-0.125000 I3.095420 J-1.558560
G03 X30.418368 Y96.016232 Z-0.125000 I64.848198 J-7.211071
G03 X30.357339 Y90.654119 Z-0.125000 I150.621977 J-4.395711
G03 X30.501627 Y83.034010 Z-0.125000 I304.387532 J1.952183
G01 X30.741372 Y75.414010 Z-0.125000
G01 X32.304437 Y73.113930 Z-0.125000
G02 X34.309756 Y69.618904 Z-0.125000 I-21.953435 J-14.918884
G02 X34.654693 Y68.184848 Z-0.125000 I-3.210219 J-1.530676
G02 X34.130595 Y66.803229 Z-0.125000 I-1.943815 J-0.052855
G02 X32.836138 Y66.241788 Z-0.125000 I-1.294457 J1.211529
G02 X32.259412 Y66.428437 Z-0.125000 I0.000000 J0.984333
G02 X31.017919 Y67.556359 Z-0.125000 I4.415948 J6.107807
G01 X31.017919 Y67.556359 Z-0.125000
G00 Z5.000000

(End cutting path id: path11449)


(Start cutting path id: path11449)
(Change tool to Default tool)

G00 Z5.000000
G00 X32.440208 Y78.601820

G01 Z-0.125000 F100.0(Penetrate)
G02 X32.036046 Y80.100603 Z-0.125000 I3.027529 J1.620289 F400.000000
G02 X31.961961 Y88.363706 Z-0.125000 I156.267704 J5.532950
G02 X32.297414 Y96.459688 Z-0.125000 I169.154361 J-2.953894
G02 X32.804992 Y99.491116 Z-0.125000 I15.278886 J-1.000065
G02 X34.245720 Y101.507157 Z-0.125000 I3.447583 J-0.940938
G02 X37.041300 Y102.366232 Z-0.125000 I2.795580 J-4.119116
G02 X41.976584 Y101.870507 Z-0.125000 I0.000000 J-24.814899
G02 X49.624858 Y99.812550 Z-0.125000 I-12.583804 J-62.008130
G03 X58.054370 Y97.517160 Z-0.125000 I23.441867 J69.461272
G03 X65.604517 Y96.469416 Z-0.125000 I11.428043 J54.624219
G03 X72.977613 Y96.422287 Z-0.125000 I4.059201 J58.275304
G03 X80.245969 Y97.301351 Z-0.125000 I-3.267358 J57.503414
G03 X83.315522 Y98.013401 Z-0.125000 I-6.554922 J35.229617
G03 X88.408666 Y99.577341 Z-0.125000 I-27.515163 J98.681387
G02 X96.762160 Y101.854483 Z-0.125000 I23.852019 J-71.038421
G02 X101.580561 Y102.361810 Z-0.125000 I4.853090 J-22.957479
G02 X104.560254 Y101.518672 Z-0.125000 I0.008381 J-5.657142
G02 X105.930616 Y99.676866 Z-0.125000 I-1.632977 J-2.645686
G02 X106.405243 Y96.867832 Z-0.125000 I-14.638065 J-3.917930
G02 X106.845654 Y88.615330 Z-0.125000 I-206.815606 J-15.175127
G02 X106.942356 Y80.165845 Z-0.125000 I-192.437667 J-6.427672
G02 X106.623810 Y78.923235 Z-0.125000 I-2.693241 J0.028282
G02 X106.198985 Y79.003587 Z-0.125000 I-0.199788 J0.106924
G02 X105.780192 Y86.067899 Z-0.125000 I60.290010 J7.118740
G03 X105.654129 Y93.745447 Z-0.125000 I-246.896973 J-0.214156
G03 X105.493877 Y95.028455 Z-0.125000 I-7.011287 J-0.224220
G03 X103.850262 Y98.348156 Z-0.125000 I-7.512402 J-1.652725
G03 X101.553747 Y99.678856 Z-0.125000 I-3.013001 J-2.552815
G03 X97.429839 Y99.625594 Z-0.125000 I-1.927373 J-10.446796
G03 X85.699987 Y96.328373 Z-0.125000 I19.171669 J-90.716210
G02 X69.672702 Y93.639557 Z-0.125000 I-15.681726 J44.362905
G02 X52.305969 Y96.573627 Z-0.125000 I0.405888 J55.266249
G03 X43.910536 Y98.911781 Z-0.125000 I-25.138448 J-74.021228
G03 X39.413369 Y99.400534 Z-0.125000 I-4.511082 J-20.573560
G01 X35.834106 Y99.402792 Z-0.125000
G01 X34.961737 Y98.567524 Z-0.125000
G03 X33.881779 Y96.494002 Z-0.125000 I2.517258 J-2.629069
G03 X33.122190 Y86.656298 Z-0.125000 I64.073910 J-9.895453
G02 X33.023134 Y78.463327 Z-0.125000 I-365.848688 J0.326150
G02 X32.926057 Y78.236018 Z-0.125000 I-0.332816 J0.007752
G02 X32.763454 Y78.224485 Z-0.125000 I-0.087929 J0.087677
G02 X32.440208 Y78.601713 Z-0.125000 I0.693504 J0.921369
G01 X32.440208 Y78.601820 Z-0.125000
G00 Z5.000000

(End cutting path id: path11449)


(Start cutting path id: path11449)
(Change tool to Default tool)

G00 Z5.000000
G00 X62.748191 Y104.500027

G01 Z-0.125000 F100.0(Penetrate)
G02 X58.713774 Y105.407199 Z-0.125000 I9.993188 J53.866766 F400.000000
G02 X49.483747 Y108.013429 Z-0.125000 I75.461550 J284.896308
G03 X41.584434 Y109.929698 Z-0.125000 I-21.847551 J-72.821176
G03 X36.758674 Y110.388309 Z-0.125000 I-4.960723 J-26.580543
G03 X32.575758 Y110.095089 Z-0.125000 I-0.139772 J-27.988292
G03 X30.761452 Y109.512788 Z-0.125000 I0.834897 J-5.718945
G02 X29.227950 Y108.952911 Z-0.125000 I-2.974949 J5.768315
G02 X29.022636 Y109.116717 Z-0.125000 I-0.037312 J0.163806
G02 X29.661815 Y110.492402 Z-0.125000 I1.800009 J-0.000000
G02 X32.586507 Y112.123981 Z-0.125000 I5.658140 J-6.705391
G02 X34.276211 Y112.463673 Z-0.125000 I2.272217 J-6.930185
G02 X39.323747 Y112.663816 Z-0.125000 I5.004025 J-62.451284
G01 X44.403747 Y112.660288 Z-0.125000
G01 X50.189302 Y110.749514 Z-0.125000
G03 X58.622654 Y108.232941 Z-0.125000 I47.604285 J144.139045
G03 X63.109444 Y107.298613 Z-0.125000 I10.622416 J39.770228
G03 X71.351607 Y106.859836 Z-0.125000 I6.389269 J42.387130
G03 X79.758354 Y108.018940 Z-0.125000 I-1.958725 J45.271997
G03 X82.071154 Y108.644383 Z-0.125000 I-8.225623 J35.006139
G03 X88.225021 Y110.614157 Z-0.125000 I-76.647409 J250.055560
G01 X94.357080 Y112.660799 Z-0.125000
G01 X99.437081 Y112.664073 Z-0.125000
G02 X104.484516 Y112.463009 Z-0.125000 I0.041289 J-62.418706
G02 X106.182499 Y112.121410 Z-0.125000 I-0.588782 J-7.317525
G02 X109.114571 Y110.503991 Z-0.125000 I-2.800503 J-8.543132
G02 X109.738189 Y109.178275 Z-0.125000 I-1.097326 J-1.325716
G02 X109.529255 Y109.008083 Z-0.125000 I-0.173784 J0.000000
G02 X107.984488 Y109.540462 Z-0.125000 I1.292214 J6.256882
G03 X106.160312 Y110.106232 Z-0.125000 I-2.672152 J-5.391983
G03 X101.987257 Y110.394061 Z-0.125000 I-4.067586 J-28.578261
G03 X96.881373 Y109.896222 Z-0.125000 I0.100286 J-27.460718
G03 X88.826942 Y107.852991 Z-0.125000 I13.659413 J-70.742422
G02 X85.594057 Y106.884600 Z-0.125000 I-33.689955 J106.590238
G02 X80.669303 Y105.543019 Z-0.125000 I-69.665933 J246.024062
G02 X75.687811 Y104.561996 Z-0.125000 I-10.451837 J39.934746
G02 X70.368191 Y104.165783 Z-0.125000 I-6.038598 J45.166054
G02 X65.019384 Y104.240825 Z-0.125000 I-1.415993 J89.734429
G02 X62.748191 Y104.500027 Z-0.125000 I0.718174 J16.372759
G01 X62.748191 Y104.500027 Z-0.125000
G00 Z5.000000

(End cutting path id: path11449)


(Footer)
M5
G00 X0.0000 Y0.0000
M2
(Using default footer. To add your own footer create file "footer" in the output dir.)
(end)
%