%
(Header)
(Generated by gcodetools from Inkscape.)
(Using default header. To add your own header create file "header" in the output dir.)
M3
(Header end.)
G21 (All units in mm)

(Start cutting path id: path4188)
(Change tool to Default tool)

G00 Z5.000000
G00 X46.611890 Y7.159838

G01 Z-0.125000 F100.0(Penetrate)
G02 X44.927200 Y8.000939 Z-0.125000 I0.890751 J3.891869 F400.000000
G02 X44.483181 Y8.956860 Z-0.125000 I0.806983 J0.955920
G02 X44.717503 Y9.597509 Z-0.125000 I0.992946 J0.000000
G02 X45.985473 Y10.735791 Z-0.125000 I4.733296 J-3.997214
G03 X50.076388 Y14.123299 Z-0.125000 I-15.181588 J22.497953
G03 X57.885178 Y22.736428 Z-0.125000 I-92.335543 J91.559115
G02 X60.619964 Y26.024259 Z-0.125000 I788.736793 J-653.282308
G02 X61.068012 Y26.546704 Z-0.125000 I20.357035 J-17.004818
G03 X61.196973 Y26.921662 Z-0.125000 I-0.390830 J0.344075
G03 X61.040411 Y27.011273 Z-0.125000 I-0.107585 J-0.006392
G03 X59.799864 Y26.216431 Z-0.125000 I3.418885 J-6.701526
G03 X56.688985 Y23.578689 Z-0.125000 I35.706670 J-45.264757
G02 X52.033835 Y19.765470 Z-0.125000 I-38.711098 J42.510126
G02 X49.209622 Y18.080018 Z-0.125000 I-10.173175 J13.837685
G02 X46.185003 Y16.930797 Z-0.125000 I-8.766192 J18.516784
G02 X44.373397 Y16.668060 Z-0.125000 I-1.837785 J6.294771
G02 X43.856463 Y16.774848 Z-0.125000 I-0.005393 J1.278464
G02 X43.372391 Y17.104968 Z-0.125000 I0.630927 J1.445127
G02 X43.013060 Y17.577182 Z-0.125000 I1.559598 J1.559598
G02 X42.933242 Y17.879939 Z-0.125000 I0.534281 J0.302757
G03 X42.868934 Y18.189125 Z-0.125000 I-0.775424 J0.000000
G03 X42.674918 Y18.474085 Z-0.125000 I-0.847452 J-0.368463
G02 X42.351358 Y19.190120 Z-0.125000 I0.786543 J0.786543
G02 X42.593757 Y19.751945 Z-0.125000 I0.673188 J0.042758
G02 X42.787513 Y19.869332 Z-0.125000 I0.490524 J-0.591046
G02 X43.695174 Y20.213336 Z-0.125000 I5.448199 J-13.005756
G03 X46.452841 Y21.638770 Z-0.125000 I-3.361720 J9.883862
G03 X51.199650 Y25.642571 Z-0.125000 I-24.487826 J33.847915
G02 X55.406742 Y29.470430 Z-0.125000 I54.023395 J-55.149725
G02 X57.368810 Y30.853444 Z-0.125000 I8.873022 J-10.504783
G02 X62.208062 Y33.124929 Z-0.125000 I15.331957 J-26.373141
G02 X66.780769 Y34.301099 Z-0.125000 I8.185039 J-22.344800
G03 X68.182346 Y34.525938 Z-0.125000 I-16.138533 J105.083322
G03 X68.341001 Y34.562084 Z-0.125000 I-0.230520 J1.378099
G03 X68.624255 Y34.797463 Z-0.125000 I-0.128338 J0.442564
G03 X69.579657 Y37.022802 Z-0.125000 I-17.797010 J8.958527
G03 X69.863990 Y37.954011 Z-0.125000 I-9.474583 J3.401954
G03 X70.577039 Y40.962240 Z-0.125000 I-98.395419 J24.911571
G02 X71.802957 Y45.664989 Z-0.125000 I63.287433 J-13.986685
G02 X72.573084 Y47.590455 Z-0.125000 I11.300212 J-3.402988
G03 X72.998043 Y48.480529 Z-0.125000 I-19.126768 J9.678427
G01 X72.990829 Y48.519835 Z-0.125000
G03 X72.949334 Y48.541755 Z-0.125000 I-0.056253 J-0.056253
G03 X72.055528 Y48.696416 Z-0.125000 I-5.514964 J-29.211685
G02 X69.382579 Y49.847087 Z-0.125000 I0.912753 J5.800171
G02 X67.364032 Y52.314505 Z-0.125000 I4.302944 J5.579533
G02 X66.886128 Y53.433949 Z-0.125000 I10.119008 J4.981657
G02 X66.634366 Y54.316513 Z-0.125000 I6.024844 J2.195850
G02 X66.415063 Y56.469502 Z-0.125000 I10.129758 J2.119480
G02 X66.648082 Y58.553357 Z-0.125000 I9.715623 J-0.031458
G02 X67.456415 Y60.931882 Z-0.125000 I11.360475 J-2.534200
G02 X68.181582 Y61.847198 Z-0.125000 I2.280188 J-1.061580
G02 X69.468279 Y62.183049 Z-0.125000 I1.028454 J-1.307471
G02 X70.440898 Y61.492154 Z-0.125000 I-0.207854 J-1.322666
G02 X70.525867 Y61.231614 Z-0.125000 I-0.689472 J-0.368982
G02 X70.573886 Y60.542406 Z-0.125000 I-4.922004 J-0.689208
G03 X71.746646 Y57.254528 Z-0.125000 I5.195228 J-0.000000
G03 X75.246964 Y54.825253 Z-0.125000 I5.992548 J4.898178
G03 X76.392726 Y54.636069 Z-0.125000 I1.143745 J3.362759
G03 X77.732546 Y54.826664 Z-0.125000 I-0.002739 J4.823804
G02 X80.322815 Y55.354760 Z-0.125000 I4.550205 J-15.701820
G02 X83.877565 Y55.568739 Z-0.125000 I3.556729 J-29.452702
G02 X86.994741 Y55.420551 Z-0.125000 I0.001636 J-32.824974
G02 X91.627280 Y54.829796 Z-0.125000 I-6.974631 J-73.152177
G03 X99.235839 Y54.170810 Z-0.125000 I8.358491 J52.252770
G03 X104.608052 Y54.645818 Z-0.125000 I0.373989 J26.386918
G03 X111.545181 Y58.117160 Z-0.125000 I-2.720565 J14.104026
G03 X114.241372 Y63.395786 Z-0.125000 I-5.638769 J6.208030
G03 X114.245639 Y65.299356 Z-0.125000 I-8.710824 J0.971316
G03 X113.637509 Y69.040944 Z-0.125000 I-34.559622 J-3.696846
G02 X112.112670 Y76.417590 Z-0.125000 I310.720360 J68.075477
G02 X111.716897 Y78.920926 Z-0.125000 I35.346476 J6.871170
G03 X111.493729 Y80.649265 Z-0.125000 I-126.947321 J-15.513237
G01 X111.479156 Y80.668322 Z-0.125000
G02 X111.454621 Y80.680959 Z-0.125000 I0.070857 J0.167694
G02 X111.068311 Y80.921069 Z-0.125000 I25.975420 J42.222530
G03 X110.660621 Y81.103537 Z-0.125000 I-0.851901 J-1.356725
G03 X109.665370 Y81.325956 Z-0.125000 I-2.315561 J-8.023428
G02 X108.020953 Y81.919174 Z-0.125000 I0.741561 J4.631417
G02 X105.470836 Y83.804299 Z-0.125000 I7.851925 J13.289160
G03 X103.614240 Y85.366317 Z-0.125000 I-20.423277 J-22.390497
G03 X102.589624 Y86.037662 Z-0.125000 I-4.732763 J-6.105647
G02 X101.614488 Y86.724884 Z-0.125000 I2.533837 J4.630846
G02 X101.264390 Y87.216831 Z-0.125000 I0.898926 J1.010274
G02 X101.148115 Y87.800379 Z-0.125000 I1.406184 J0.583548
G02 X101.264390 Y88.303488 Z-0.125000 I1.146585 J-0.000000
G02 X101.756551 Y88.805761 Z-0.125000 I1.001414 J-0.488991
G02 X103.408246 Y89.404880 Z-0.125000 I3.179190 J-6.188306
G02 X105.960600 Y89.744390 Z-0.125000 I3.175935 J-14.112186
G02 X108.160002 Y89.609915 Z-0.125000 I0.456692 J-10.583963
G01 X108.741230 Y89.512983 Z-0.125000
G01 X108.407378 Y89.803658 Z-0.125000
G03 X108.070519 Y90.090786 Z-0.125000 I-13.819127 J-15.871456
G03 X106.673783 Y91.250123 Z-0.125000 I-226.822112 J-271.847745
G02 X105.291754 Y92.426218 Z-0.125000 I38.916898 J47.131290
G02 X103.664498 Y93.889013 Z-0.125000 I58.595026 J66.819292
G01 X102.054957 Y95.372119 Z-0.125000
G01 X101.071170 Y94.847545 Z-0.125000
G02 X96.092851 Y93.652086 Z-0.125000 I-4.789733 J8.982688
G02 X92.676930 Y95.003077 Z-0.125000 I0.097080 J5.239460
G02 X92.255147 Y95.534024 Z-0.125000 I1.385732 J1.533826
G02 X92.143928 Y95.963719 Z-0.125000 I0.774451 J0.429695
G02 X92.420186 Y96.707584 Z-0.125000 I1.139608 J0.000000
G02 X93.055759 Y97.022013 Z-0.125000 I0.689436 J-0.594019
G02 X93.364451 Y96.993217 Z-0.125000 I0.060479 J-1.020628
G02 X94.404260 Y96.684529 Z-0.125000 I-3.037292 J-12.136697
G03 X95.451689 Y96.432539 Z-0.125000 I1.834197 J5.321190
G03 X96.470852 Y96.392787 Z-0.125000 I0.705195 J4.995346
G03 X98.182397 Y96.722078 Z-0.125000 I-0.425569 J6.824640
G03 X99.504811 Y97.391030 Z-0.125000 I-1.545068 J4.695938
G01 X99.892613 Y97.667168 Z-0.125000
G01 X99.004634 Y98.693068 Z-0.125000
G02 X98.140438 Y99.738015 Z-0.125000 I22.832315 J19.762692
G02 X96.970851 Y101.267818 Z-0.125000 I47.792383 J37.750943
G01 X95.825042 Y102.816668 Z-0.125000
G01 X95.088716 Y102.816727 Z-0.125000
G02 X91.548558 Y103.853036 Z-0.125000 I0.000665 J6.567234
G02 X88.978577 Y106.728428 Z-0.125000 I3.870049 J6.045191
G01 X88.483666 Y107.733927 Z-0.125000
G01 X88.744476 Y108.084628 Z-0.125000
G02 X89.055184 Y108.344639 Z-0.125000 I0.699428 J-0.520150
G02 X89.526607 Y108.474329 Z-0.125000 I0.566123 J-1.136207
G02 X89.985772 Y108.362123 Z-0.125000 I0.057020 J-0.762259
G02 X90.728425 Y107.730941 Z-0.125000 I-1.710757 J-2.765384
G03 X91.449716 Y106.995030 Z-0.125000 I6.537143 J5.685829
G03 X92.095552 Y106.492801 Z-0.125000 I3.666152 J4.048087
G03 X93.641042 Y105.655753 Z-0.125000 I5.430423 J8.181214
G03 X93.916218 Y105.708480 Z-0.125000 I0.098726 J0.229177
G03 X93.928260 Y105.767924 Z-0.125000 I-0.038802 J0.038802
G03 X93.587923 Y106.517120 Z-0.125000 I-9.358524 J-3.799391
G02 X92.073747 Y111.218974 Z-0.125000 I14.230433 J7.177481
G02 X92.301329 Y114.699682 Z-0.125000 I7.851012 J1.234466
G02 X92.924336 Y115.506312 Z-0.125000 I1.347913 J-0.397165
G02 X93.789831 Y115.596034 Z-0.125000 I0.528354 J-0.877398
G02 X94.139984 Y115.273518 Z-0.125000 I-0.197060 J-0.565284
G02 X94.731860 Y113.472642 Z-0.125000 I-8.676899 J-3.849454
G03 X95.053332 Y112.191296 Z-0.125000 I22.803158 J5.039990
G03 X95.403733 Y111.083148 Z-0.125000 I17.400113 J4.892514
G03 X96.683119 Y107.865171 Z-0.125000 I40.841757 J14.374337
G03 X97.287306 Y106.847278 Z-0.125000 I4.622495 J2.055498
G01 X97.514035 Y106.550843 Z-0.125000
G01 X98.006313 Y107.041021 Z-0.125000
G03 X98.728000 Y108.066634 Z-0.125000 I-2.550378 J2.561327
G03 X99.597470 Y110.431215 Z-0.125000 I-13.205579 J6.197916
G02 X100.384678 Y112.600494 Z-0.125000 I13.557316 J-3.692326
G02 X100.809366 Y113.071458 Z-0.125000 I0.964373 J-0.442657
G02 X101.987696 Y113.101155 Z-0.125000 I0.615813 J-1.042485
G02 X102.924571 Y111.961723 Z-0.125000 I-0.881035 J-1.679293
G02 X102.780156 Y108.350385 Z-0.125000 I-5.367333 J-1.593921
G02 X100.084803 Y104.609814 Z-0.125000 I-8.499244 J3.282940
G02 X99.458437 Y104.112112 Z-0.125000 I-13.293624 J16.087224
G02 X99.277808 Y103.993452 Z-0.125000 I-0.924127 J1.209936
G03 X99.231424 Y103.856167 Z-0.125000 I0.052780 J-0.094312
G03 X99.670140 Y103.088129 Z-0.125000 I3.694651 J1.601126
G03 X101.882590 Y100.227183 Z-0.125000 I50.041312 J36.412419
G03 X102.116239 Y100.109160 Z-0.125000 I0.250558 J0.205739
G03 X102.352023 Y100.238544 Z-0.125000 I0.013346 J0.255214
G03 X103.065787 Y101.787725 Z-0.125000 I-8.947248 J5.061338
G03 X103.199336 Y102.378682 Z-0.125000 I-2.257836 J0.820814
G03 X103.301262 Y104.237566 Z-0.125000 I-22.579256 J2.170290
G02 X103.652077 Y106.523552 Z-0.125000 I8.372402 J-0.114946
G02 X104.173862 Y107.152953 Z-0.125000 I1.002409 J-0.300030
G02 X105.235048 Y107.123542 Z-0.125000 I0.503989 J-0.974604
G02 X106.490110 Y105.787511 Z-0.125000 I-1.661316 J-2.818150
G02 X106.702086 Y105.184098 Z-0.125000 I-2.160180 J-1.097800
G02 X106.840054 Y104.108404 Z-0.125000 I-6.820654 J-1.421511
G02 X106.524644 Y101.776712 Z-0.125000 I-6.418251 J-0.318975
G02 X105.049566 Y98.679400 Z-0.125000 I-12.973573 J4.278687
G01 X104.360052 Y97.604509 Z-0.125000
G01 X107.349429 Y94.678708 Z-0.125000
G03 X110.351615 Y91.766393 Z-0.125000 I328.937060 J336.084204
G03 X111.646203 Y90.547483 Z-0.125000 I58.920825 J61.282041
G01 X112.953603 Y89.342063 Z-0.125000
G01 X112.243967 Y90.686914 Z-0.125000
G02 X111.024802 Y93.842469 Z-0.125000 I12.831509 J6.770812
G02 X110.400878 Y97.850076 Z-0.125000 I20.197240 J5.196778
G01 X110.319025 Y99.283195 Z-0.125000
G01 X109.723872 Y99.556501 Z-0.125000
G02 X108.504911 Y100.396253 Z-0.125000 I1.796806 J3.912776
G02 X107.616490 Y101.624617 Z-0.125000 I3.163208 J3.223266
G02 X107.314793 Y102.516955 Z-0.125000 I3.222683 J1.586752
G02 X107.191289 Y103.782658 Z-0.125000 I6.423859 J1.265703
G02 X107.982909 Y106.922059 Z-0.125000 I6.620912 J0.000000
G02 X109.007160 Y107.154395 Z-0.125000 I0.613413 J-0.330357
G02 X109.155331 Y106.916404 Z-0.125000 I-0.221033 J-0.302734
G02 X109.329918 Y105.313838 Z-0.125000 I-12.207699 J-2.140722
G03 X109.724771 Y103.032962 Z-0.125000 I9.059684 J0.393749
G03 X110.219059 Y102.433334 Z-0.125000 I0.976521 J0.301428
G03 X110.382255 Y102.468211 Z-0.125000 I0.060975 J0.113934
G03 X110.540369 Y102.848790 Z-0.125000 I-0.623400 J0.482130
G03 X110.904739 Y106.084826 Z-0.125000 I-94.504512 J12.279510
G03 X111.157225 Y109.319852 Z-0.125000 I-94.185076 J8.978289
G01 X111.195308 Y109.946053 Z-0.125000
G01 X110.226594 Y110.229299 Z-0.125000
G02 X108.698502 Y110.874437 Z-0.125000 I2.028036 J6.935969
G02 X107.528115 Y111.754719 Z-0.125000 I2.772074 J4.903830
G02 X105.871336 Y114.152172 Z-0.125000 I5.375153 J5.485733
G02 X105.318442 Y116.786083 Z-0.125000 I5.997347 J2.633911
G02 X105.618730 Y117.499278 Z-0.125000 I0.997075 J-0.000000
G02 X106.355789 Y117.799566 Z-0.125000 I0.737060 J-0.754415
G02 X106.938858 Y117.545300 Z-0.125000 I0.000000 J-0.795663
G02 X107.642201 Y116.414134 Z-0.125000 I-2.556682 J-2.373955
G03 X109.252321 Y113.880554 Z-0.125000 I6.993656 J2.666136
G03 X110.887804 Y113.053793 Z-0.125000 I2.006290 J1.937786
G01 X111.419776 Y112.982442 Z-0.125000
G01 X111.325968 Y114.454581 Z-0.125000
G03 X110.671640 Y118.613184 Z-0.125000 I-22.759583 J-1.450288
G03 X109.428775 Y121.931618 Z-0.125000 I-15.662210 J-3.974061
G02 X108.591819 Y123.684749 Z-0.125000 I37.983435 J19.209881
G02 X108.547488 Y123.891426 Z-0.125000 I0.459609 J0.206677
G02 X108.846132 Y124.604829 Z-0.125000 I1.001412 J0.000000
G02 X109.574847 Y124.903472 Z-0.125000 I0.728715 J-0.739743
G02 X110.037546 Y124.759517 Z-0.125000 I-0.000000 J-0.815577
G02 X111.432990 Y123.623346 Z-0.125000 I-6.380760 J-9.261870
G02 X113.527067 Y120.659680 Z-0.125000 I-6.565919 J-6.861023
G02 X114.784889 Y116.175360 Z-0.125000 I-14.264787 J-6.419745
G01 X114.944726 Y114.893425 Z-0.125000
G01 X115.620459 Y115.870360 Z-0.125000
G02 X116.840577 Y117.118819 Z-0.125000 I4.273019 J-2.955577
G02 X117.743504 Y117.412081 Z-0.125000 I0.902927 J-1.243387
G02 X118.825523 Y116.576013 Z-0.125000 I0.000000 J-1.118196
G02 X118.606695 Y114.101586 Z-0.125000 I-3.570923 J-0.931092
G02 X117.517108 Y112.555024 Z-0.125000 I-4.740070 J2.182384
G02 X115.520372 Y111.080208 Z-0.125000 I-6.284970 J6.420059
G01 X114.682680 Y110.625201 Z-0.125000
G01 X114.280556 Y107.322204 Z-0.125000
G03 X113.890016 Y104.018022 Z-0.125000 I471.841979 J-57.444749
G03 X113.817135 Y103.280088 Z-0.125000 I23.454300 J-2.688991
G01 X113.755842 Y102.540968 Z-0.125000
G01 X114.090098 Y102.623241 Z-0.125000
G03 X114.975619 Y102.978395 Z-0.125000 I-0.816517 J3.317390
G03 X116.783895 Y104.171038 Z-0.125000 I-8.773645 J15.269701
G03 X118.558428 Y105.818528 Z-0.125000 I-7.028341 J9.349755
G03 X121.031802 Y109.025952 Z-0.125000 I-24.630057 J21.550599
G02 X122.495611 Y111.123522 Z-0.125000 I74.012982 J-50.091074
G02 X122.724687 Y111.379284 Z-0.125000 I1.307211 J-0.940349
G02 X123.448818 Y111.702908 Z-0.125000 I0.861575 J-0.955874
G02 X124.283062 Y111.546684 Z-0.125000 I0.157384 J-1.465125
G02 X124.852035 Y110.921092 Z-0.125000 I-0.557985 J-1.079020
G02 X125.041762 Y109.660988 Z-0.125000 I-2.559096 J-1.029645
G02 X123.065688 Y104.958064 Z-0.125000 I-8.225541 J0.689591
G02 X116.896423 Y100.221228 Z-0.125000 I-14.528942 J12.536675
G02 X115.566125 Y99.644364 Z-0.125000 I-7.599230 J15.702159
G02 X114.618099 Y99.343864 Z-0.125000 I-2.948992 J7.657874
G01 X113.649385 Y99.100295 Z-0.125000
G01 X113.687736 Y98.278433 Z-0.125000
G03 X114.376438 Y93.817028 Z-0.125000 I21.205377 J0.989587
G03 X115.810663 Y90.288081 Z-0.125000 I14.608830 J3.881361
G03 X116.213964 Y89.580189 Z-0.125000 I64.624768 J36.349273
G03 X116.248771 Y89.528821 Z-0.125000 I0.372622 J0.215011
G03 X116.297434 Y89.509720 Z-0.125000 I0.040675 J0.032087
G03 X116.860815 Y89.624362 Z-0.125000 I-0.965521 J6.186460
G02 X118.244842 Y89.874387 Z-0.125000 I2.528906 J-10.043210
G02 X121.677287 Y90.160079 Z-0.125000 I6.866298 J-61.732678
G03 X124.107683 Y90.336512 Z-0.125000 I-3.926553 J70.916549
G03 X126.307250 Y90.576142 Z-0.125000 I-5.241086 J58.322787
G02 X131.485732 Y90.924870 Z-0.125000 I5.483569 J-42.805298
G02 X133.723734 Y90.628573 Z-0.125000 I0.057719 J-8.164263
G02 X136.396546 Y89.358142 Z-0.125000 I-2.290521 J-8.265774
G02 X137.744652 Y87.775648 Z-0.125000 I-2.449188 J-3.451895
G02 X138.040811 Y86.908143 Z-0.125000 I-3.209249 J-1.579914
G02 X138.093592 Y86.058696 Z-0.125000 I-3.021813 J-0.614127
G02 X137.968025 Y85.199338 Z-0.125000 I-6.307101 J0.482725
G02 X137.741410 Y84.436573 Z-0.125000 I-5.189034 J1.126599
G02 X135.633311 Y81.104771 Z-0.125000 I-9.257671 J3.524699
G02 X130.296331 Y76.673263 Z-0.125000 I-22.132493 J21.225247
G03 X129.013463 Y75.365933 Z-0.125000 I2.348651 J-3.587802
G03 X128.769097 Y74.241230 Z-0.125000 I1.433909 J-0.900447
G03 X129.316788 Y71.225146 Z-0.125000 I32.475622 J4.339489
G03 X131.722767 Y61.420396 Z-0.125000 I346.307335 J79.782462
G02 X132.900820 Y56.248686 Z-0.125000 I-83.145235 J-21.659514
G02 X133.357195 Y53.061474 Z-0.125000 I-31.070486 J-6.075238
G02 X133.396238 Y50.020621 Z-0.125000 I-19.306380 J-1.768563
G02 X133.022087 Y47.965887 Z-0.125000 I-9.124689 J0.600103
G03 X132.842109 Y47.340270 Z-0.125000 I21.540780 J-6.535570
G03 X132.831324 Y47.264796 Z-0.125000 I0.298053 J-0.081097
G01 X132.868095 Y47.223632 Z-0.125000
G03 X134.541323 Y47.105933 Z-0.125000 I3.463265 J37.282101
G02 X141.125046 Y45.945270 Z-0.125000 I-1.264923 J-26.428162
G02 X144.142898 Y44.123473 Z-0.125000 I-2.182255 J-7.025432
G02 X145.207589 Y40.378992 Z-0.125000 I-2.824920 J-2.826832
G02 X141.641633 Y33.521409 Z-0.125000 I-15.333591 J3.617552
G02 X131.617947 Y24.899798 Z-0.125000 I-37.208387 J33.121650
G02 X123.271947 Y21.558415 Z-0.125000 I-12.568649 J19.299693
G02 X120.646427 Y21.349855 Z-0.125000 I-2.301163 J12.338506
G02 X118.443616 Y21.683236 Z-0.125000 I0.232084 J8.977691
G02 X116.042520 Y22.899097 Z-0.125000 I1.890847 J6.712853
G02 X115.523197 Y23.963442 Z-0.125000 I0.831020 J1.064345
G02 X115.747262 Y24.900352 Z-0.125000 I2.070841 J-0.000000
G02 X116.269127 Y25.433781 Z-0.125000 I1.108257 J-0.562243
G02 X116.524020 Y25.536419 Z-0.125000 I0.598230 J-1.117827
G02 X118.585232 Y26.085341 Z-0.125000 I20.690452 J-73.548555
G03 X127.479871 Y29.248102 Z-0.125000 I-12.091158 J48.092579
G03 X131.735915 Y32.227756 Z-0.125000 I-6.356250 J13.608497
G03 X133.676993 Y34.428977 Z-0.125000 I-16.339327 J16.364775
G03 X133.863222 Y34.973397 Z-0.125000 I-0.702664 J0.544420
G01 X133.807785 Y35.017315 Z-0.125000
G03 X130.860208 Y34.267562 Z-0.125000 I19.090379 J-81.220816
G02 X116.302087 Y30.868377 Z-0.125000 I-52.069756 J190.131178
G02 X105.899670 Y29.429505 Z-0.125000 I-18.509795 J95.495901
G02 X98.479598 Y29.139586 Z-0.125000 I-6.973414 J83.376375
G02 X93.569127 Y29.495334 Z-0.125000 I0.196343 J36.778186
G02 X88.870019 Y30.487007 Z-0.125000 I4.858569 J34.652001
G02 X85.753465 Y31.714552 Z-0.125000 I4.649234 J16.373721
G01 X84.448538 Y32.383619 Z-0.125000
G01 X83.953949 Y31.815057 Z-0.125000
G02 X81.278901 Y29.766924 Z-0.125000 I-6.352624 J5.526113
G02 X74.552026 Y27.250075 Z-0.125000 I-16.713376 J34.422449
G03 X68.103455 Y24.865318 Z-0.125000 I9.962456 J-36.850355
G03 X64.879796 Y22.644578 Z-0.125000 I5.319888 J-11.172557
G03 X63.797514 Y21.431054 Z-0.125000 I6.986068 J-7.319909
G03 X59.963849 Y16.149149 Z-0.125000 I129.983711 J-98.375818
G02 X54.115902 Y9.421466 Z-0.125000 I-34.026621 J23.671711
G02 X50.424631 Y7.306819 Z-0.125000 I-6.417576 J6.923336
G02 X48.493912 Y6.983833 Z-0.125000 I-2.227856 J7.385342
G02 X46.611893 Y7.159810 Z-0.125000 I-0.277094 J7.188363
G01 X46.611890 Y7.159838 Z-0.125000
G00 Z5.000000

(End cutting path id: path4188)


(Start cutting path id: path4215)
(Change tool to Default tool)

G00 Z5.000000
G00 X46.336729 Y69.982090

G01 Z-0.125000 F100.0(Penetrate)
G01 X46.336729 Y70.300877 Z-0.125000 F400.000000
G03 X49.747357 Y73.928782 Z-0.125000 I-405.803197 J384.916520
G03 X51.052107 Y75.361604 Z-0.125000 I-61.980181 J57.750584
G02 X51.653676 Y76.625795 Z-0.125000 I2.610260 J-0.466877
G02 X52.460079 Y76.995383 Z-0.125000 I0.806403 J-0.694949
G02 X52.730647 Y76.959927 Z-0.125000 I-0.000000 J-1.050099
G02 X53.057803 Y76.835992 Z-0.125000 I-0.444714 J-1.667705
G01 X53.137500 Y76.583618 Z-0.125000
G03 X53.101338 Y76.421471 Z-0.125000 I0.771501 J-0.257167
G03 X53.084369 Y76.132006 Z-0.125000 I2.460436 J-0.289465
G03 X53.108699 Y75.882849 Z-0.125000 I1.287927 J-0.000000
G03 X53.270325 Y75.188929 Z-0.125000 I10.235408 J2.018222
G02 X53.461121 Y74.509303 Z-0.125000 I-27.389316 J-8.055755
G02 X53.575831 Y74.046612 Z-0.125000 I-12.577556 J-3.363789
G02 X53.652744 Y73.578405 Z-0.125000 I-3.738997 J-0.854631
G02 X53.682093 Y72.997276 Z-0.125000 I-5.738620 J-0.581128
G02 X53.582650 Y72.143742 Z-0.125000 I-3.712727 J-0.000000
G02 X53.283609 Y71.310366 Z-0.125000 I-3.836090 J0.906165
G02 X52.820234 Y70.560611 Z-0.125000 I-4.389172 J2.194594
G02 X52.128008 Y69.769566 Z-0.125000 I-5.583738 J4.187806
G02 X51.334236 Y69.085283 Z-0.125000 I-6.490478 J6.726471
G02 X50.175445 Y68.268615 Z-0.125000 I-10.424060 J13.560492
G03 X50.654829 Y68.203495 Z-0.125000 I1.319782 J7.918644
G03 X50.932563 Y68.188918 Z-0.125000 I0.277734 J2.638463
G03 X51.464974 Y68.248658 Z-0.125000 I-0.000000 J2.402342
G03 X52.101446 Y68.454574 Z-0.125000 I-0.830061 J3.652261
G03 X52.721458 Y68.764938 Z-0.125000 I-2.688926 J6.146120
G03 X53.389872 Y69.185126 Z-0.125000 I-4.290409 J7.566712
G03 X54.041914 Y69.665841 Z-0.125000 I-9.458055 J13.511490
G03 X54.930670 Y70.380574 Z-0.125000 I-20.038957 J25.827955
G01 X54.930670 Y69.490628 Z-0.125000
G02 X53.170450 Y67.905636 Z-0.125000 I-20.448321 J20.939064
G02 X51.888921 Y66.966904 Z-0.125000 I-8.405565 J10.130908
G02 X50.499721 Y66.280994 Z-0.125000 I-3.912596 J6.174580
G02 X49.577721 Y66.116808 Z-0.125000 I-0.922000 J2.506689
G02 X48.432929 Y66.367372 Z-0.125000 I0.000000 J2.740488
G02 X47.266522 Y67.179429 Z-0.125000 I1.683798 J3.662262
G02 X46.722222 Y67.862861 Z-0.125000 I3.055986 J2.992313
G02 X46.482838 Y68.401443 Z-0.125000 I1.638380 J1.050701
G02 X46.382415 Y68.991507 Z-0.125000 I3.803868 J0.950962
G02 X46.336729 Y69.982090 Z-0.125000 I10.716389 J0.990584
G01 X46.336729 Y69.982090 Z-0.125000
G00 Z5.000000

(End cutting path id: path4215)


(Start cutting path id: path4213)
(Change tool to Default tool)

G00 Z5.000000
G00 X46.469557 Y70.354008

G01 Z-0.125000 F100.0(Penetrate)
G01 X46.469557 Y69.384366 Z-0.125000 F400.000000
G02 X45.104111 Y67.801724 Z-0.125000 I-15.909416 J12.345725
G02 X44.065377 Y66.873926 Z-0.125000 I-6.457037 J6.183729
G02 X42.898238 Y66.191273 Z-0.125000 I-3.557770 J4.743689
G02 X42.165945 Y66.037112 Z-0.125000 I-0.732293 J1.662186
G02 X41.259944 Y66.324344 Z-0.125000 I0.000000 J1.572491
G02 X40.545447 Y67.179429 Z-0.125000 I1.245332 J1.766635
G02 X40.153434 Y68.352555 Z-0.125000 I4.979334 J2.315963
G02 X40.014139 Y69.676587 Z-0.125000 I6.222971 J1.324032
G02 X40.041890 Y70.191484 Z-0.125000 I4.790527 J0.000000
G02 X40.120401 Y70.659511 Z-0.125000 I4.034185 J-0.436129
G02 X40.248206 Y71.130252 Z-0.125000 I5.128775 J-1.139734
G02 X40.372772 Y71.443194 Z-0.125000 I2.384542 J-0.767900
G02 X40.529525 Y71.742914 Z-0.125000 I4.265793 J-2.040151
G02 X40.917365 Y72.399552 Z-0.125000 I20.889238 J-11.895265
G02 X43.065541 Y74.855226 Z-0.125000 I9.332444 J-5.996414
G02 X44.370882 Y75.335039 Z-0.125000 I1.305341 J-1.535696
G02 X44.975289 Y75.129200 Z-0.125000 I-0.000000 J-0.990283
G02 X45.181128 Y74.710752 Z-0.125000 I-0.322410 J-0.418448
G02 X45.103350 Y74.306882 Z-0.125000 I-1.087455 J0.000000
G02 X44.649819 Y73.382476 Z-0.125000 I-6.328190 J2.531268
G02 X44.089007 Y72.513126 Z-0.125000 I-8.601535 J4.933235
G02 X43.720027 Y72.094049 Z-0.125000 I-2.342258 J1.690290
G03 X42.582478 Y70.961671 Z-0.125000 I36.519663 J-37.823986
G03 X42.205792 Y70.539965 Z-0.125000 I4.673402 J-4.553567
G03 X41.949215 Y70.070864 Z-0.125000 I1.264810 J-0.996512
G03 X41.860442 Y69.543760 Z-0.125000 I1.520500 J-0.527105
G03 X41.954053 Y69.107617 Z-0.125000 I1.062817 J0.000000
G03 X42.219076 Y68.746795 Z-0.125000 I0.976249 J0.439312
G03 X42.611746 Y68.517529 Z-0.125000 I0.767192 J0.863088
G03 X43.148868 Y68.428008 Z-0.125000 I0.537123 J1.566603
G03 X43.746282 Y68.524062 Z-0.125000 I0.000000 J1.905859
G03 X44.516991 Y68.879623 Z-0.125000 I-1.175506 J3.561081
G03 X45.249102 Y69.379109 Z-0.125000 I-4.828424 J7.863442
G03 X46.469557 Y70.354008 Z-0.125000 I-17.272878 J22.874909
G01 X46.469557 Y70.354008 Z-0.125000
G00 Z5.000000

(End cutting path id: path4213)


(Start cutting path id: path4215)
(Change tool to Default tool)

G00 Z5.000000
G00 X51.291197 Y72.014353

G01 Z-0.125000 F100.0(Penetrate)
G01 X51.052107 Y73.953634 Z-0.125000 F400.000000
G02 X50.204704 Y73.046536 Z-0.125000 I-17.521298 J15.518858
G02 X47.532177 Y70.380574 Z-0.125000 I-154.193122 J151.900281
G02 X48.291404 Y70.138716 Z-0.125000 I-0.889172 J-4.103821
G02 X48.621363 Y69.915678 Z-0.125000 I-0.411812 J-0.964816
G02 X48.888570 Y69.603412 Z-0.125000 I-1.874311 J-1.874311
G02 X49.444893 Y68.786642 Z-0.125000 I-12.381908 J-9.031490
G03 X50.275588 Y69.252219 Z-0.125000 I-1.511419 J3.670578
G03 X50.826301 Y69.796131 Z-0.125000 I-1.547411 J2.117512
G03 X51.172119 Y70.495798 Z-0.125000 I-1.668823 J1.260131
G03 X51.317762 Y71.562738 Z-0.125000 I-3.835218 J1.066940
G03 X51.314079 Y71.695336 Z-0.125000 I-2.388681 J-0.000000
G03 X51.304470 Y71.801828 Z-0.125000 I-1.549639 J-0.086155
G03 X51.301156 Y71.907884 Z-0.125000 I-1.698946 J-0.000000
G03 X51.291177 Y72.014353 Z-0.125000 I-1.722193 J-0.107717
G01 X51.291197 Y72.014353 Z-0.125000
G00 Z5.000000

(End cutting path id: path4215)


(Start cutting path id: path4213)
(Change tool to Default tool)

G00 Z5.000000
G00 X45.566330 Y76.291399

G01 Z-0.125000 F100.0(Penetrate)
G02 X45.255573 Y76.350666 Z-0.125000 I0.000000 J0.844342 F400.000000
G02 X44.928756 Y76.543771 Z-0.125000 I0.447427 J1.130348
G02 X44.712970 Y76.831125 Z-0.125000 I0.552138 J0.639321
G02 X44.636535 Y77.181342 Z-0.125000 I0.764106 J0.350217
G02 X44.748604 Y77.727333 Z-0.125000 I1.386045 J0.000000
G02 X45.194412 Y78.483053 Z-0.125000 I3.157027 J-1.353015
G02 X45.825436 Y79.050756 Z-0.125000 I1.901221 J-1.478726
G02 X46.350011 Y79.200320 Z-0.125000 I0.524574 J-0.845148
G02 X46.721279 Y79.132158 Z-0.125000 I-0.000000 J-1.045189
G02 X47.014150 Y78.947949 Z-0.125000 I-0.311912 J-0.820827
G02 X47.201377 Y78.673931 Z-0.125000 I-0.469740 J-0.521928
G02 X47.279803 Y78.243962 Z-0.125000 I-1.139426 J-0.429968
G02 X47.169701 Y77.710989 Z-0.125000 I-1.345040 J0.000000
G02 X46.735210 Y76.982102 Z-0.125000 I-3.002288 J1.295725
G02 X46.117537 Y76.442085 Z-0.125000 I-1.753964 J1.382935
G02 X45.566330 Y76.291399 Z-0.125000 I-0.551206 J0.932810
G01 X45.566330 Y76.291399 Z-0.125000
G00 Z5.000000

(End cutting path id: path4213)


(Start cutting path id: path4217)
(Change tool to Default tool)

G00 Z5.000000
G00 X59.553069 Y77.247757

G01 Z-0.125000 F100.0(Penetrate)
G01 X60.124227 Y77.247757 Z-0.125000 F400.000000
G02 X60.892329 Y78.458665 Z-0.125000 I11.109986 J-6.198211
G02 X61.399372 Y79.027646 Z-0.125000 I2.921251 J-2.092839
G02 X62.022860 Y79.425871 Z-0.125000 I1.400558 J-1.505605
G02 X62.701083 Y79.558954 Z-0.125000 I0.678223 J-1.661652
G02 X63.301562 Y79.428885 Z-0.125000 I0.000000 J-1.451123
G02 X63.431632 Y79.226886 Z-0.125000 I-0.091818 J-0.201999
G02 X63.388304 Y79.082859 Z-0.125000 I-0.261044 J-0.000000
G02 X62.860474 Y78.363509 Z-0.125000 I-7.661660 J5.068495
G03 X62.308141 Y77.646224 Z-0.125000 I13.838538 J-11.227432
G03 X61.997096 Y77.181342 Z-0.125000 I5.493598 J-4.012163
G03 X62.448734 Y77.128430 Z-0.125000 I54.820677 J465.972106
G03 X62.794061 Y77.088364 Z-0.125000 I31.777395 J272.381173
G02 X63.152523 Y77.047112 Z-0.125000 I-5.088612 J-45.795703
G02 X63.351938 Y77.021949 Z-0.125000 I-1.690194 J-14.197331
G02 X62.534954 Y75.652883 Z-0.125000 I-15.731528 J8.459425
G02 X61.452504 Y74.139593 Z-0.125000 I-20.312496 J13.385670
G03 X61.080498 Y74.164747 Z-0.125000 I-3.520387 J-49.301131
G03 X60.828214 Y74.179440 Z-0.125000 I-1.446306 J-22.659552
G03 X60.575567 Y74.202446 Z-0.125000 I-0.945879 J-8.988663
G03 X60.310187 Y74.219290 Z-0.125000 I-0.761635 J-9.900882
G03 X60.057592 Y74.243326 Z-0.125000 I-1.331260 J-12.650930
G03 X59.685897 Y74.272418 Z-0.125000 I-2.328907 J-27.366051
G03 X58.984777 Y73.107491 Z-0.125000 I42.132122 J-26.150965
G03 X58.477167 Y72.200309 Z-0.125000 I25.038979 J-14.606060
G03 X58.029774 Y71.283621 Z-0.125000 I13.721768 J-7.264488
G03 X57.733331 Y70.539965 Z-0.125000 I8.727792 J-3.910061
G03 X57.539267 Y69.773388 Z-0.125000 I5.086902 J-1.695634
G03 X57.480960 Y69.105429 Z-0.125000 I3.796825 J-0.667959
G03 X57.718467 Y68.426425 Z-0.125000 I1.089349 J-0.000000
G03 X58.211511 Y68.188918 Z-0.125000 I0.493045 J0.393007
G03 X58.688562 Y68.281650 Z-0.125000 I-0.000000 J1.273429
G03 X59.526503 Y68.720229 Z-0.125000 I-1.806786 J4.471782
G03 X60.331295 Y69.290296 Z-0.125000 I-8.493507 J12.843830
G03 X61.718159 Y70.380574 Z-0.125000 I-29.750388 J39.270536
G01 X61.718159 Y69.490628 Z-0.125000
G02 X57.916581 Y66.089802 Z-0.125000 I-19.482727 J17.953369
G02 X56.418339 Y65.598781 Z-0.125000 I-1.498242 J2.040269
G02 X55.879491 Y65.721281 Z-0.125000 I-0.000000 J1.246384
G02 X55.448697 Y66.063677 Z-0.125000 I0.534359 J1.114521
G02 X55.192176 Y66.563383 Z-0.125000 I1.223223 J0.943628
G02 X55.090063 Y67.259126 Z-0.125000 I2.319145 J0.695742
G02 X55.131149 Y67.744671 Z-0.125000 I2.889589 J-0.000000
G02 X55.289306 Y68.428008 Z-0.125000 I5.901911 J-1.006017
G02 X55.516827 Y69.100171 Z-0.125000 I15.123948 J-4.744715
G02 X56.033140 Y70.473552 Z-0.125000 I63.682353 J-23.157195
G03 X55.848647 Y70.312510 Z-0.125000 I8.845348 J-10.319572
G03 X55.674506 Y70.154765 Z-0.125000 I8.312633 J-9.351675
G02 X55.514969 Y70.008813 Z-0.125000 I-74.250244 J81.001051
G02 X55.369003 Y69.875828 Z-0.125000 I-61.788735 J67.673405
G03 X55.236476 Y69.755953 Z-0.125000 I23.880730 J-26.534458
G03 X55.076782 Y69.610172 Z-0.125000 I35.158282 J-38.674111
G03 X54.919033 Y69.475463 Z-0.125000 I5.512964 J-6.615556
G03 X54.757995 Y69.331235 Z-0.125000 I6.158782 J-7.038644
G01 X54.757995 Y70.247746 Z-0.125000
G03 X56.027492 Y71.529395 Z-0.125000 I-6.264403 J7.474568
G03 X58.131815 Y74.352115 Z-0.125000 I-28.697777 J23.589772
G03 X57.932472 Y74.362325 Z-0.125000 I-0.430137 J-6.447213
G03 X57.759897 Y74.365408 Z-0.125000 I-0.172575 J-4.828508
G03 X57.587074 Y74.374845 Z-0.125000 I-0.298163 J-3.873211
G03 X57.348132 Y74.378700 Z-0.125000 I-0.238942 J-7.401673
G03 X56.569232 Y74.343369 Z-0.125000 I-0.000000 J-8.603201
G03 X56.179249 Y74.272438 Z-0.125000 I0.201304 J-2.214340
G03 X56.021069 Y74.228626 Z-0.125000 I0.788857 J-3.155539
G03 X55.873746 Y74.179460 Z-0.125000 I0.847926 J-2.786073
G02 X55.740105 Y74.145155 Z-0.125000 I-0.493472 J1.644965
G02 X55.687787 Y74.139613 Z-0.125000 I-0.052318 J0.244158
G01 X55.653178 Y74.158135 Z-0.125000
G02 X55.634656 Y74.219310 Z-0.125000 I0.091762 J0.061175
G02 X55.717150 Y74.634103 Z-0.125000 I1.084068 J0.000000
G02 X56.179249 Y75.534302 Z-0.125000 I5.733594 J-2.374520
G02 X56.654415 Y76.248542 Z-0.125000 I6.779662 J-3.995160
G02 X57.002782 Y76.636769 Z-0.125000 I2.330852 J-1.741125
G02 X57.434228 Y76.930819 Z-0.125000 I1.301561 J-1.446175
G02 X57.959140 Y77.114949 Z-0.125000 I0.987652 J-1.975298
G02 X58.535157 Y77.205437 Z-0.125000 I0.909441 J-3.910587
G02 X59.553069 Y77.247777 Z-0.125000 I1.017912 J-12.214902
G01 X59.553069 Y77.247757 Z-0.125000
G00 Z5.000000

(End cutting path id: path4217)


(Start cutting path id: path4219)
(Change tool to Default tool)

G00 Z5.000000
G00 X67.761810 Y68.534270

G01 Z-0.125000 F100.0(Penetrate)
G03 X69.590061 Y70.160084 Z-0.125000 I-277.529209 J313.926610 F400.000000
G03 X70.909824 Y71.350213 Z-0.125000 I-147.393178 J164.774575
G03 X72.223705 Y72.560148 Z-0.125000 I-659.329993 J717.291594
G03 X72.968649 Y73.249648 Z-0.125000 I-213.369134 J231.273960
G02 X73.731804 Y73.933442 Z-0.125000 I38.575129 J-42.284370
G02 X74.296925 Y74.418530 Z-0.125000 I19.974884 J-22.698739
G02 X74.883664 Y74.853827 Z-0.125000 I3.995096 J-4.771937
G02 X75.027477 Y74.896708 Z-0.125000 I0.143813 J-0.219715
G02 X75.263237 Y74.799058 Z-0.125000 I0.013128 J-0.301729
G02 X75.611917 Y74.259137 Z-0.125000 I-1.412314 J-1.294621
G02 X75.840675 Y73.611069 Z-0.125000 I-4.311712 J-1.886373
G02 X75.890854 Y73.236364 Z-0.125000 I-1.373926 J-0.374706
G02 X75.819076 Y73.011568 Z-0.125000 I-0.387897 J0.000000
G02 X75.040759 Y72.040918 Z-0.125000 I-8.787469 J6.248875
G03 X74.218090 Y71.099404 Z-0.125000 I31.657716 J-28.491800
G03 X73.778898 Y70.553249 Z-0.125000 I10.205497 J-8.656436
G03 X73.466042 Y69.962825 Z-0.125000 I1.815942 J-1.340340
G03 X73.367133 Y69.384366 Z-0.125000 I1.642079 J-0.578459
G03 X73.432143 Y69.053755 Z-0.125000 I0.873167 J0.000000
G03 X73.606223 Y68.799926 Z-0.125000 I0.674349 J0.275871
G03 X73.866582 Y68.643351 Z-0.125000 I0.548023 J0.616519
G03 X74.177381 Y68.587402 Z-0.125000 I0.310799 J0.835270
G03 X74.537607 Y68.662324 Z-0.125000 I-0.000000 J0.903443
G03 X75.093890 Y68.985882 Z-0.125000 I-1.102000 J2.534606
G03 X75.624814 Y69.401334 Z-0.125000 I-6.165274 J8.425852
G03 X76.794084 Y70.407139 Z-0.125000 I-35.049069 J41.927831
G01 X76.794084 Y69.464063 Z-0.125000
G02 X75.625948 Y68.388920 Z-0.125000 I-45.936776 J48.737866
G02 X74.695409 Y67.577912 Z-0.125000 I-27.062795 J30.112134
G02 X73.727636 Y66.830004 Z-0.125000 I-11.040678 J13.286244
G02 X73.048346 Y66.395746 Z-0.125000 I-4.376837 J6.098061
G02 X72.338823 Y66.082934 Z-0.125000 I-2.022856 J3.627189
G02 X71.892747 Y66.010546 Z-0.125000 I-0.446076 J1.338227
G02 X71.516084 Y66.090128 Z-0.125000 I-0.000000 J0.931173
G02 X71.202042 Y66.316049 Z-0.125000 I0.380358 J0.859944
G02 X70.998484 Y66.663158 Z-0.125000 I0.808304 J0.707263
G02 X70.923105 Y67.099732 Z-0.125000 I1.226569 J0.436574
G02 X70.961531 Y67.544943 Z-0.125000 I2.598382 J-0.000000
G02 X71.082499 Y68.016243 Z-0.125000 I3.035163 J-0.527855
G02 X71.262004 Y68.472512 Z-0.125000 I5.210465 J-1.786451
G02 X71.573961 Y69.118710 Z-0.125000 I10.775184 J-4.803400
G02 X71.918808 Y69.749058 Z-0.125000 I15.603498 J-8.126787
G02 X72.450622 Y70.646227 Z-0.125000 I32.149502 J-18.451010
G02 X72.995843 Y71.549077 Z-0.125000 I648.995221 J-391.304952
G02 X73.446830 Y72.293290 Z-0.125000 I441.417171 J-266.986258
G03 X72.115720 Y71.164184 Z-0.125000 I26.979196 J-33.155129
G03 X71.042652 Y70.168049 Z-0.125000 I19.919869 J-22.534345
G03 X70.012286 Y69.127428 Z-0.125000 I28.759336 J-29.506333
G03 X69.329176 Y68.374877 Z-0.125000 I14.348935 J-13.711203
G02 X68.664912 Y67.617869 Z-0.125000 I-2294.463010 J2012.685886
G02 X68.279837 Y67.179429 Z-0.125000 I-770.047542 J675.932225
G02 X67.466483 Y66.512374 Z-0.125000 I-2.623875 J2.369950
G02 X66.898430 Y66.355899 Z-0.125000 I-0.568052 J0.952863
G02 X66.443873 Y66.592044 Z-0.125000 I0.000000 J0.555563
G02 X66.207728 Y67.338822 Z-0.125000 I1.062725 J0.746779
G02 X66.275238 Y67.721184 Z-0.125000 I1.116554 J0.000000
G02 X66.725755 Y68.760076 Z-0.125000 I8.922562 J-3.252150
G02 X67.267798 Y69.782948 Z-0.125000 I21.891420 J-10.945710
G02 X68.200141 Y71.390063 Z-0.125000 I54.996695 J-30.831458
G03 X68.254134 Y71.504893 Z-0.125000 I-0.250566 J0.187925
G03 X68.279837 Y71.722131 Z-0.125000 I-0.905155 J0.217238
G03 X68.202029 Y71.909978 Z-0.125000 I-0.265656 J0.000000
G03 X68.014182 Y71.987787 Z-0.125000 I-0.187847 J-0.187847
G03 X67.754149 Y71.910083 Z-0.125000 I-0.000000 J-0.473943
G03 X67.164086 Y71.429910 Z-0.125000 I2.043198 J-3.113434
G03 X66.630389 Y70.874971 Z-0.125000 I13.953612 J-13.953612
G03 X65.038845 Y69.131995 Z-0.125000 I136.150201 J-125.919313
G03 X64.618624 Y68.626200 Z-0.125000 I6.998591 J-6.241985
G03 X64.042640 Y67.843568 Z-0.125000 I16.200561 J-12.526195
G02 X63.485256 Y67.070020 Z-0.125000 I-22.916274 J15.924856
G02 X63.258957 Y66.794229 Z-0.125000 I-3.130352 J2.337857
G02 X62.995130 Y66.584118 Z-0.125000 I-0.761112 J0.685001
G02 X62.780777 Y66.528574 Z-0.125000 I-0.214353 J0.385835
G02 X62.398615 Y66.681768 Z-0.125000 I0.000000 J0.553269
G02 X61.890834 Y67.378669 Z-0.125000 I1.676195 J1.754764
G02 X61.592594 Y68.254814 Z-0.125000 I3.395323 J1.644604
G02 X61.479069 Y69.357801 Z-0.125000 I5.301456 J1.102986
G02 X61.553902 Y70.165450 Z-0.125000 I4.395791 J-0.000000
G02 X61.744722 Y70.779055 Z-0.125000 I2.712006 J-0.506913
G02 X62.047499 Y71.363645 Z-0.125000 I7.231856 J-3.374891
G02 X62.594821 Y72.266724 Z-0.125000 I17.827325 J-10.187062
G02 X63.523163 Y73.522744 Z-0.125000 I20.066419 J-13.860290
G02 X64.042640 Y74.099743 Z-0.125000 I4.729084 J-3.735292
G02 X64.665539 Y74.530601 Z-0.125000 I1.577807 J-1.615370
G02 X65.238089 Y74.657621 Z-0.125000 I0.572549 J-1.226889
G02 X65.610830 Y74.612643 Z-0.125000 I-0.000000 J-1.566995
G02 X65.888941 Y74.498227 Z-0.125000 I-0.239144 J-0.976499
G02 X66.087948 Y74.312708 Z-0.125000 I-0.267614 J-0.486566
G02 X66.154597 Y74.086462 Z-0.125000 I-0.350679 J-0.226245
G02 X66.090051 Y73.829512 Z-0.125000 I-0.543724 J-0.000000
G02 X65.663135 Y73.169951 Z-0.125000 I-4.214102 J2.259733
G02 X65.153906 Y72.560607 Z-0.125000 I-6.037913 J4.528428
G02 X64.441121 Y71.854959 Z-0.125000 I-8.819768 J8.196155
G03 X64.071222 Y71.446575 Z-0.125000 I2.887882 J-2.987454
G03 X63.684006 Y70.898601 Z-0.125000 I4.830949 J-3.824491
G03 X63.375607 Y70.325969 Z-0.125000 I3.541540 J-2.276713
G03 X63.325370 Y70.088353 Z-0.125000 I0.536835 J-0.237617
G03 X63.416986 Y69.821335 Z-0.125000 I0.434922 J0.000000
G03 X63.604310 Y69.729719 Z-0.125000 I0.187324 J0.145697
G03 X63.800873 Y69.799604 Z-0.125000 I-0.000000 J0.311378
G03 X64.746627 Y70.659511 Z-0.125000 I-7.379470 J9.066212
G02 X65.664939 Y71.587512 Z-0.125000 I238.760292 J-235.349056
G02 X66.752321 Y72.678489 Z-0.125000 I331.074440 J-328.896085
G02 X67.883177 Y73.748672 Z-0.125000 I19.977649 J-19.977700
G02 X68.784583 Y74.498227 Z-0.125000 I10.685240 J-11.933154
G02 X69.772866 Y75.096596 Z-0.125000 I3.091920 J-3.991377
G02 X70.378512 Y75.228779 Z-0.125000 I0.605646 J-1.321408
G02 X70.739117 Y75.148356 Z-0.125000 I0.000000 J-0.848662
G02 X71.029368 Y74.923274 Z-0.125000 I-0.356389 J-0.759257
G02 X71.222724 Y74.603104 Z-0.125000 I-0.715875 J-0.650802
G02 X71.295023 Y74.192724 Z-0.125000 I-1.128536 J-0.410379
G02 X71.244273 Y73.912851 Z-0.125000 I-0.797077 J0.000000
G02 X70.896540 Y73.130104 Z-0.125000 I-6.767395 J2.537780
G02 X70.472283 Y72.388495 Z-0.125000 I-10.754587 J5.660280
G02 X69.727657 Y71.243951 Z-0.125000 I-26.384835 J16.351150
G02 X68.953326 Y70.140556 Z-0.125000 I-35.488673 J24.081526
G02 X67.761810 Y68.534270 Z-0.125000 I-76.415664 J55.438829
G01 X67.761810 Y68.534270 Z-0.125000
G00 Z5.000000

(End cutting path id: path4219)


(Start cutting path id: path4221)
(Change tool to Default tool)

G00 Z5.000000
G00 X78.281751 Y72.731620

G01 Z-0.125000 F100.0(Penetrate)
G02 X80.399172 Y74.416864 Z-0.125000 I14.018417 J-15.440579 F400.000000
G02 X82.200163 Y75.454585 Z-0.125000 I7.020865 J-10.103196
G02 X84.132701 Y76.195841 Z-0.125000 I6.112241 J-13.045502
G02 X85.135650 Y76.344531 Z-0.125000 I1.002949 J-3.308228
G02 X85.391329 Y76.288374 Z-0.125000 I-0.000000 J-0.610126
G02 X85.653677 Y76.105440 Z-0.125000 I-0.381666 J-0.826940
G02 X85.865325 Y75.860368 Z-0.125000 I-1.095896 J-1.160353
G02 X86.025595 Y75.574129 Z-0.125000 I-1.342011 J-0.939408
G02 X86.149454 Y75.263579 Z-0.125000 I-2.266019 J-1.083743
G02 X86.171705 Y75.122517 Z-0.125000 I-0.436012 J-0.141062
G02 X86.120254 Y74.911516 Z-0.125000 I-0.458389 J-0.000000
G02 X85.985748 Y74.763880 Z-0.125000 I-0.344127 J0.178433
G02 X85.793983 Y74.670459 Z-0.125000 I-0.804672 J1.408213
G02 X85.334893 Y74.498227 Z-0.125000 I-3.238578 J7.934584
G03 X85.428008 Y74.285762 Z-0.125000 I165.350343 J72.339664
G03 X85.573983 Y73.953634 Z-0.125000 I404.203355 J177.455640
G02 X85.716489 Y73.620099 Z-0.125000 I-15.478931 J-6.810693
G02 X85.799789 Y73.409041 Z-0.125000 I-6.113526 J-2.534867
G02 X85.862352 Y73.206498 Z-0.125000 I-1.217533 J-0.487010
G02 X85.879486 Y73.050407 Z-0.125000 I-0.702406 J-0.156091
G02 X85.804630 Y72.756370 Z-0.125000 I-0.614924 J0.000000
G02 X85.228631 Y71.854959 Z-0.125000 I-6.713023 J3.654869
G03 X84.599792 Y70.985545 Z-0.125000 I43.638850 J-32.225665
G03 X84.325404 Y70.579814 Z-0.125000 I9.224291 J-6.533867
G03 X84.144144 Y70.147990 Z-0.125000 I1.314773 J-0.805836
G03 X84.073030 Y69.570325 Z-0.125000 I2.310640 J-0.577665
G03 X84.348655 Y68.863027 Z-0.125000 I1.045330 J-0.000000
G03 X84.976259 Y68.587402 Z-0.125000 I0.627604 J0.576719
G03 X85.818329 Y68.820032 Z-0.125000 I0.000000 J1.640365
G03 X87.885180 Y70.327443 Z-0.125000 I-7.220450 J12.070817
G01 X87.885180 Y69.517194 Z-0.125000
G02 X84.333036 Y66.215084 Z-0.125000 I-20.309810 J18.286051
G02 X83.076825 Y65.784740 Z-0.125000 I-1.256211 J1.618322
G02 X82.614074 Y65.886926 Z-0.125000 I0.000000 J1.098876
G02 X82.332991 Y66.130093 Z-0.125000 I0.284634 J0.613056
G02 X82.188423 Y66.482045 Z-0.125000 I0.897169 J0.574191
G02 X82.120467 Y67.126298 Z-0.125000 I3.019921 J0.644252
G02 X82.246268 Y68.152540 Z-0.125000 I4.248773 J0.000000
G02 X82.877584 Y70.168049 Z-0.125000 I17.204791 J-4.282417
G02 X80.916741 Y68.037006 Z-0.125000 I-104.120464 J93.837071
G02 X79.995226 Y67.099732 Z-0.125000 I-21.046148 J19.770621
G02 X78.992476 Y66.345085 Z-0.125000 I-3.666045 J3.827789
G02 X78.441144 Y66.196505 Z-0.125000 I-0.551332 J0.948615
G02 X78.185307 Y66.276290 Z-0.125000 I0.000000 J0.450075
G02 X77.710592 Y66.701251 Z-0.125000 I1.446093 J2.093026
G02 X77.321289 Y67.236869 Z-0.125000 I2.890579 J2.510246
G02 X76.926909 Y68.002959 Z-0.125000 I5.553924 J3.343697
G02 X76.678056 Y68.829598 Z-0.125000 I4.143426 J1.698121
G02 X76.594841 Y69.676587 Z-0.125000 I4.268836 J0.846989
G02 X76.630447 Y70.295813 Z-0.125000 I5.402277 J0.000000
G02 X76.714384 Y70.712642 Z-0.125000 I2.522045 J-0.291003
G02 X76.877248 Y71.115645 Z-0.125000 I1.907783 J-0.536574
G02 X77.179283 Y71.576022 Z-0.125000 I2.799959 J-1.507677
G02 X77.544120 Y71.996564 Z-0.125000 I4.626026 J-3.644730
G02 X78.281751 Y72.731620 Z-0.125000 I14.907855 J-14.222434
G01 X78.281751 Y72.731620 Z-0.125000
G00 Z5.000000

(End cutting path id: path4221)


(Start cutting path id: path4221)
(Change tool to Default tool)

G00 Z5.000000
G00 X84.644188 Y74.192724

G01 Z-0.125000 F100.0(Penetrate)
G03 X81.258061 Y72.498541 Z-0.125000 I22.723500 J-49.647954 F400.000000
G03 X79.716289 Y71.509607 Z-0.125000 I6.110382 J-11.222521
G03 X78.554811 Y70.257869 Z-0.125000 I2.930799 J-3.884199
G03 X78.255185 Y69.238257 Z-0.125000 I1.585032 J-1.019613
G03 X78.297753 Y68.823681 Z-0.125000 I2.040083 J0.000000
G03 X78.401294 Y68.534270 Z-0.125000 I1.086590 J0.225517
G03 X78.585726 Y68.333424 Z-0.125000 I0.502628 J0.276448
G03 X78.799778 Y68.268615 Z-0.125000 I0.214052 J0.321078
G03 X78.940121 Y68.293041 Z-0.125000 I0.000000 J0.415381
G03 X79.317805 Y68.454574 Z-0.125000 I-1.166976 J3.250854
G03 X80.627424 Y69.380841 Z-0.125000 I-4.966155 J8.410428
G03 X81.868095 Y70.593096 Z-0.125000 I-7.338593 J8.751624
G03 X82.982879 Y71.953564 Z-0.125000 I-22.475796 J19.553913
G03 X84.644188 Y74.192724 Z-0.125000 I-59.279512 J45.717336
G01 X84.644188 Y74.192724 Z-0.125000
G00 Z5.000000

(End cutting path id: path4221)


(Start cutting path id: path4223)
(Change tool to Default tool)

G00 Z5.000000
G00 X87.672656 Y69.982090

G01 Z-0.125000 F100.0(Penetrate)
G01 X87.672656 Y70.300877 Z-0.125000 F400.000000
G03 X91.083283 Y73.928782 Z-0.125000 I-405.803197 J384.916520
G03 X92.388033 Y75.361604 Z-0.125000 I-61.980181 J57.750584
G02 X92.989603 Y76.625795 Z-0.125000 I2.610260 J-0.466877
G02 X93.796006 Y76.995383 Z-0.125000 I0.806403 J-0.694949
G02 X94.066573 Y76.959927 Z-0.125000 I-0.000000 J-1.050099
G02 X94.393730 Y76.835992 Z-0.125000 I-0.444714 J-1.667705
G01 X94.473427 Y76.583618 Z-0.125000
G03 X94.437264 Y76.421471 Z-0.125000 I0.771501 J-0.257167
G03 X94.420295 Y76.132006 Z-0.125000 I2.460436 J-0.289465
G03 X94.444626 Y75.882850 Z-0.125000 I1.287908 J-0.000000
G03 X94.606254 Y75.188929 Z-0.125000 I10.235272 J2.018226
G02 X94.797048 Y74.509303 Z-0.125000 I-27.391011 J-8.056139
G02 X94.911757 Y74.046612 Z-0.125000 I-12.578356 J-3.363972
G02 X94.988670 Y73.578405 Z-0.125000 I-3.738997 J-0.854631
G02 X95.018020 Y72.997276 Z-0.125000 I-5.738620 J-0.581128
G02 X94.918577 Y72.143742 Z-0.125000 I-3.712727 J-0.000000
G02 X94.619536 Y71.310366 Z-0.125000 I-3.836090 J0.906165
G02 X94.156161 Y70.560610 Z-0.125000 I-4.389201 J2.194608
G02 X93.463937 Y69.769566 Z-0.125000 I-5.583758 J4.187811
G02 X92.670163 Y69.085283 Z-0.125000 I-6.490546 J6.726567
G02 X91.511372 Y68.268615 Z-0.125000 I-10.424138 J13.560614
G03 X91.990759 Y68.203495 Z-0.125000 I1.319803 J7.918816
G03 X92.268489 Y68.188918 Z-0.125000 I0.277731 J2.638437
G03 X92.800900 Y68.248658 Z-0.125000 I-0.000000 J2.402342
G03 X93.437372 Y68.454574 Z-0.125000 I-0.830061 J3.652261
G03 X94.057384 Y68.764938 Z-0.125000 I-2.688926 J6.146120
G03 X94.725798 Y69.185126 Z-0.125000 I-4.290409 J7.566712
G03 X95.377841 Y69.665841 Z-0.125000 I-9.458055 J13.511490
G03 X96.266596 Y70.380574 Z-0.125000 I-20.038957 J25.827955
G01 X96.266596 Y69.490628 Z-0.125000
G02 X94.506376 Y67.905636 Z-0.125000 I-20.448321 J20.939064
G02 X93.224847 Y66.966904 Z-0.125000 I-8.405565 J10.130908
G02 X91.835650 Y66.280995 Z-0.125000 I-3.912578 J6.174538
G02 X90.913648 Y66.116808 Z-0.125000 I-0.922002 J2.506696
G02 X89.768855 Y66.367372 Z-0.125000 I0.000000 J2.740488
G02 X88.602448 Y67.179429 Z-0.125000 I1.683798 J3.662262
G02 X88.058148 Y67.862861 Z-0.125000 I3.055986 J2.992313
G02 X87.818765 Y68.401443 Z-0.125000 I1.638380 J1.050701
G02 X87.718341 Y68.991507 Z-0.125000 I3.803868 J0.950962
G02 X87.672656 Y69.982090 Z-0.125000 I10.716389 J0.990584
G01 X87.672656 Y69.982090 Z-0.125000
G00 Z5.000000

(End cutting path id: path4223)


(Start cutting path id: path4223)
(Change tool to Default tool)

G00 Z5.000000
G00 X92.627123 Y72.014353

G01 Z-0.125000 F100.0(Penetrate)
G01 X92.388033 Y73.953634 Z-0.125000 F400.000000
G02 X91.540631 Y73.046536 Z-0.125000 I-17.521298 J15.518858
G02 X88.868104 Y70.380574 Z-0.125000 I-154.193122 J151.900281
G02 X89.627330 Y70.138716 Z-0.125000 I-0.889172 J-4.103821
G02 X89.957290 Y69.915678 Z-0.125000 I-0.411812 J-0.964816
G02 X90.224497 Y69.603412 Z-0.125000 I-1.874311 J-1.874311
G02 X90.780820 Y68.786642 Z-0.125000 I-12.381908 J-9.031490
G03 X91.611515 Y69.252219 Z-0.125000 I-1.511419 J3.670578
G03 X92.162227 Y69.796131 Z-0.125000 I-1.547411 J2.117512
G03 X92.508045 Y70.495798 Z-0.125000 I-1.668823 J1.260131
G03 X92.653689 Y71.562738 Z-0.125000 I-3.835218 J1.066940
G03 X92.650006 Y71.695336 Z-0.125000 I-2.388681 J-0.000000
G03 X92.640396 Y71.801828 Z-0.125000 I-1.549639 J-0.086155
G03 X92.637083 Y71.907884 Z-0.125000 I-1.698946 J-0.000000
G03 X92.627103 Y72.014353 Z-0.125000 I-1.722193 J-0.107717
G01 X92.627123 Y72.014353 Z-0.125000
G00 Z5.000000

(End cutting path id: path4223)


(Start cutting path id: path4205)
(Change tool to Default tool)

G00 Z5.000000
G00 X75.306412 Y103.839828

G01 Z-0.125000 F100.0(Penetrate)
G01 X72.942081 Y101.834133 Z-0.125000 F400.000000
G02 X71.197778 Y100.512626 Z-0.125000 I-10.307413 J11.793170
G02 X70.684012 Y100.359748 Z-0.125000 I-0.513766 J0.786848
G02 X70.277738 Y100.537854 Z-0.125000 I-0.000000 J0.552426
G02 X69.594826 Y101.541912 Z-0.125000 I3.044264 J2.804831
G02 X69.139797 Y102.763678 Z-0.125000 I6.603437 J3.154975
G02 X69.023668 Y103.627306 Z-0.125000 I3.153249 J0.863628
G02 X69.088991 Y104.370802 Z-0.125000 I4.263846 J0.000000
G02 X69.249477 Y104.902448 Z-0.125000 I2.324437 J-0.411623
G02 X69.516984 Y105.417830 Z-0.125000 I4.737257 J-2.131741
G02 X70.059723 Y106.270574 Z-0.125000 I13.544493 J-8.021462
G02 X70.902037 Y107.373094 Z-0.125000 I18.838888 J-13.519699
G02 X71.613805 Y108.183290 Z-0.125000 I10.872785 J-8.834140
G02 X72.382105 Y108.939394 Z-0.125000 I11.472644 J-10.889309
G02 X72.928799 Y109.392019 Z-0.125000 I4.640575 J-5.048550
G02 X73.518069 Y109.777002 Z-0.125000 I2.827103 J-3.683804
G02 X73.725764 Y109.830350 Z-0.125000 I0.207695 J-0.377627
G02 X74.048021 Y109.749103 Z-0.125000 I0.000000 J-0.679726
G02 X74.416466 Y109.458435 Z-0.125000 I-0.642586 J-1.193379
G02 X74.683193 Y109.055641 Z-0.125000 I-1.087582 J-1.009898
G02 X74.761819 Y108.688033 Z-0.125000 I-0.820049 J-0.367608
G02 X74.710087 Y108.451325 Z-0.125000 I-0.567415 J0.000000
G02 X74.389900 Y107.877787 Z-0.125000 I-3.789990 J1.739676
G02 X74.002065 Y107.342497 Z-0.125000 I-4.996989 J3.212337
G02 X73.234302 Y106.456533 Z-0.125000 I-14.497709 J11.787848
G02 X72.420552 Y105.637754 Z-0.125000 I-11.304584 J10.421394
G02 X71.042646 Y104.410986 Z-0.125000 I-26.794828 J28.708729
G01 X70.790275 Y103.680437 Z-0.125000
G03 X70.705622 Y103.462811 Z-0.125000 I1.128458 J-0.564229
G03 X70.684012 Y103.308519 Z-0.125000 I0.540023 J-0.154292
G03 X70.789054 Y103.054926 Z-0.125000 I0.358634 J0.000000
G03 X71.042646 Y102.949885 Z-0.125000 I0.253592 J0.253592
G03 X71.387357 Y103.037293 Z-0.125000 I0.000000 J0.723425
G03 X72.782687 Y103.892959 Z-0.125000 I-7.302521 J13.473693
G03 X74.108262 Y104.903665 Z-0.125000 I-8.969460 J13.138357
G03 X75.771308 Y106.429967 Z-0.125000 I-18.878229 J22.238736
G03 X76.385550 Y107.063580 Z-0.125000 I-20.098997 J20.099088
G03 X76.807362 Y107.532434 Z-0.125000 I-10.579283 J9.941988
G03 X77.215563 Y108.013585 Z-0.125000 I-32.517272 J28.000889
G03 X77.551196 Y108.422380 Z-0.125000 I-23.136184 J19.337663
G02 X77.892100 Y108.839612 Z-0.125000 I9.716417 J-7.591033
G02 X78.095789 Y109.059951 Z-0.125000 I2.907898 J-2.483834
G02 X78.336936 Y109.237749 Z-0.125000 I0.859223 J-0.912930
G02 X78.494272 Y109.285757 Z-0.125000 I0.186318 J-0.328799
G02 X78.779618 Y109.231692 Z-0.125000 I0.057310 J-0.477562
G02 X79.012300 Y109.006820 Z-0.125000 I-0.283089 J-0.525738
G02 X79.138864 Y108.671975 Z-0.125000 I-0.931764 J-0.543529
G02 X79.198259 Y108.063743 Z-0.125000 I-3.084602 J-0.608232
G02 X79.139554 Y107.721028 Z-0.125000 I-1.029729 J0.000000
G02 X78.879472 Y107.160516 Z-0.125000 I-3.066601 J1.082333
G02 X78.550888 Y106.635440 Z-0.125000 I-14.172009 J8.503251
G02 X77.684024 Y105.327497 Z-0.125000 I-88.838266 J57.938041
G03 X76.819524 Y104.031115 Z-0.125000 I69.072440 J-46.997746
G03 X75.930701 Y102.644382 Z-0.125000 I78.148222 J-51.067152
G03 X75.098157 Y101.245373 Z-0.125000 I31.675177 J-19.796994
G03 X74.164094 Y99.522934 Z-0.125000 I47.090219 J-26.651056
G02 X74.204106 Y99.562618 Z-0.125000 I4.800807 J-4.800467
G02 X74.974343 Y100.319898 Z-0.125000 I1749.083910 J-1778.238227
G02 X75.759284 Y101.075706 Z-0.125000 I227.146852 J-235.116935
G02 X76.621403 Y101.900546 Z-0.125000 I271.397694 J-282.800741
G02 X77.490910 Y102.717395 Z-0.125000 I54.182083 J-56.803704
G02 X78.042658 Y103.215541 Z-0.125000 I20.697982 J-22.370504
G02 X78.609753 Y103.709409 Z-0.125000 I13.313904 J-14.715450
G02 X79.437349 Y104.384420 Z-0.125000 I25.708857 J-30.675457
G01 X79.437349 Y103.494478 Z-0.125000
G03 X77.665756 Y101.549322 Z-0.125000 I87.813236 J-81.757138
G03 X76.183073 Y99.841721 Z-0.125000 I66.187194 J-58.966804
G03 X74.748817 Y98.104065 Z-0.125000 I111.819554 J-93.756274
G03 X73.938288 Y97.078906 Z-0.125000 I38.102188 J-30.957993
G02 X73.154004 Y96.043310 Z-0.125000 I-889.746192 J673.013783
G02 X73.021777 Y95.870177 Z-0.125000 I-25.000172 J18.956211
G03 X72.665752 Y95.403319 Z-0.125000 I41.817841 J-32.259449
G03 X72.370922 Y95.006797 Z-0.125000 I29.871179 J-22.518261
G02 X72.080662 Y94.604082 Z-0.125000 I-7.059710 J4.782376
G02 X71.892745 Y94.382507 Z-0.125000 I-2.318694 J1.776015
G02 X71.690700 Y94.190786 Z-0.125000 I-0.878465 J0.723447
G02 X71.587239 Y94.156701 Z-0.125000 I-0.103461 J0.139978
G02 X71.372530 Y94.251988 Z-0.125000 I0.000000 J0.289546
G02 X71.082496 Y94.714578 Z-0.125000 I1.159975 J1.049496
G02 X70.915086 Y95.267662 Z-0.125000 I3.447659 J1.345431
G02 X70.869971 Y95.684218 Z-0.125000 I1.900526 J0.416555
G02 X70.910032 Y96.059960 Z-0.125000 I1.782118 J0.000000
G02 X71.016083 Y96.361639 Z-0.125000 I1.247572 J-0.269087
G02 X72.079114 Y98.456718 Z-0.125000 I20.925177 J-9.300076
G02 X75.306412 Y103.839828 Z-0.125000 I141.761203 J-81.330129
G01 X75.306412 Y103.839828 Z-0.125000
G00 Z5.000000

(End cutting path id: path4205)


(Start cutting path id: path4203)
(Change tool to Default tool)

G00 Z5.000000
G00 X61.133714 Y103.335084

G01 Z-0.125000 F100.0(Penetrate)
G01 X61.133714 Y104.198464 Z-0.125000 F400.000000
G03 X61.825825 Y105.066855 Z-0.125000 I-15.187812 J12.814759
G03 X62.222900 Y105.646284 Z-0.125000 I-6.354006 J4.780080
G02 X61.821315 Y105.828647 Z-0.125000 I0.754402 J2.194630
G02 X61.598613 Y106.004918 Z-0.125000 I0.479373 J0.834462
G02 X61.470282 Y106.239095 Z-0.125000 I0.465614 J0.407412
G02 X61.412654 Y106.642489 Z-0.125000 I1.383058 J0.403394
G02 X61.486421 Y107.101859 Z-0.125000 I1.467199 J-0.000000
G02 X61.811135 Y107.851221 Z-0.125000 I4.293555 J-1.415449
G02 X62.251519 Y108.551816 Z-0.125000 I5.878913 J-3.206699
G02 X62.794058 Y109.219344 Z-0.125000 I5.876702 J-4.222097
G02 X63.420275 Y109.795837 Z-0.125000 I3.705352 J-3.396588
G02 X63.856678 Y110.042874 Z-0.125000 I1.068786 J-1.379080
G02 X64.047684 Y110.114479 Z-0.125000 I0.435258 J-0.870504
G02 X64.215315 Y110.135855 Z-0.125000 I0.167631 J-0.646570
G02 X64.405165 Y110.060052 Z-0.125000 I0.000000 J-0.275642
G02 X64.480968 Y109.883481 Z-0.125000 I-0.167745 J-0.176571
G02 X64.435271 Y109.670263 Z-0.125000 I-0.520279 J-0.000000
G02 X64.069203 Y108.966973 Z-0.125000 I-6.274056 J2.818782
G02 X66.808831 Y109.348253 Z-0.125000 I13.416764 J-86.370813
G02 X67.522720 Y109.392019 Z-0.125000 I0.713889 J-5.800370
G02 X67.797209 Y109.373178 Z-0.125000 I-0.000000 J-2.008882
G02 X67.907919 Y109.338888 Z-0.125000 I-0.048707 J-0.353124
G02 X68.085455 Y109.178453 Z-0.125000 I-0.228102 J-0.430861
G02 X68.279837 Y108.781014 Z-0.125000 I-1.386706 J-0.924476
G02 X68.390150 Y108.336874 Z-0.125000 I-2.775167 J-0.925050
G02 X68.425947 Y107.904353 Z-0.125000 I-2.595147 J-0.432522
G02 X68.374074 Y107.642887 Z-0.125000 I-0.684898 J0.000000
G02 X68.173575 Y107.293344 Z-0.125000 I-1.446637 J0.597521
G02 X67.921988 Y106.985163 Z-0.125000 I-3.869953 J2.902491
G02 X67.336761 Y106.350270 Z-0.125000 I-17.045230 J15.124683
G03 X66.686037 Y105.555043 Z-0.125000 I5.951786 J-5.534116
G03 X66.154597 Y104.703207 Z-0.125000 I6.303764 J-4.524468
G03 X65.751241 Y103.794436 Z-0.125000 I5.819036 J-3.126661
G03 X65.676416 Y103.361650 Z-0.125000 I1.214200 J-0.432786
G03 X65.877965 Y102.938909 Z-0.125000 I0.544115 J-0.000000
G03 X66.446815 Y102.737360 Z-0.125000 I0.568850 J0.701984
G03 X67.185417 Y102.937505 Z-0.125000 I-0.000000 J1.462916
G03 X69.262761 Y104.384420 Z-0.125000 I-8.083543 J13.820270
G01 X69.262761 Y103.494478 Z-0.125000
G02 X68.147104 Y102.352262 Z-0.125000 I-49.108680 J46.850807
G02 X67.443023 Y101.674740 Z-0.125000 I-17.974040 J17.974040
G02 X66.704026 Y101.038461 Z-0.125000 I-9.176603 J9.910735
G02 X66.114747 Y100.612120 Z-0.125000 I-4.693786 J5.867235
G02 X65.481152 Y100.305109 Z-0.125000 I-1.690498 J2.681476
G02 X65.025561 Y100.226920 Z-0.125000 I-0.455591 J1.288224
G02 X64.531128 Y100.352470 Z-0.125000 I0.000000 J1.036350
G02 X64.095769 Y100.731663 Z-0.125000 I0.633320 J1.166646
G02 X63.838671 Y101.286640 Z-0.125000 I1.323327 J0.950084
G02 X63.723851 Y102.219333 Z-0.125000 I3.730765 J0.932693
G02 X63.785849 Y102.778552 Z-0.125000 I2.553058 J0.000000
G02 X64.016072 Y103.521043 Z-0.125000 I4.755164 J-1.067488
G02 X64.347706 Y104.231045 Z-0.125000 I6.446074 J-2.578435
G02 X64.866168 Y105.101691 Z-0.125000 I10.224134 J-5.498690
G02 X65.460333 Y105.948008 Z-0.125000 I15.590399 J-10.313674
G02 X66.141313 Y106.815167 Z-0.125000 I17.049594 J-12.688073
G02 X65.769104 Y106.736885 Z-0.125000 I-10.487311 J48.940415
G02 X65.304501 Y106.642489 Z-0.125000 I-15.715651 J76.159457
G03 X64.839770 Y106.561835 Z-0.125000 I19.334249 J-112.783464
G03 X64.321575 Y106.469814 Z-0.125000 I24.650316 J-140.318330
G03 X63.803726 Y106.375872 Z-0.125000 I24.962471 J-139.078359
G03 X63.524610 Y106.323705 Z-0.125000 I7.416794 J-40.455489
G02 X62.547530 Y104.796616 Z-0.125000 I-7.695820 J3.847903
G02 X61.133714 Y103.335084 Z-0.125000 I-8.452794 J6.762235
G01 X61.133714 Y103.335084 Z-0.125000
G00 Z5.000000

(End cutting path id: path4203)


(Start cutting path id: path4201)
(Change tool to Default tool)

G00 Z5.000000
G00 X53.217194 Y103.335084

G01 Z-0.125000 F100.0(Penetrate)
G01 X53.217194 Y104.198464 Z-0.125000 F400.000000
G03 X53.909304 Y105.066854 Z-0.125000 I-15.188341 J12.815155
G03 X54.306380 Y105.646284 Z-0.125000 I-6.354265 J4.780274
G02 X53.904793 Y105.828647 Z-0.125000 I0.754401 J2.194643
G02 X53.682090 Y106.004918 Z-0.125000 I0.479368 J0.834457
G02 X53.553759 Y106.239095 Z-0.125000 I0.465614 J0.407412
G02 X53.496131 Y106.642489 Z-0.125000 I1.383058 J0.403394
G02 X53.569899 Y107.101859 Z-0.125000 I1.467189 J0.000000
G02 X53.894615 Y107.851221 Z-0.125000 I4.293537 J-1.415454
G02 X54.334998 Y108.551816 Z-0.125000 I5.878770 J-3.206598
G02 X54.877539 Y109.219344 Z-0.125000 I5.876595 J-4.222020
G02 X55.503753 Y109.795836 Z-0.125000 I3.705298 J-3.396522
G02 X55.940159 Y110.042874 Z-0.125000 I1.068784 J-1.379077
G02 X56.131164 Y110.114479 Z-0.125000 I0.435262 J-0.870512
G02 X56.298793 Y110.135855 Z-0.125000 I0.167628 J-0.646554
G02 X56.488645 Y110.060052 Z-0.125000 I-0.000000 J-0.275647
G02 X56.564448 Y109.883481 Z-0.125000 I-0.167743 J-0.176571
G02 X56.518751 Y109.670263 Z-0.125000 I-0.520276 J-0.000000
G02 X56.152681 Y108.966973 Z-0.125000 I-6.274035 J2.818792
G02 X58.892309 Y109.348253 Z-0.125000 I13.416764 J-86.370813
G02 X59.606197 Y109.392019 Z-0.125000 I0.713889 J-5.800370
G02 X59.880687 Y109.373178 Z-0.125000 I0.000000 J-2.008882
G02 X59.991397 Y109.338888 Z-0.125000 I-0.048707 J-0.353124
G02 X60.168934 Y109.178452 Z-0.125000 I-0.228099 J-0.430862
G02 X60.363315 Y108.781014 Z-0.125000 I-1.386671 J-0.924452
G02 X60.473628 Y108.336874 Z-0.125000 I-2.775167 J-0.925050
G02 X60.509424 Y107.904353 Z-0.125000 I-2.595147 J-0.432522
G02 X60.457551 Y107.642887 Z-0.125000 I-0.684898 J0.000000
G02 X60.257053 Y107.293344 Z-0.125000 I-1.446637 J0.597521
G02 X60.005466 Y106.985163 Z-0.125000 I-3.869953 J2.902491
G02 X59.420238 Y106.350270 Z-0.125000 I-17.045230 J15.124683
G03 X58.769517 Y105.555044 Z-0.125000 I5.951881 J-5.534182
G03 X58.238074 Y104.703207 Z-0.125000 I6.303894 J-4.524560
G03 X57.834719 Y103.794436 Z-0.125000 I5.819036 J-3.126661
G03 X57.759894 Y103.361650 Z-0.125000 I1.214200 J-0.432786
G03 X57.961443 Y102.938910 Z-0.125000 I0.544114 J-0.000000
G03 X58.530296 Y102.737360 Z-0.125000 I0.568852 J0.701990
G03 X59.268894 Y102.937504 Z-0.125000 I-0.000000 J1.462910
G03 X61.346238 Y104.384420 Z-0.125000 I-8.083571 J13.820305
G01 X61.346238 Y103.494478 Z-0.125000
G02 X60.230584 Y102.352262 Z-0.125000 I-49.106010 J46.848140
G02 X59.526501 Y101.674740 Z-0.125000 I-17.973161 J17.973161
G02 X58.787504 Y101.038460 Z-0.125000 I-9.176736 J9.910878
G02 X58.198227 Y100.612120 Z-0.125000 I-4.693829 J5.867277
G02 X57.564630 Y100.305109 Z-0.125000 I-1.690514 J2.681515
G02 X57.109041 Y100.226920 Z-0.125000 I-0.455588 J1.288217
G02 X56.614606 Y100.352470 Z-0.125000 I-0.000000 J1.036358
G02 X56.179246 Y100.731663 Z-0.125000 I0.633317 J1.166643
G02 X55.922150 Y101.286639 Z-0.125000 I1.323334 J0.950081
G02 X55.807331 Y102.219333 Z-0.125000 I3.730795 J0.932693
G02 X55.869329 Y102.778552 Z-0.125000 I2.553058 J0.000000
G02 X56.099552 Y103.521043 Z-0.125000 I4.755164 J-1.067488
G02 X56.431184 Y104.231045 Z-0.125000 I6.445883 J-2.578333
G02 X56.949648 Y105.101691 Z-0.125000 I10.223876 J-5.498552
G02 X57.543814 Y105.948008 Z-0.125000 I15.590399 J-10.313674
G02 X58.224793 Y106.815167 Z-0.125000 I17.049594 J-12.688073
G02 X57.852582 Y106.736885 Z-0.125000 I-10.488536 J48.946500
G02 X57.387979 Y106.642489 Z-0.125000 I-15.717322 J76.167807
G03 X56.923250 Y106.561835 Z-0.125000 I19.336697 J-112.797054
G03 X56.405055 Y106.469814 Z-0.125000 I24.653650 J-140.336906
G03 X55.887206 Y106.375872 Z-0.125000 I24.962471 J-139.078359
G03 X55.608091 Y106.323705 Z-0.125000 I7.416794 J-40.455489
G02 X54.631009 Y104.796616 Z-0.125000 I-7.695871 J3.847942
G02 X53.217194 Y103.335084 Z-0.125000 I-8.452826 J6.762261
G01 X53.217194 Y103.335084 Z-0.125000
G00 Z5.000000

(End cutting path id: path4201)


(Start cutting path id: path4199)
(Change tool to Default tool)

G00 Z5.000000
G00 X47.505609 Y103.879677

G01 Z-0.125000 F100.0(Penetrate)
G01 X47.505609 Y103.547609 Z-0.125000 F400.000000
G03 X47.619589 Y102.806892 Z-0.125000 I2.463828 J0.000000
G03 X47.890811 Y102.325595 Z-0.125000 I1.276929 J0.402513
G03 X48.329650 Y102.005809 Z-0.125000 I0.934141 J0.820911
G03 X48.900300 Y101.887265 Z-0.125000 I0.570651 J1.314227
G03 X49.536052 Y101.958737 Z-0.125000 I0.000000 J2.863256
G03 X50.241858 Y102.192767 Z-0.125000 I-0.858874 J3.771584
G03 X50.923536 Y102.537209 Z-0.125000 I-2.603266 J5.998847
G03 X51.636546 Y103.003016 Z-0.125000 I-4.084803 J7.031210
G03 X52.315161 Y103.523056 Z-0.125000 I-11.068354 J15.146191
G03 X53.323456 Y104.357855 Z-0.125000 I-27.537811 J34.287332
G01 X53.323456 Y103.547609 Z-0.125000
G02 X51.742353 Y101.826087 Z-0.125000 I-18.124371 J15.059201
G02 X50.507514 Y100.771513 Z-0.125000 I-7.984560 J8.099167
G02 X49.120083 Y100.037909 Z-0.125000 I-3.251897 J4.471367
G02 X47.837680 Y99.815155 Z-0.125000 I-1.282403 J3.580043
G02 X46.777864 Y100.060567 Z-0.125000 I-0.000000 J2.411127
G02 X45.964811 Y100.731663 Z-0.125000 I0.995328 J2.033935
G02 X45.480072 Y101.717094 Z-0.125000 I2.338185 J1.762106
G02 X45.274109 Y103.242106 Z-0.125000 I5.542848 J1.525013
G02 X45.445245 Y104.591000 Z-0.125000 I5.401556 J0.000000
G02 X45.924961 Y105.765828 Z-0.125000 I4.555817 J-1.174917
G02 X46.680289 Y106.821849 Z-0.125000 I5.485859 J-3.125665
G02 X48.050202 Y108.170005 Z-0.125000 I10.366883 J-9.164098
G02 X49.106407 Y108.959042 Z-0.125000 I6.503064 J-7.603574
G02 X50.055899 Y109.471716 Z-0.125000 I3.648804 J-5.622137
G02 X51.071601 Y109.817334 Z-0.125000 I2.500167 J-5.682209
G02 X51.835787 Y109.910047 Z-0.125000 I0.764185 J-3.103056
G02 X52.429346 Y109.823683 Z-0.125000 I-0.000000 J-2.082895
G02 X52.818710 Y109.617828 Z-0.125000 I-0.320034 J-1.076485
G02 X53.082467 Y109.284807 Z-0.125000 I-0.500559 J-0.667409
G02 X53.190629 Y108.767730 Z-0.125000 I-1.181892 J-0.517078
G02 X53.048170 Y107.978203 Z-0.125000 I-2.259059 J0.000000
G02 X52.566339 Y107.094104 Z-0.125000 I-3.333807 J1.243564
G02 X51.867963 Y106.350830 Z-0.125000 I-3.854661 J2.922085
G02 X50.653623 Y105.447041 Z-0.125000 I-6.953086 J8.074541
G02 X49.342497 Y104.706740 Z-0.125000 I-7.760871 J12.213867
G02 X47.505609 Y103.879677 Z-0.125000 I-11.545301 J23.188475
G01 X47.505609 Y103.879677 Z-0.125000
G00 Z5.000000

(End cutting path id: path4199)


(Start cutting path id: path4199)
(Change tool to Default tool)

G00 Z5.000000
G00 X47.638437 Y104.743057

G01 Z-0.125000 F100.0(Penetrate)
G03 X48.787556 Y105.287644 Z-0.125000 I-3.218042 J8.274971 F400.000000
G03 X49.683981 Y105.898656 Z-0.125000 I-3.178486 J5.626290
G03 X50.481154 Y106.636559 Z-0.125000 I-5.314365 J6.540784
G03 X50.932560 Y107.213647 Z-0.125000 I-2.780256 J2.639842
G03 X51.286143 Y107.868376 Z-0.125000 I-3.997136 J2.581475
G03 X51.344325 Y108.143440 Z-0.125000 I-0.621112 J0.275064
G03 X51.258949 Y108.363569 Z-0.125000 I-0.326473 J-0.000000
G03 X51.065388 Y108.448945 Z-0.125000 I-0.193561 J-0.176728
G03 X50.837496 Y108.406096 Z-0.125000 I-0.000000 J-0.627439
G03 X50.281705 Y108.143440 Z-0.125000 I1.601583 J-4.108381
G03 X49.770021 Y107.810564 Z-0.125000 I2.771234 J-4.819534
G03 X49.192519 Y107.346475 Z-0.125000 I4.835813 J-6.608951
G03 X48.684630 Y106.823465 Z-0.125000 I3.708293 J-4.109191
G03 X48.209595 Y106.190877 Z-0.125000 I4.964517 J-4.222696
G03 X47.848390 Y105.496323 Z-0.125000 I3.152698 J-2.080774
G03 X47.638437 Y104.743057 Z-0.125000 I3.505955 J-1.383084
G01 X47.638437 Y104.743057 Z-0.125000
G00 Z5.000000

(End cutting path id: path4199)


(Start cutting path id: path4197)
(Change tool to Default tool)

G00 Z5.000000
G00 X45.446784 Y104.410986

G01 Z-0.125000 F100.0(Penetrate)
G01 X45.446784 Y103.494478 Z-0.125000 F400.000000
G02 X44.170006 Y102.329316 Z-0.125000 I-45.175812 J48.221268
G02 X43.294978 Y101.581762 Z-0.125000 I-19.460985 J21.893616
G02 X42.402451 Y100.885940 Z-0.125000 I-15.218195 J18.599957
G02 X41.541655 Y100.280051 Z-0.125000 I-12.393976 J16.693909
G02 X40.647693 Y99.741893 Z-0.125000 I-8.011384 J12.296533
G02 X40.080551 Y99.469803 Z-0.125000 I-2.586594 J4.664349
G02 X39.498698 Y99.268098 Z-0.125000 I-1.512567 J3.423188
G02 X39.097628 Y99.217431 Z-0.125000 I-0.401070 J1.562066
G02 X38.203917 Y99.411017 Z-0.125000 I0.000000 J2.159748
G02 X37.490414 Y99.947983 Z-0.125000 I0.852267 J1.874987
G02 X37.041940 Y100.743421 Z-0.125000 I1.802797 J1.540578
G02 X36.866125 Y101.834133 Z-0.125000 I3.295342 J1.090713
G02 X36.996396 Y103.136847 Z-0.125000 I6.578683 J0.000000
G02 X37.397436 Y104.464117 Z-0.125000 I7.232611 J-1.461138
G02 X38.019050 Y105.722694 Z-0.125000 I10.363391 J-4.335702
G02 X38.938234 Y107.147235 Z-0.125000 I14.210168 J-8.160281
G02 X39.971108 Y108.513000 Z-0.125000 I25.574216 J-18.267327
G02 X41.435393 Y110.268680 Z-0.125000 I43.744962 J-34.996001
G03 X42.502700 Y111.562027 Z-0.125000 I-21.841417 J19.111234
G03 X42.551144 Y111.703219 Z-0.125000 I-0.181532 J0.141191
G03 X42.533971 Y111.789084 Z-0.125000 I-0.223244 J0.000000
G03 X42.484729 Y111.862612 Z-0.125000 I-0.210467 J-0.087697
G03 X42.411755 Y111.913183 Z-0.125000 I-0.175927 J-0.175927
G03 X42.338620 Y111.929025 Z-0.125000 I-0.073135 J-0.160899
G03 X42.113095 Y111.856451 Z-0.125000 I-0.000000 J-0.386698
G03 X40.784538 Y110.813273 Z-0.125000 I11.464539 J-15.968462
G03 X39.522298 Y109.656093 Z-0.125000 I16.697925 J-19.480920
G03 X37.437283 Y107.532434 Z-0.125000 I54.249645 J-55.347842
G03 X35.458414 Y105.321314 Z-0.125000 I45.574980 J-42.778960
G03 X33.040693 Y102.378726 Z-0.125000 I78.334158 J-66.826295
G03 X32.910455 Y102.217256 Z-0.125000 I4.978976 J-4.149147
G03 X32.190597 Y101.289541 Z-0.125000 I163.701856 J-127.767209
G02 X31.469499 Y100.388400 Z-0.125000 I-23.031134 J17.690573
G02 X31.194389 Y100.094092 Z-0.125000 I-2.718362 J2.265304
G02 X30.882262 Y99.864837 Z-0.125000 I-1.042207 J1.091841
G02 X30.689646 Y99.815155 Z-0.125000 I-0.192616 J0.348544
G02 X30.406703 Y99.943546 Z-0.125000 I0.000000 J0.375966
G02 X30.038791 Y100.558989 Z-0.125000 I1.506813 J1.318464
G02 X29.841955 Y101.327830 Z-0.125000 I4.318033 J1.515102
G02 X29.773135 Y102.166202 Z-0.125000 I5.072139 J0.838372
G02 X29.845843 Y102.665389 Z-0.125000 I1.749979 J0.000000
G02 X30.105203 Y103.281953 Z-0.125000 I2.949001 J-0.877677
G02 X30.473586 Y103.864650 Z-0.125000 I7.492911 J-4.329248
G02 X31.579589 Y105.420475 Z-0.125000 I54.626218 J-37.661570
G03 X32.714617 Y106.979789 Z-0.125000 I-167.068785 J122.802505
G03 X33.465739 Y108.037180 Z-0.125000 I-76.070405 J54.832399
G03 X34.184656 Y109.115810 Z-0.125000 I-23.255820 J16.279117
G03 X35.099518 Y110.614033 Z-0.125000 I-43.969781 J27.877767
G03 X35.704555 Y111.673573 Z-0.125000 I-29.395279 J17.488314
G03 X36.016029 Y112.287659 Z-0.125000 I-9.554460 J5.232214
G03 X36.258489 Y112.926547 Z-0.125000 I-3.326574 J1.627894
G03 X36.321532 Y113.390129 Z-0.125000 I-1.672932 J0.463582
G03 X36.234177 Y113.714539 Z-0.125000 I-0.646059 J0.000000
G03 X36.082442 Y113.801894 Z-0.125000 I-0.151735 J-0.088105
G03 X35.635719 Y113.658898 Z-0.125000 I-0.000000 J-0.769283
G03 X34.183010 Y112.447052 Z-0.125000 I7.266935 J-10.187942
G03 X32.854798 Y111.045756 Z-0.125000 I14.495770 J-15.069861
G03 X30.729493 Y108.448945 Z-0.125000 I47.798866 J-41.288087
G03 X28.750494 Y105.745654 Z-0.125000 I54.734007 J-42.145158
G03 X26.452447 Y102.299030 Z-0.125000 I86.706154 J-60.301029
G02 X25.707927 Y101.113004 Z-0.125000 I-49.704846 J30.375173
G02 X25.416392 Y100.691816 Z-0.125000 I-6.551240 J4.223113
G02 X25.064943 Y100.371350 Z-0.125000 I-0.994940 J0.738182
G02 X24.738971 Y100.280051 Z-0.125000 I-0.325972 J0.536277
G02 X24.380832 Y100.440519 Z-0.125000 I0.000000 J0.479890
G02 X23.862310 Y101.262975 Z-0.125000 I2.198169 J1.960529
G02 X23.536728 Y102.273219 Z-0.125000 I7.174261 J2.869711
G02 X23.463827 Y102.870188 Z-0.125000 I2.407773 J0.596969
G02 X23.497151 Y103.059339 Z-0.125000 I0.553488 J0.000000
G02 X23.623220 Y103.308519 Z-0.125000 I1.099652 J-0.399874
G03 X25.357928 Y105.659690 Z-0.125000 I-148.887893 J111.665884
G03 X26.505578 Y107.280063 Z-0.125000 I-69.561480 J50.484411
G03 X27.609836 Y108.929812 Z-0.125000 I-55.024914 J38.025341
G03 X28.511274 Y110.374943 Z-0.125000 I-41.316434 J26.775912
G03 X29.348828 Y111.869100 Z-0.125000 I-28.841743 J17.149138
G03 X29.786416 Y112.792405 Z-0.125000 I-10.560462 J5.570342
G03 X30.115647 Y113.762613 Z-0.125000 I-6.995716 J2.914890
G03 X30.184900 Y114.293356 Z-0.125000 I-1.999124 J0.530742
G03 X30.025850 Y114.705464 Z-0.125000 I-0.613426 J0.000000
G03 X29.666873 Y114.864514 Z-0.125000 I-0.358978 J-0.325584
G03 X29.260282 Y114.790574 Z-0.125000 I0.000000 J-1.154876
G03 X28.219053 Y114.319921 Z-0.125000 I3.108471 J-8.263982
G03 X27.205440 Y113.759162 Z-0.125000 I16.977337 J-31.884262
G03 X25.628916 Y112.832252 Z-0.125000 I44.842462 J-78.073865
G02 X24.065822 Y111.904975 Z-0.125000 I-47.128126 J77.661978
G02 X23.131758 Y111.384432 Z-0.125000 I-15.773314 J27.205358
G02 X22.170150 Y110.968635 Z-0.125000 I-3.351857 J6.431942
G02 X21.723786 Y110.892970 Z-0.125000 I-0.446364 J1.278771
G02 X21.421084 Y111.028599 Z-0.125000 I0.000000 J0.405606
G02 X21.285456 Y111.384432 Z-0.125000 I0.398964 J0.355833
G02 X21.305553 Y111.661512 Z-0.125000 I1.920078 J-0.000000
G02 X21.471414 Y112.659577 Z-0.125000 I25.200408 J-3.675057
G02 X21.697777 Y113.655837 Z-0.125000 I12.181963 J-2.244045
G02 X21.856614 Y114.080831 Z-0.125000 I2.357838 J-0.639041
G02 X22.205796 Y114.552996 Z-0.125000 I1.702275 J-0.893692
G02 X23.277869 Y115.488804 Z-0.125000 I7.945397 J-8.020348
G02 X24.444776 Y116.331848 Z-0.125000 I18.629333 J-24.556861
G02 X24.553013 Y116.365465 Z-0.125000 I0.108236 J-0.157435
G02 X24.630253 Y116.336443 Z-0.125000 I-0.000000 J-0.117297
G02 X24.659275 Y116.272487 Z-0.125000 I-0.055961 J-0.063956
G02 X24.644981 Y116.225277 Z-0.125000 I-0.085110 J-0.000000
G02 X24.553013 Y116.113094 Z-0.125000 I-0.612454 J0.408302
G03 X24.019527 Y115.662690 Z-0.125000 I9.336002 J-11.599283
G03 X23.742765 Y115.395826 Z-0.125000 I2.992681 J-3.380625
G03 X23.522471 Y115.093316 Z-0.125000 I1.032617 J-0.983438
G03 X23.410696 Y114.784817 Z-0.125000 I0.963248 J-0.523503
G02 X25.884868 Y116.158062 Z-0.125000 I21.117117 J-35.131177
G02 X27.754157 Y117.003039 Z-0.125000 I9.797746 J-19.184793
G02 X29.699875 Y117.671052 Z-0.125000 I7.675618 J-19.189076
G02 X30.423990 Y117.773438 Z-0.125000 I0.724116 J-2.509438
G02 X30.740974 Y117.671544 Z-0.125000 I-0.000000 J-0.544001
G02 X31.127977 Y117.268692 Z-0.125000 I-0.892275 J-1.244486
G02 X31.421639 Y116.758155 Z-0.125000 I-3.381274 J-2.284641
G02 X31.685851 Y116.113094 Z-0.125000 I-5.147805 J-2.485144
G02 X31.899530 Y115.457718 Z-0.125000 I-8.776187 J-3.223912
G02 X31.924941 Y115.276279 Z-0.125000 I-0.635036 J-0.181439
G02 X31.854330 Y114.611548 Z-0.125000 I-3.164158 J-0.000000
G02 X31.579589 Y113.669066 Z-0.125000 I-6.672046 J1.433666
G02 X31.209519 Y112.763233 Z-0.125000 I-16.655994 J6.276149
G02 X30.636515 Y111.530544 Z-0.125000 I-31.430242 J13.860525
G01 X29.175411 Y108.475511 Z-0.125000
G02 X29.872160 Y109.360616 Z-0.125000 I64.730698 J-50.238784
G02 X30.490403 Y110.122571 Z-0.125000 I48.588041 J-38.792073
G02 X31.117646 Y110.877214 Z-0.125000 I96.411426 J-79.497110
G02 X31.725701 Y111.596957 Z-0.125000 I88.308013 J-73.987923
G02 X32.350233 Y112.314013 Z-0.125000 I1062.271822 J-924.571455
G02 X32.987562 Y113.044776 Z-0.125000 I1103.906470 J-962.119918
G02 X33.888731 Y114.002595 Z-0.125000 I12.169473 J-10.546874
G02 X34.926843 Y114.944211 Z-0.125000 I12.798031 J-13.066512
G02 X36.030755 Y115.822164 Z-0.125000 I13.575753 J-15.936757
G02 X36.932540 Y116.431880 Z-0.125000 I7.428660 J-10.015423
G02 X37.895042 Y116.948087 Z-0.125000 I4.604531 J-7.430041
G02 X38.207682 Y117.016320 Z-0.125000 I0.312640 J-0.682123
G02 X38.611560 Y116.899857 Z-0.125000 I0.000000 J-0.758527
G02 X39.031215 Y116.498293 Z-0.125000 I-0.771186 J-1.225992
G02 X39.311119 Y115.963309 Z-0.125000 I-1.594841 J-1.175137
G02 X39.403130 Y115.409107 Z-0.125000 I-1.623029 J-0.554202
G02 X39.341291 Y115.037540 Z-0.125000 I-1.147210 J0.000000
G02 X38.898387 Y113.934722 Z-0.125000 I-10.804045 J3.698672
G02 X38.365747 Y112.859921 Z-0.125000 I-20.816899 J9.646881
G02 X37.424002 Y111.145345 Z-0.125000 I-53.944512 J28.513532
G02 X36.445141 Y109.450517 Z-0.125000 I-155.981676 J88.958317
G02 X34.860431 Y106.762035 Z-0.125000 I-394.091162 J230.483578
G02 X36.378736 Y108.365373 Z-0.125000 I315.597834 J-297.339782
G02 X38.008442 Y110.069440 Z-0.125000 I358.128580 J-340.869320
G02 X39.649856 Y111.762083 Z-0.125000 I186.683206 J-179.391024
G02 X40.439185 Y112.553315 Z-0.125000 I41.576109 J-40.686778
G02 X41.252408 Y113.318394 Z-0.125000 I17.721477 J-18.021873
G02 X41.767461 Y113.748763 Z-0.125000 I6.109922 J-6.788804
G03 X42.488256 Y114.318586 Z-0.125000 I-16.618786 J21.762654
G03 X43.228565 Y114.944211 Z-0.125000 I-19.295247 J23.583089
G01 X44.397448 Y115.966984 Z-0.125000
G02 X44.834569 Y116.322326 Z-0.125000 I5.115770 J-5.846600
G02 X45.154562 Y116.538140 Z-0.125000 I2.196323 J-2.911410
G02 X45.498395 Y116.694922 Z-0.125000 I0.865149 J-1.441910
G02 X45.765571 Y116.737383 Z-0.125000 I0.267176 J-0.819334
G02 X46.050472 Y116.625991 Z-0.125000 I0.000000 J-0.420036
G02 X46.628951 Y115.940419 Z-0.125000 I-2.449800 J-2.653955
G02 X47.108905 Y115.127903 Z-0.125000 I-7.214354 J-4.809544
G02 X47.160259 Y114.917645 Z-0.125000 I-0.404747 J-0.210257
G02 X47.101589 Y114.659837 Z-0.125000 I-0.595769 J0.000000
G02 X46.841472 Y114.253509 Z-0.125000 I-1.788323 J0.858399
G02 X46.524564 Y113.878142 Z-0.125000 I-6.282687 J4.982780
G02 X45.553046 Y112.818970 Z-0.125000 I-51.064571 J45.863489
G03 X43.824730 Y110.817717 Z-0.125000 I25.731792 J-23.969336
G03 X42.418316 Y108.900557 Z-0.125000 I22.203058 J-17.762443
G03 X41.176747 Y106.887669 Z-0.125000 I23.601819 J-15.947187
G03 X40.399338 Y105.300932 Z-0.125000 I13.867434 J-7.778044
G03 X39.841307 Y103.656487 Z-0.125000 I11.652046 J-4.870944
G03 X39.721917 Y102.737360 Z-0.125000 I3.478260 J-0.919126
G03 X39.790887 Y102.177114 Z-0.125000 I2.309949 J0.000000
G03 X39.934442 Y101.887265 Z-0.125000 I0.735807 J0.183952
G03 X40.197010 Y101.701104 Z-0.125000 I0.496478 J0.422004
G03 X40.625144 Y101.621609 Z-0.125000 I0.428134 J1.113144
G03 X41.041303 Y101.663501 Z-0.125000 I-0.000000 J2.088004
G03 X41.408827 Y101.781002 Z-0.125000 I-0.354160 J1.741284
G03 X41.770759 Y101.958832 Z-0.125000 I-1.534026 J3.579394
G03 X42.219076 Y102.232617 Z-0.125000 I-3.217263 J5.772138
G03 X42.669735 Y102.526286 Z-0.125000 I-45.288501 J69.991558
G03 X43.069172 Y102.790491 Z-0.125000 I-36.257079 J55.248978
G03 X43.620545 Y103.132617 Z-0.125000 I-8.997938 J15.116523
G03 X44.158357 Y103.494478 Z-0.125000 I-9.529411 J14.743608
G03 X44.702050 Y103.880932 Z-0.125000 I-83.199357 J117.626803
G03 X44.995172 Y104.092202 Z-0.125000 I-24.571540 J34.400179
G02 X45.303024 Y104.314586 Z-0.125000 I10.333282 J-13.980345
G02 X45.446784 Y104.410986 Z-0.125000 I2.082551 J-2.950289
G01 X45.446784 Y104.410986 Z-0.125000
G00 Z5.000000

(End cutting path id: path4197)


(Start cutting path id: path4209)
(Change tool to Default tool)

G00 Z5.000000
G00 X32.203878 Y70.354008

G01 Z-0.125000 F100.0(Penetrate)
G01 X32.203878 Y69.517194 Z-0.125000 F400.000000
G02 X31.032184 Y68.351892 Z-0.125000 I-41.910264 J40.968457
G02 X30.198182 Y67.577912 Z-0.125000 I-19.313136 J19.974560
G02 X29.337054 Y66.867078 Z-0.125000 I-10.146771 J11.415103
G02 X28.723796 Y66.448877 Z-0.125000 I-4.103352 J5.358486
G02 X28.078702 Y66.137019 Z-0.125000 I-1.837919 J2.978694
G02 X27.661177 Y66.063677 Z-0.125000 I-0.417525 J1.151794
G02 X26.953106 Y66.391661 Z-0.125000 I0.000000 J0.928305
G02 X26.625122 Y67.285691 Z-0.125000 I1.054497 J0.894030
G02 X26.756239 Y68.237948 Z-0.125000 I3.523530 J0.000000
G02 X27.262694 Y69.557041 Z-0.125000 I7.330170 J-2.057592
G02 X27.965644 Y70.827975 Z-0.125000 I15.629156 J-7.814574
G02 X29.122280 Y72.612077 Z-0.125000 I31.989370 J-19.471773
G03 X28.542227 Y72.254090 Z-0.125000 I3.611818 J-6.501229
G03 X27.993246 Y71.841675 Z-0.125000 I4.253672 J-6.233813
G03 X27.482991 Y71.394798 Z-0.125000 I4.758165 J-5.947730
G03 X27.050170 Y70.938448 Z-0.125000 I4.530124 J-4.729985
G03 X26.640939 Y70.471367 Z-0.125000 I43.143402 J-38.212739
G03 X26.359467 Y70.141484 Z-0.125000 I21.237718 J-18.406043
G03 X25.512424 Y69.158229 Z-0.125000 I29.594040 J-26.350827
G03 X24.699123 Y68.149071 Z-0.125000 I30.361305 J-25.301090
G02 X23.893607 Y67.146845 Z-0.125000 I-57.867055 J45.684516
G02 X23.623220 Y66.834079 Z-0.125000 I-5.899437 J4.826815
G02 X23.317692 Y66.588859 Z-0.125000 I-0.940065 J0.858314
G02 X23.091910 Y66.528574 Z-0.125000 I-0.225782 J0.392661
G02 X22.472675 Y66.945393 Z-0.125000 I0.000000 J0.668384
G02 X22.055855 Y69.078863 Z-0.125000 I5.251622 J2.133470
G02 X22.112310 Y69.908728 Z-0.125000 I6.127568 J0.000000
G02 X22.308227 Y70.925167 Z-0.125000 I9.402730 J-1.285265
G02 X22.667475 Y71.887495 Z-0.125000 I4.445821 J-1.111455
G02 X23.663068 Y73.595000 Z-0.125000 I15.131077 J-7.678457
G02 X26.023271 Y77.049835 Z-0.125000 I166.465517 J-111.188863
G02 X27.634611 Y79.280017 Z-0.125000 I70.962390 J-49.574207
G02 X29.342606 Y81.457694 Z-0.125000 I49.099942 J-36.751405
G02 X30.384141 Y82.627271 Z-0.125000 I15.175677 J-12.465729
G02 X31.521062 Y83.646130 Z-0.125000 I7.043341 J-6.715743
G02 X31.845245 Y83.743023 Z-0.125000 I0.290124 J-0.379925
G02 X32.299652 Y83.667245 Z-0.125000 I-0.246953 J-2.881210
G02 X32.589078 Y83.557064 Z-0.125000 I-0.316948 J-1.267785
G02 X32.824398 Y83.375788 Z-0.125000 I-0.346744 J-0.693495
G02 X32.881299 Y83.224996 Z-0.125000 I-0.171354 J-0.150792
G02 X32.817726 Y82.910623 Z-0.125000 I-0.809085 J-0.000000
G02 X32.416403 Y82.122528 Z-0.125000 I-5.668263 J2.390233
G02 X31.948097 Y81.376119 Z-0.125000 I-16.821304 J10.033779
G02 X30.849037 Y79.744913 Z-0.125000 I-81.482291 J53.714582
G02 X29.638390 Y78.032801 Z-0.125000 I-763.508943 J538.598770
G02 X29.135561 Y77.327454 Z-0.125000 I-130.086963 J92.204591
G02 X28.623308 Y76.642433 Z-0.125000 I-31.366340 J22.921428
G02 X27.621329 Y75.348323 Z-0.125000 I-112.960368 J86.425932
G02 X26.616957 Y74.079750 Z-0.125000 I-98.425861 J76.895156
G02 X25.788309 Y73.063689 Z-0.125000 I-63.968129 J51.323250
G02 X24.952149 Y72.078433 Z-0.125000 I-38.511655 J31.836360
G02 X23.902158 Y70.898601 Z-0.125000 I-56.279710 J49.028978
G01 X23.902158 Y69.304669 Z-0.125000
G02 X25.708650 Y71.258175 Z-0.125000 I71.296732 J-64.119173
G02 X26.983756 Y72.545661 Z-0.125000 I32.229593 J-30.644527
G02 X28.319494 Y73.766482 Z-0.125000 I21.440639 J-22.117714
G02 X29.188692 Y74.445096 Z-0.125000 I7.465967 J-8.666778
G02 X30.121513 Y75.004272 Z-0.125000 I3.771318 J-5.233677
G02 X30.516968 Y75.095951 Z-0.125000 I0.395456 J-0.807053
G02 X30.863423 Y74.994196 Z-0.125000 I0.000000 J-0.640683
G02 X31.260802 Y74.617771 Z-0.125000 I-0.796102 J-1.238377
G02 X31.545129 Y74.132688 Z-0.125000 I-2.079354 J-1.544668
G02 X31.606154 Y73.847372 Z-0.125000 I-0.636473 J-0.285316
G02 X31.581983 Y73.721862 Z-0.125000 I-0.337943 J0.000000
G02 X31.473326 Y73.515304 Z-0.125000 I-1.046228 J0.418493
G03 X30.528473 Y72.363841 Z-0.125000 I57.894728 J-48.469981
G03 X29.945810 Y71.615869 Z-0.125000 I23.841152 J-19.172944
G03 X29.416227 Y70.854377 Z-0.125000 I10.356588 J-7.767431
G03 X29.082433 Y70.274312 Z-0.125000 I5.667441 J-3.647357
G03 X28.837629 Y69.674961 Z-0.125000 I3.059744 J-1.599419
G03 X28.776927 Y69.264822 Z-0.125000 I1.355229 J-0.410138
G03 X28.955785 Y68.819390 Z-0.125000 I0.644087 J-0.000000
G03 X29.374651 Y68.640533 Z-0.125000 I0.418866 J0.401042
G03 X29.956278 Y68.802929 Z-0.125000 I-0.000000 J1.122756
G03 X32.203878 Y70.354008 Z-0.125000 I-11.894618 J19.639951
G01 X32.203878 Y70.354008 Z-0.125000
G00 Z5.000000

(End cutting path id: path4209)


(Start cutting path id: path4211)
(Change tool to Default tool)

G00 Z5.000000
G00 X32.071051 Y69.331235

G01 Z-0.125000 F100.0(Penetrate)
G01 X32.071051 Y70.194615 Z-0.125000 F400.000000
G03 X32.763160 Y71.063005 Z-0.125000 I-15.188341 J12.815155
G03 X33.160236 Y71.642435 Z-0.125000 I-6.354265 J4.780274
G02 X32.758649 Y71.824798 Z-0.125000 I0.754401 J2.194643
G02 X32.535947 Y72.001068 Z-0.125000 I0.479368 J0.834457
G02 X32.407616 Y72.235246 Z-0.125000 I0.465613 J0.407411
G02 X32.349988 Y72.638642 Z-0.125000 I1.383073 J0.403396
G02 X32.423755 Y73.098010 Z-0.125000 I1.467177 J-0.000000
G02 X32.748471 Y73.847372 Z-0.125000 I4.293553 J-1.415462
G02 X33.188857 Y74.547969 Z-0.125000 I5.878858 J-3.206656
G02 X33.731395 Y75.215495 Z-0.125000 I5.876578 J-4.222008
G02 X34.357610 Y75.791987 Z-0.125000 I3.705298 J-3.396522
G02 X34.794015 Y76.039025 Z-0.125000 I1.068784 J-1.379077
G02 X34.985021 Y76.110629 Z-0.125000 I0.435262 J-0.870512
G02 X35.152649 Y76.132006 Z-0.125000 I0.167628 J-0.646554
G02 X35.342501 Y76.056202 Z-0.125000 I0.000000 J-0.275647
G02 X35.418305 Y75.879632 Z-0.125000 I-0.167743 J-0.176571
G02 X35.372608 Y75.666413 Z-0.125000 I-0.520279 J-0.000000
G02 X35.006540 Y74.963123 Z-0.125000 I-6.274056 J2.818782
G02 X37.746165 Y75.344403 Z-0.125000 I13.416697 J-86.370296
G02 X38.460057 Y75.388170 Z-0.125000 I0.713892 J-5.800393
G02 X38.734546 Y75.369329 Z-0.125000 I0.000000 J-2.008882
G02 X38.845256 Y75.335039 Z-0.125000 I-0.048707 J-0.353124
G02 X39.022791 Y75.174603 Z-0.125000 I-0.228100 J-0.430858
G02 X39.217171 Y74.777164 Z-0.125000 I-1.386694 J-0.924460
G02 X39.327486 Y74.333025 Z-0.125000 I-2.775119 J-0.925052
G02 X39.363283 Y73.900503 Z-0.125000 I-2.595096 J-0.432521
G02 X39.311411 Y73.639041 Z-0.125000 I-0.684884 J0.000000
G02 X39.110909 Y73.289495 Z-0.125000 I-1.446663 J0.597538
G02 X38.859324 Y72.981314 Z-0.125000 I-3.869765 J2.902315
G02 X38.274097 Y72.346421 Z-0.125000 I-17.044501 J15.123985
G03 X37.623374 Y71.551194 Z-0.125000 I5.951840 J-5.534166
G03 X37.091931 Y70.699358 Z-0.125000 I6.303833 J-4.524528
G03 X36.688578 Y69.790586 Z-0.125000 I5.819060 J-3.126655
G03 X36.613753 Y69.357801 Z-0.125000 I1.214208 J-0.432786
G03 X36.815302 Y68.935060 Z-0.125000 I0.544115 J0.000000
G03 X37.384152 Y68.733511 Z-0.125000 I0.568850 J0.701984
G03 X38.122753 Y68.933656 Z-0.125000 I-0.000000 J1.462913
G03 X40.200095 Y70.380574 Z-0.125000 I-8.083539 J13.820227
G01 X40.200095 Y69.490628 Z-0.125000
G02 X39.084441 Y68.348414 Z-0.125000 I-49.110057 J46.852115
G02 X38.380360 Y67.670891 Z-0.125000 I-17.974718 J17.974690
G02 X37.641361 Y67.034611 Z-0.125000 I-9.176854 J9.911044
G02 X37.052084 Y66.608270 Z-0.125000 I-4.693874 J5.867345
G02 X36.418486 Y66.301259 Z-0.125000 I-1.690514 J2.681515
G02 X35.962898 Y66.223071 Z-0.125000 I-0.455588 J1.288217
G02 X35.468463 Y66.348622 Z-0.125000 I-0.000000 J1.036349
G02 X35.033105 Y66.727817 Z-0.125000 I0.633317 J1.166634
G02 X34.776007 Y67.282793 Z-0.125000 I1.323329 J0.950085
G02 X34.661187 Y68.215484 Z-0.125000 I3.730747 J0.932690
G02 X34.723185 Y68.774702 Z-0.125000 I2.553058 J-0.000000
G02 X34.953409 Y69.517194 Z-0.125000 I4.755164 J-1.067488
G02 X35.285042 Y70.227196 Z-0.125000 I6.446074 J-2.578435
G02 X35.803504 Y71.097842 Z-0.125000 I10.224134 J-5.498690
G02 X36.397671 Y71.944161 Z-0.125000 I15.590026 J-10.313393
G02 X37.078649 Y72.811317 Z-0.125000 I17.049024 J-12.687649
G02 X36.706438 Y72.733036 Z-0.125000 I-10.484072 J48.925671
G02 X36.241835 Y72.638642 Z-0.125000 I-15.710350 J76.135267
G03 X35.777107 Y72.557988 Z-0.125000 I19.323638 J-112.720877
G03 X35.258911 Y72.465965 Z-0.125000 I24.637437 J-140.242327
G03 X34.741062 Y72.372023 Z-0.125000 I24.962472 J-139.078359
G03 X34.461947 Y72.319855 Z-0.125000 I7.416794 J-40.455489
G02 X33.484867 Y70.792767 Z-0.125000 I-7.695820 J3.847903
G02 X32.071051 Y69.331235 Z-0.125000 I-8.452794 J6.762235
G01 X32.071051 Y69.331235 Z-0.125000
G00 Z5.000000

(End cutting path id: path4211)


(Start cutting path id: path4207)
(Change tool to Default tool)

G00 Z5.000000
G00 X22.401207 Y70.407139

G01 Z-0.125000 F100.0(Penetrate)
G01 X22.401207 Y69.543760 Z-0.125000 F400.000000
G02 X20.105374 Y67.125693 Z-0.125000 I-45.029189 J40.454038
G02 X18.296836 Y65.452672 Z-0.125000 I-23.330270 J23.406020
G02 X16.356859 Y63.953756 Z-0.125000 I-13.665207 J15.681369
G02 X14.657362 Y62.968797 Z-0.125000 I-7.527300 J11.029307
G02 X12.830352 Y62.294447 Z-0.125000 I-4.141623 J8.408729
G02 X11.217128 Y62.092133 Z-0.125000 I-1.613223 J6.330663
G02 X9.823513 Y62.251127 Z-0.125000 I0.000000 J6.187188
G02 X8.746536 Y62.663292 Z-0.125000 I0.941919 J4.074348
G02 X7.858251 Y63.361073 Z-0.125000 I1.766117 J3.162582
G02 X7.192454 Y64.336920 Z-0.125000 I2.903238 J2.695862
G02 X6.819801 Y65.458916 Z-0.125000 I4.341380 J2.064802
G02 X6.674427 Y66.927057 Z-0.125000 I7.340705 J1.468141
G02 X6.761087 Y68.097202 Z-0.125000 I7.943347 J-0.000000
G02 X7.046344 Y69.424216 Z-0.125000 I10.513660 J-1.565864
G02 X7.501629 Y70.723957 Z-0.125000 I12.101888 J-3.509552
G02 X8.148812 Y72.094049 Z-0.125000 I14.099153 J-5.822037
G02 X8.914438 Y73.418827 Z-0.125000 I18.213417 J-9.642411
G02 X9.902136 Y74.883427 Z-0.125000 I23.256096 J-14.618124
G02 X10.987604 Y76.288770 Z-0.125000 I27.425956 J-20.061564
G02 X12.359445 Y77.898613 Z-0.125000 I37.369648 J-30.455427
G02 X13.871857 Y79.479207 Z-0.125000 I24.201769 J-21.643898
G02 X15.241803 Y80.714555 Z-0.125000 I16.133209 J-16.513715
G02 X16.701029 Y81.856223 Z-0.125000 I16.841925 J-20.023173
G02 X17.818657 Y82.587424 Z-0.125000 I7.993274 J-10.997834
G02 X18.999079 Y83.210432 Z-0.125000 I7.571854 J-12.916738
G02 X19.957180 Y83.596914 Z-0.125000 I3.829136 J-8.111723
G02 X20.963760 Y83.865060 Z-0.125000 I2.684071 J-8.052225
G02 X21.604242 Y83.928982 Z-0.125000 I0.640482 J-3.176795
G02 X22.241051 Y83.840803 Z-0.125000 I-0.000000 J-2.343537
G02 X22.733276 Y83.610195 Z-0.125000 I-0.455250 J-1.612338
G02 X23.129366 Y83.235687 Z-0.125000 I-0.990047 J-1.443815
G02 X23.450544 Y82.680403 Z-0.125000 I-1.919570 J-1.480811
G02 X23.633283 Y82.055582 Z-0.125000 I-2.812564 J-1.161714
G02 X23.702917 Y81.272430 Z-0.125000 I-4.369168 J-0.783153
G02 X23.487055 Y79.827274 Z-0.125000 I-4.945461 J-0.000000
G02 X22.680145 Y77.925178 Z-0.125000 I-9.456817 J2.889585
G02 X21.559393 Y76.161885 Z-0.125000 I-15.945039 J8.896861
G02 X20.129856 Y74.378681 Z-0.125000 I-17.738369 J12.755673
G02 X18.540913 Y72.730764 Z-0.125000 I-21.858642 J19.486384
G02 X17.207650 Y71.576022 Z-0.125000 I-12.033391 J12.546674
G02 X15.777437 Y70.642214 Z-0.125000 I-6.308055 J8.099220
G02 X15.215237 Y70.500118 Z-0.125000 I-0.562199 J1.041109
G02 X14.832397 Y70.576198 Z-0.125000 I0.000000 J1.001273
G02 X14.444838 Y70.818904 Z-0.125000 I0.525454 J1.269845
G02 X14.182599 Y71.186358 Z-0.125000 I0.849738 J0.883729
G02 X14.099486 Y71.562738 Z-0.125000 I0.810663 J0.376380
G02 X14.246842 Y72.271224 Z-0.125000 I1.776873 J0.000000
G02 X14.896451 Y73.395757 Z-0.125000 I5.248177 J-2.281816
G02 X15.748302 Y74.434436 Z-0.125000 I12.956433 J-9.757303
G02 X16.649775 Y75.361604 Z-0.125000 I11.217715 J-10.004992
G02 X17.628711 Y76.208045 Z-0.125000 I10.124765 J-10.720311
G02 X17.792091 Y76.264834 Z-0.125000 I0.163380 J-0.206628
G02 X17.859963 Y76.239726 Z-0.125000 I0.000000 J-0.104291
G02 X17.885071 Y76.185137 Z-0.125000 I-0.046791 J-0.054589
G02 X17.865293 Y76.070259 Z-0.125000 I-0.343523 J-0.000000
G02 X17.738960 Y75.773372 Z-0.125000 I-2.480317 J0.880114
G03 X17.617592 Y75.478669 Z-0.125000 I4.035041 J-1.834102
G03 X17.606133 Y75.414735 Z-0.125000 I0.172621 J-0.063933
G03 X17.632698 Y75.335039 Z-0.125000 I0.132828 J-0.000000
G03 X17.685829 Y75.308473 Z-0.125000 I0.053131 J0.039848
G03 X17.877812 Y75.383863 Z-0.125000 I-0.000000 J0.282140
G03 X18.987539 Y76.517205 Z-0.125000 I-11.354248 J12.227634
G03 X20.004802 Y77.769526 Z-0.125000 I-13.357493 J11.889644
G03 X20.953387 Y79.173755 Z-0.125000 I-15.857689 J11.734695
G03 X21.695215 Y80.680718 Z-0.125000 I-7.434201 J4.595685
G03 X21.856614 Y81.564651 Z-0.125000 I-2.339823 J0.883933
G03 X21.803752 Y81.930132 Z-0.125000 I-1.289874 J-0.000000
G03 X21.683938 Y82.149094 Z-0.125000 I-0.565122 J-0.166967
G03 X21.493406 Y82.299337 Z-0.125000 I-0.378142 J-0.283609
G03 X21.192476 Y82.361616 Z-0.125000 I-0.300930 J-0.695907
G03 X20.337673 Y82.147251 Z-0.125000 I0.000000 J-1.811498
G03 X18.363250 Y80.847383 Z-0.125000 I6.150390 J-11.491531
G03 X16.567679 Y79.252751 Z-0.125000 I13.842623 J-17.395159
G03 X14.484686 Y77.008667 Z-0.125000 I25.421610 J-25.685501
G03 X12.635372 Y74.595718 Z-0.125000 I22.526624 J-19.179817
G03 X11.177280 Y72.200309 Z-0.125000 I20.740831 J-14.266478
G03 X10.119258 Y69.648712 Z-0.125000 I12.448373 J-6.656886
G03 X9.849005 Y67.830284 Z-0.125000 I5.982625 J-1.818428
G03 X9.942000 Y66.760504 Z-0.125000 I6.199656 J0.000000
G03 X10.167791 Y66.010546 Z-0.125000 I3.248649 J0.569106
G03 X10.584234 Y65.353203 Z-0.125000 I2.573396 J1.169725
G03 X11.124149 Y64.881513 Z-0.125000 I1.830927 J1.550904
G03 X11.793303 Y64.593148 Z-0.125000 I1.277667 J2.044261
G03 X12.651666 Y64.483030 Z-0.125000 I0.858363 J3.290383
G03 X14.490907 Y64.790084 Z-0.125000 I0.000000 J5.662012
G03 X17.021692 Y65.983981 Z-0.125000 I-4.141895 J12.059148
G03 X19.343791 Y67.639803 Z-0.125000 I-10.871054 J17.701542
G03 X22.401207 Y70.407139 Z-0.125000 I-27.583598 J33.547604
G01 X22.401207 Y70.407139 Z-0.125000
G00 Z5.000000

(End cutting path id: path4207)


(Footer)
M5
G00 X0.0000 Y0.0000
M2
(Using default footer. To add your own footer create file "footer" in the output dir.)
(end)
%