%
(Header)
(Generated by gcodetools from Inkscape.)
(Using default header. To add your own header create file "header" in the output dir.)
M3
(Header end.)
G21 (All units in mm)

(Start cutting path id: path4217)
(Change tool to Default tool)

G00 Z5.000000
G00 X6.853969 Y184.255125

G01 Z-0.125000 F100.0(Penetrate)
G01 X6.853969 Y277.340028 Z-0.125000 F400.000000
G01 X104.019046 Y277.340028 Z-0.125000
G01 X201.184125 Y277.340028 Z-0.125000
G01 X201.184125 Y184.255125 Z-0.125000
G01 X201.184125 Y91.170223 Z-0.125000
G01 X104.019046 Y91.170223 Z-0.125000
G01 X6.853969 Y91.170223 Z-0.125000
G01 X6.853969 Y184.255125 Z-0.125000
G01 X6.853969 Y184.255125 Z-0.125000
G00 Z5.000000

(End cutting path id: path4217)


(Start cutting path id: path4217)
(Change tool to Default tool)

G00 Z5.000000
G00 X13.496114 Y182.167592

G01 Z-0.125000 F100.0(Penetrate)
G03 X13.540220 Y182.362024 Z-0.125000 I-0.169496 J0.140668 F400.000000
G03 X13.424463 Y182.452255 Z-0.125000 I-0.115757 J-0.029136
G03 X13.203180 Y182.365637 Z-0.125000 I-0.000000 J-0.325966
G03 X13.116562 Y182.167592 Z-0.125000 I0.183099 J-0.198045
G03 X13.147949 Y181.914313 Z-0.125000 I1.037620 J-0.000000
G01 X13.188212 Y181.882928 Z-0.125000
G03 X13.248739 Y181.906621 Z-0.125000 I-0.000000 J0.089160
G03 X13.496114 Y182.167592 Z-0.125000 I-1.852478 J2.003695
G01 X13.496114 Y182.167592 Z-0.125000
G00 Z5.000000

(End cutting path id: path4217)


(Start cutting path id: path4217)
(Change tool to Default tool)

G00 Z5.000000
G00 X15.808838 Y182.221341

G01 Z-0.125000 F100.0(Penetrate)
G03 X16.497163 Y182.751299 Z-0.125000 I-12.242153 J16.612445 F400.000000
G03 X17.866311 Y183.875572 Z-0.125000 I-53.771762 J66.879479
G02 X19.242002 Y184.989460 Z-0.125000 I33.064396 J-39.429244
G02 X19.687327 Y185.298887 Z-0.125000 I2.973951 J-3.804929
G03 X20.018434 Y185.647806 Z-0.125000 I-0.488924 J0.795525
G03 X20.096936 Y186.050986 Z-0.125000 I-0.597956 J0.325659
G03 X19.883870 Y186.396058 Z-0.125000 I-0.473920 J-0.054309
G03 X18.368720 Y187.179765 Z-0.125000 I-4.615139 J-7.066015
G03 X16.706432 Y187.709543 Z-0.125000 I-4.744203 J-12.013143
G03 X16.409319 Y187.661211 Z-0.125000 I-0.091747 J-0.373395
G03 X15.815511 Y186.961647 Z-0.125000 I0.819934 J-1.297782
G03 X14.910287 Y184.118605 Z-0.125000 I14.947011 J-6.324758
G02 X14.719438 Y183.624877 Z-0.125000 I-1.700028 J0.373389
G02 X14.536811 Y183.468585 Z-0.125000 I-0.311219 J0.178815
G02 X13.825735 Y183.548775 Z-0.125000 I-0.278281 J0.725171
G02 X13.496114 Y184.166910 Z-0.125000 I0.414781 J0.618135
G03 X13.386692 Y184.275676 Z-0.125000 I-0.108768 J0.000000
G03 X13.120866 Y184.164653 Z-0.125000 I0.002281 J-0.379210
G03 X12.853422 Y183.766484 Z-0.125000 I0.879958 J-0.879958
G03 X12.849563 Y183.518533 Z-0.125000 I0.306693 J-0.128779
G03 X13.707255 Y182.713516 Z-0.125000 I1.260703 J0.483779
G03 X15.025747 Y182.838036 Z-0.125000 I0.510843 J1.633635
G03 X16.021235 Y183.950706 Z-0.125000 I-1.028586 J1.921917
G03 X16.532520 Y186.606761 Z-0.125000 I-6.643271 J2.656055
G02 X16.754796 Y186.817473 Z-0.125000 I0.211013 J0.000000
G02 X17.889964 Y186.534204 Z-0.125000 I-0.164354 J-3.074794
G03 X18.922493 Y186.139133 Z-0.125000 I3.323491 J7.139218
G03 X19.474044 Y186.052530 Z-0.125000 I0.584292 J1.921563
G01 X20.043370 Y186.043245 Z-0.125000
G01 X19.473488 Y185.794884 Z-0.125000
G03 X18.941052 Y185.488300 Z-0.125000 I1.103360 J-2.531802
G03 X17.860396 Y184.609076 Z-0.125000 I8.411002 J-11.441714
G02 X15.186963 Y182.424905 Z-0.125000 I-24.537519 J27.305764
G02 X14.695494 Y182.262588 Z-0.125000 I-0.491470 J0.662887
G03 X14.393078 Y182.068418 Z-0.125000 I0.000000 J-0.332588
G03 X14.492435 Y181.818946 Z-0.125000 I0.168838 J-0.077278
G03 X14.967345 Y181.798323 Z-0.125000 I0.266593 J0.660690
G03 X15.808838 Y182.221448 Z-0.125000 I-0.817850 J2.674827
G01 X15.808838 Y182.221341 Z-0.125000
G00 Z5.000000

(End cutting path id: path4217)


(Start cutting path id: path4217)
(Change tool to Default tool)

G00 Z5.000000
G00 X13.786461 Y177.802757

G01 Z-0.125000 F100.0(Penetrate)
G03 X13.802013 Y178.341613 Z-0.125000 I-1.806185 J0.321780 F400.000000
G01 X13.718621 Y178.372084 Z-0.125000
G03 X13.579453 Y178.149237 Z-0.125000 I0.347563 J-0.371931
G03 X13.398914 Y177.328319 Z-0.125000 I4.981963 J-1.525963
G03 X13.540269 Y177.266826 Z-0.125000 I0.079340 J-0.010835
G03 X13.786461 Y177.802757 Z-0.125000 I-0.907769 J0.741517
G01 X13.786461 Y177.802757 Z-0.125000
G00 Z5.000000

(End cutting path id: path4217)


(Start cutting path id: path4217)
(Change tool to Default tool)

G00 Z5.000000
G00 X13.755600 Y174.228031

G01 Z-0.125000 F100.0(Penetrate)
G03 X13.732947 Y175.143545 Z-0.125000 I-2.830736 J0.387994 F400.000000
G03 X13.574405 Y175.192563 Z-0.125000 I-0.092204 J-0.017321
G03 X13.091424 Y174.290575 Z-0.125000 I1.249166 J-1.249186
G03 X13.234296 Y173.495840 Z-0.125000 I1.078883 J-0.216256
G03 X13.462356 Y173.488409 Z-0.125000 I0.116497 J0.071999
G03 X13.755600 Y174.228031 Z-0.125000 I-1.356407 J0.965731
G01 X13.755600 Y174.228031 Z-0.125000
G00 Z5.000000

(End cutting path id: path4217)


(Start cutting path id: path4217)
(Change tool to Default tool)

G00 Z5.000000
G00 X13.603158 Y170.578286

G01 Z-0.125000 F100.0(Penetrate)
G03 X13.696010 Y171.495477 Z-0.125000 I-2.439137 J0.710221 F400.000000
G03 X13.522575 Y171.564113 Z-0.125000 I-0.103652 J-0.008473
G03 X12.763799 Y170.163755 Z-0.125000 I1.608392 J-1.777246
G03 X13.069987 Y168.721447 Z-0.125000 I2.028654 J-0.322991
G03 X13.158501 Y168.723963 Z-0.125000 I0.043490 J0.028261
G03 X13.271050 Y169.073082 Z-0.125000 I-0.772639 J0.441785
G02 X13.362347 Y169.636189 Z-0.125000 I5.030017 J-0.526567
G02 X13.603158 Y170.578286 Z-0.125000 I14.349188 J-3.165991
G01 X13.603158 Y170.578286 Z-0.125000
G00 Z5.000000

(End cutting path id: path4217)


(Start cutting path id: path4217)
(Change tool to Default tool)

G00 Z5.000000
G00 X13.425564 Y187.054315

G01 Z-0.125000 F100.0(Penetrate)
G02 X13.454252 Y189.354731 Z-0.125000 I17.253631 J0.935219 F400.000000
G02 X13.690644 Y190.398868 Z-0.125000 I3.729915 J-0.295622
G03 X13.748622 Y191.022149 Z-0.125000 I-1.082141 J0.414998
G03 X13.570584 Y191.056065 Z-0.125000 I-0.095576 J-0.017460
G02 X13.219774 Y190.528915 Z-0.125000 I-8.958833 J5.581659
G02 X12.938649 Y190.165595 Z-0.125000 I-4.530664 J3.215251
G03 X12.774294 Y189.767343 Z-0.125000 I0.542684 J-0.456999
G03 X12.710009 Y187.413849 Z-0.125000 I21.113868 J-1.754345
G03 X13.042098 Y185.002062 Z-0.125000 I11.231391 J0.317740
G03 X13.381512 Y184.732470 Z-0.125000 I0.345499 J0.086524
G03 X13.464994 Y184.812977 Z-0.125000 I0.001420 J0.082065
G03 X13.425564 Y187.054315 Z-0.125000 I-30.659526 J0.581648
G01 X13.425564 Y187.054315 Z-0.125000
G00 Z5.000000

(End cutting path id: path4217)


(Start cutting path id: path4217)
(Change tool to Default tool)

G00 Z5.000000
G00 X13.478681 Y192.598672

G01 Z-0.125000 F100.0(Penetrate)
G03 X13.809629 Y193.907697 Z-0.125000 I-7.116724 J2.495600 F400.000000
G03 X13.706494 Y194.028565 Z-0.125000 I-0.103135 J0.016432
G03 X13.247314 Y193.708037 Z-0.125000 I0.000000 J-0.489169
G03 X12.926787 Y191.905565 Z-0.125000 I4.907810 J-1.802472
G03 X13.068311 Y191.856103 Z-0.125000 I0.079406 J0.000000
G03 X13.478681 Y192.598672 Z-0.125000 I-1.989440 J1.584111
G01 X13.478681 Y192.598672 Z-0.125000
G00 Z5.000000

(End cutting path id: path4217)


(Start cutting path id: path4217)
(Change tool to Default tool)

G00 Z5.000000
G00 X16.258731 Y193.000316

G01 Z-0.125000 F100.0(Penetrate)
G03 X15.589469 Y193.235820 Z-0.125000 I-0.724921 J-0.991386 F400.000000
G03 X15.439567 Y193.037479 Z-0.125000 I-0.006835 J-0.150652
G03 X15.926696 Y192.541668 Z-0.125000 I0.750525 J0.250178
G03 X16.532224 Y192.651682 Z-0.125000 I0.206501 J0.584851
G03 X16.540165 Y192.728244 Z-0.125000 I-0.035623 J0.042388
G03 X16.258731 Y193.000316 Z-0.125000 I-1.126603 J-0.883774
G01 X16.258731 Y193.000316 Z-0.125000
G00 Z5.000000

(End cutting path id: path4217)


(Start cutting path id: path4217)
(Change tool to Default tool)

G00 Z5.000000
G00 X17.481399 Y193.554127

G01 Z-0.125000 F100.0(Penetrate)
G03 X17.729554 Y193.943098 Z-0.125000 I-0.907678 J0.852721 F400.000000
G03 X17.671755 Y194.028565 Z-0.125000 I-0.057798 J0.023190
G03 X16.974187 Y193.776671 Z-0.125000 I-0.000000 J-1.091836
G03 X16.722298 Y193.240050 Z-0.125000 I0.445662 J-0.536621
G03 X16.876975 Y193.136654 Z-0.125000 I0.111897 J0.000000
G03 X17.481399 Y193.554127 Z-0.125000 I-0.666885 J1.611812
G01 X17.481399 Y193.554127 Z-0.125000
G00 Z5.000000

(End cutting path id: path4217)


(Start cutting path id: path4217)
(Change tool to Default tool)

G00 Z5.000000
G00 X16.152971 Y194.563356

G01 Z-0.125000 F100.0(Penetrate)
G02 X16.209652 Y194.821223 Z-0.125000 I0.614920 J-0.000000 F400.000000
G02 X16.924248 Y196.233039 Z-0.125000 I20.051334 J-9.262303
G03 X17.577438 Y198.391620 Z-0.125000 I-4.723613 J2.607493
G03 X17.149292 Y198.928484 Z-0.125000 I-0.498482 J0.041619
G03 X16.876180 Y198.771910 Z-0.125000 I-0.036024 J-0.253644
G03 X16.983503 Y198.523552 Z-0.125000 I0.175114 J-0.071695
G02 X17.196694 Y198.091029 Z-0.125000 I-0.127211 J-0.331505
G02 X15.856194 Y194.724844 Z-0.125000 I-19.218698 J5.703368
G03 X15.633249 Y194.176218 Z-0.125000 I3.166833 J-1.606524
G03 X15.589678 Y193.870856 Z-0.125000 I0.919654 J-0.287010
G03 X15.675753 Y193.800377 Z-0.125000 I0.073034 J0.001395
G03 X15.874341 Y193.922506 Z-0.125000 I-0.057273 J0.315651
G03 X16.099998 Y194.308661 Z-0.125000 I-1.505832 J1.138970
G03 X16.152971 Y194.563356 Z-0.125000 I-0.585804 J0.254695
G01 X16.152971 Y194.563356 Z-0.125000
G00 Z5.000000

(End cutting path id: path4217)


(Start cutting path id: path4217)
(Change tool to Default tool)

G00 Z5.000000
G00 X17.939155 Y196.212155

G01 Z-0.125000 F100.0(Penetrate)
G03 X18.557621 Y197.456890 Z-0.125000 I-4.900426 J3.210865 F400.000000
G03 X18.470470 Y197.703553 Z-0.125000 I-0.195508 J0.069651
G03 X18.365857 Y197.680999 Z-0.125000 I-0.040481 J-0.066128
G03 X17.830325 Y196.761393 Z-0.125000 I6.341703 J-4.308828
G03 X17.762421 Y196.246550 Z-0.125000 I0.725634 J-0.357605
G03 X17.939155 Y196.212155 Z-0.125000 I0.095393 J0.018902
G01 X17.939155 Y196.212155 Z-0.125000
G00 Z5.000000

(End cutting path id: path4217)


(Start cutting path id: path4217)
(Change tool to Default tool)

G00 Z5.000000
G00 X20.306799 Y196.863888

G01 Z-0.125000 F100.0(Penetrate)
G03 X20.389171 Y197.398232 Z-0.125000 I-1.213990 J0.460664 F400.000000
G03 X20.275329 Y197.417594 Z-0.125000 I-0.059139 J-0.003361
G03 X19.721632 Y195.794367 Z-0.125000 I12.200302 J-5.067681
G03 X19.821439 Y195.736935 Z-0.125000 I0.057493 J-0.015527
G03 X19.894228 Y195.844806 Z-0.125000 I-0.248787 J0.246369
G03 X20.306799 Y196.863888 Z-0.125000 I-22.953238 J9.885587
G01 X20.306799 Y196.863888 Z-0.125000
G00 Z5.000000

(End cutting path id: path4217)


(Start cutting path id: path4217)
(Change tool to Default tool)

G00 Z5.000000
G00 X19.379155 Y198.203619

G01 Z-0.125000 F100.0(Penetrate)
G03 X19.312083 Y198.326324 Z-0.125000 I-0.145777 J0.000000 F400.000000
G03 X19.083293 Y198.393394 Z-0.125000 I-0.228790 J-0.356691
G03 X18.916616 Y198.321368 Z-0.125000 I-0.000000 J-0.228869
G03 X18.904717 Y198.203619 Z-0.125000 I0.070809 J-0.066631
G03 X19.047091 Y198.058840 Z-0.125000 I0.389736 J0.240866
G03 X19.200579 Y198.013845 Z-0.125000 I0.153488 J0.239293
G03 X19.325270 Y198.067727 Z-0.125000 I0.000000 J0.171218
G03 X19.379155 Y198.203619 Z-0.125000 I-0.144412 J0.135892
G01 X19.379155 Y198.203619 Z-0.125000
G00 Z5.000000

(End cutting path id: path4217)


(Start cutting path id: path4217)
(Change tool to Default tool)

G00 Z5.000000
G00 X20.132445 Y198.488283

G01 Z-0.125000 F100.0(Penetrate)
G01 X20.084991 Y198.517201 Z-0.125000 F400.000000
G03 X19.948482 Y198.393394 Z-0.125000 I0.164044 J-0.318038
G03 X19.798166 Y198.098807 Z-0.125000 I1.365056 J-0.882174
G03 X19.764518 Y197.918956 Z-0.125000 I0.463831 J-0.179851
G01 X19.811972 Y197.890038 Z-0.125000
G03 X19.948482 Y198.013845 Z-0.125000 I-0.164044 J0.318038
G03 X20.098797 Y198.308432 Z-0.125000 I-1.365056 J0.882174
G03 X20.132445 Y198.488283 Z-0.125000 I-0.463831 J0.179851
G01 X20.132445 Y198.488283 Z-0.125000
G00 Z5.000000

(End cutting path id: path4217)


(Start cutting path id: path4217)
(Change tool to Default tool)

G00 Z5.000000
G00 X19.713554 Y199.193068

G01 Z-0.125000 F100.0(Penetrate)
G03 X19.041239 Y199.829344 Z-0.125000 I-0.930913 J-0.310304 F400.000000
G03 X17.299369 Y199.852593 Z-0.125000 I-0.915835 J-3.352359
G03 X17.262843 Y199.445745 Z-0.125000 I0.051306 J-0.209670
G03 X19.204727 Y199.003866 Z-0.125000 I2.087699 J4.686771
G03 X19.658908 Y199.078925 Z-0.125000 I0.034269 J1.204288
G03 X19.713554 Y199.193068 Z-0.125000 I-0.031737 J0.085347
G01 X19.713554 Y199.193068 Z-0.125000
G00 Z5.000000

(End cutting path id: path4217)


(Start cutting path id: path4217)
(Change tool to Default tool)

G00 Z5.000000
G00 X19.640329 Y200.758385

G01 Z-0.125000 F100.0(Penetrate)
G03 X19.229381 Y201.117247 Z-0.125000 I-0.544686 J-0.209015 F400.000000
G03 X18.360454 Y201.059804 Z-0.125000 I-0.340720 J-1.446754
G03 X18.270740 Y200.744130 Z-0.125000 I0.072714 J-0.191250
G03 X18.803873 Y200.480947 Z-0.125000 I0.533133 J0.408393
G03 X19.567384 Y200.604265 Z-0.125000 I-0.000000 J2.425243
G03 X19.640329 Y200.758385 Z-0.125000 I-0.037111 J0.111887
G01 X19.640329 Y200.758385 Z-0.125000
G00 Z5.000000

(End cutting path id: path4217)


(Start cutting path id: path4217)
(Change tool to Default tool)

G00 Z5.000000
G00 X18.559099 Y201.786546

G01 Z-0.125000 F100.0(Penetrate)
G02 X18.739782 Y202.058025 Z-0.125000 I0.484753 J-0.126761 F400.000000
G02 X19.252990 Y202.316353 Z-0.125000 I0.943865 J-1.236184
G03 X19.733672 Y202.581993 Z-0.125000 I-0.341863 J1.186336
G03 X19.862689 Y202.861054 Z-0.125000 I-0.257768 J0.288526
G02 X19.934818 Y203.212892 Z-0.125000 I1.015206 J-0.024811
G02 X20.224080 Y203.765946 Z-0.125000 I2.848299 J-1.137564
G03 X20.409735 Y204.281253 Z-0.125000 I-0.969158 J0.640265
G03 X20.309873 Y204.558818 Z-0.125000 I-0.334940 J0.036242
G03 X19.435909 Y204.801065 Z-0.125000 I-0.657700 J-0.675169
G03 X18.999603 Y204.249948 Z-0.125000 I0.129915 J-0.551117
G03 X19.122100 Y204.114864 Z-0.125000 I0.135731 J0.000000
G03 X19.479965 Y204.202890 Z-0.125000 I0.054049 J0.551718
G02 X19.951195 Y204.429007 Z-0.125000 I1.082951 J-1.652799
G02 X20.079786 Y204.398174 Z-0.125000 I0.039155 J-0.120265
G02 X20.167550 Y203.666187 Z-0.125000 I-0.421832 J-0.421832
G02 X19.080214 Y202.755836 Z-0.125000 I-1.885578 J1.147619
G03 X18.291434 Y202.191709 Z-0.125000 I0.706407 J-1.821232
G03 X18.050726 Y201.531375 Z-0.125000 I0.785394 J-0.660334
G03 X18.251933 Y201.407238 Z-0.125000 I0.138897 J0.000000
G03 X18.559099 Y201.786546 Z-0.125000 I-0.265568 J0.529085
G01 X18.559099 Y201.786546 Z-0.125000
G00 Z5.000000

(End cutting path id: path4217)


(Start cutting path id: path4217)
(Change tool to Default tool)

G00 Z5.000000
G00 X16.152971 Y201.619589

G01 Z-0.125000 F100.0(Penetrate)
G03 X16.290753 Y201.959994 Z-0.125000 I-1.518782 J0.812829 F400.000000
G01 X16.261212 Y201.999138 Z-0.125000
G03 X16.187727 Y201.963407 Z-0.125000 I0.000000 J-0.093429
G03 X15.963196 Y201.619589 Z-0.125000 I1.855994 J-1.457283
G03 X15.825411 Y201.279181 Z-0.125000 I1.518773 J-0.812833
G01 X15.854953 Y201.240037 Z-0.125000
G03 X15.928437 Y201.275768 Z-0.125000 I-0.000000 J0.093430
G03 X16.152971 Y201.619589 Z-0.125000 I-1.855856 J1.457199
G01 X16.152971 Y201.619589 Z-0.125000
G00 Z5.000000

(End cutting path id: path4217)


(Start cutting path id: path4217)
(Change tool to Default tool)

G00 Z5.000000
G00 X15.315925 Y202.975063

G01 Z-0.125000 F100.0(Penetrate)
G03 X16.080812 Y203.392313 Z-0.125000 I-2.127963 J4.810610 F400.000000
G03 X16.152971 Y203.526223 Z-0.125000 I-0.088175 J0.133910
G03 X15.989486 Y203.663938 Z-0.125000 I-0.139746 J0.000000
G03 X14.874552 Y203.305844 Z-0.125000 I0.712449 J-4.132965
G02 X14.136129 Y203.180493 Z-0.125000 I-0.584987 J1.208421
G02 X14.047613 Y203.400976 Z-0.125000 I0.015439 J0.134208
G03 X14.148349 Y203.652816 Z-0.125000 I-0.339752 J0.281968
G03 X14.074650 Y203.796313 Z-0.125000 I-0.155800 J0.010656
G03 X13.723147 Y203.746647 Z-0.125000 I-0.145903 J-0.236078
G03 X13.496106 Y203.158222 Z-0.125000 I0.648990 J-0.588425
G03 X13.870190 Y202.744597 Z-0.125000 I0.415715 J0.000000
G03 X15.315920 Y202.975063 Z-0.125000 I0.286871 J2.850258
G01 X15.315925 Y202.975063 Z-0.125000
G00 Z5.000000

(End cutting path id: path4217)


(Start cutting path id: path4217)
(Change tool to Default tool)

G00 Z5.000000
G00 X15.460163 Y199.810641

G01 Z-0.125000 F100.0(Penetrate)
G03 X15.326090 Y200.047795 Z-0.125000 I-0.164872 J0.063267 F400.000000
G03 X14.915378 Y199.907132 Z-0.125000 I-0.078210 J-0.441574
G03 X14.834058 Y199.646587 Z-0.125000 I0.241140 J-0.218228
G03 X14.964601 Y199.532056 Z-0.125000 I0.130543 J0.017132
G03 X15.293986 Y199.618293 Z-0.125000 I-0.000000 J0.672167
G03 X15.460163 Y199.810641 Z-0.125000 I-0.183577 J0.326558
G01 X15.460163 Y199.810641 Z-0.125000
G00 Z5.000000

(End cutting path id: path4217)


(Start cutting path id: path4217)
(Change tool to Default tool)

G00 Z5.000000
G00 X15.845828 Y199.067476

G01 Z-0.125000 F100.0(Penetrate)
G03 X15.843559 Y199.222822 Z-0.125000 I-0.195024 J0.074840 F400.000000
G01 X15.771246 Y199.246049 Z-0.125000
G03 X15.628413 Y199.105146 Z-0.125000 I0.236356 J-0.382437
G03 X15.583644 Y198.951531 Z-0.125000 I0.241163 J-0.153615
G03 X15.677437 Y198.890453 Z-0.125000 I0.066783 J0.000000
G03 X15.845828 Y199.067476 Z-0.125000 I-0.128698 J0.291024
G01 X15.845828 Y199.067476 Z-0.125000
G00 Z5.000000

(End cutting path id: path4217)


(Start cutting path id: path4217)
(Change tool to Default tool)

G00 Z5.000000
G00 X14.075344 Y199.259325

G01 Z-0.125000 F100.0(Penetrate)
G03 X14.055584 Y199.388471 Z-0.125000 I-0.067233 J0.055798 F400.000000
G03 X13.813916 Y199.428529 Z-0.125000 I-0.166896 J-0.257864
G02 X13.552662 Y199.584358 Z-0.125000 I-0.052451 J0.208980
G02 X13.684763 Y199.935905 Z-0.125000 I0.318240 J0.081008
G03 X13.922970 Y200.224525 Z-0.125000 I-0.386247 J0.561392
G03 X13.905706 Y200.441704 Z-0.125000 I-0.211648 J0.092451
G03 X13.721522 Y200.521487 Z-0.125000 I-0.151473 J-0.097192
G03 X13.308896 Y200.331391 Z-0.125000 I0.167571 J-0.906607
G03 X13.019862 Y199.925485 Z-0.125000 I0.584957 J-0.722391
G03 X12.996679 Y199.469188 Z-0.125000 I0.734758 J-0.266067
G03 X13.452732 Y199.037012 Z-0.125000 I0.567866 J0.142526
G03 X14.075344 Y199.259325 Z-0.125000 I0.123797 J0.636296
G01 X14.075344 Y199.259325 Z-0.125000
G00 Z5.000000

(End cutting path id: path4217)


(Start cutting path id: path4217)
(Change tool to Default tool)

G00 Z5.000000
G00 X14.109978 Y198.298508

G01 Z-0.125000 F100.0(Penetrate)
G03 X14.108605 Y198.526476 Z-0.125000 I-0.153890 J0.113061 F400.000000
G03 X13.923108 Y198.546542 Z-0.125000 I-0.102160 J-0.076968
G02 X13.572569 Y198.293082 Z-0.125000 I-1.688000 J1.965400
G02 X13.246864 Y198.138917 Z-0.125000 I-0.928253 J1.539980
G03 X13.024375 Y197.973801 Z-0.125000 I0.158756 J-0.446376
G03 X13.018444 Y197.829294 Z-0.125000 I0.103883 J-0.076639
G03 X13.377223 Y197.716098 Z-0.125000 I0.245024 J0.151434
G03 X14.109978 Y198.298508 Z-0.125000 I-0.704147 J1.638080
G01 X14.109978 Y198.298508 Z-0.125000
G00 Z5.000000

(End cutting path id: path4217)


(Start cutting path id: path4217)
(Change tool to Default tool)

G00 Z5.000000
G00 X13.095917 Y195.594215

G01 Z-0.125000 F100.0(Penetrate)
G03 X13.431446 Y196.775541 Z-0.125000 I-7.086749 J2.651141 F400.000000
G03 X13.349587 Y196.875199 Z-0.125000 I-0.081859 J0.016210
G03 X12.976488 Y196.635720 Z-0.125000 I-0.000000 J-0.410377
G03 X12.737010 Y195.537841 Z-0.125000 I2.396855 J-1.097879
G03 X12.878498 Y195.416842 Z-0.125000 I0.122483 J0.000000
G03 X13.095917 Y195.594215 Z-0.125000 I-0.043172 J0.274859
G01 X13.095917 Y195.594215 Z-0.125000
G00 Z5.000000

(End cutting path id: path4217)


(Start cutting path id: path4217)
(Change tool to Default tool)

G00 Z5.000000
G00 X19.976918 Y194.597892

G01 Z-0.125000 F100.0(Penetrate)
G02 X20.292635 Y195.002176 Z-0.125000 I0.752716 J-0.262398 F400.000000
G02 X20.845480 Y195.167219 Z-0.125000 I0.552845 J-0.843415
G03 X21.465488 Y195.300141 Z-0.125000 I-0.000000 J1.512459
G03 X22.217816 Y195.783990 Z-0.125000 I-1.233780 J2.745198
G02 X22.934564 Y196.381201 Z-0.125000 I11.835973 J-13.476311
G02 X23.284583 Y196.626818 Z-0.125000 I2.335536 J-2.956070
G03 X23.308769 Y196.759657 Z-0.125000 I-0.047972 J0.077356
G03 X23.102185 Y196.864037 Z-0.125000 I-0.212040 J-0.163037
G03 X22.611162 Y196.741924 Z-0.125000 I-0.019738 J-0.968901
G03 X21.928832 Y196.210984 Z-0.125000 I1.375830 J-2.472041
G02 X21.244359 Y195.681289 Z-0.125000 I-2.025558 J1.910348
G02 X20.720328 Y195.546771 Z-0.125000 I-0.524030 J0.953449
G03 X20.171913 Y195.513116 Z-0.125000 I-0.000000 J-4.485142
G01 X20.138256 Y195.475058 Z-0.125000
G02 X20.125608 Y195.405884 Z-0.125000 I-0.195478 J0.000000
G02 X19.851047 Y194.715957 Z-0.125000 I-20.384392 J7.712487
G03 X19.634708 Y194.075762 Z-0.125000 I4.463822 J-1.865102
G01 X19.671142 Y194.028565 Z-0.125000
G03 X19.746456 Y194.073604 Z-0.125000 I-0.000000 J0.085489
G03 X19.976918 Y194.597892 Z-0.125000 I-3.208051 J1.722968
G01 X19.976918 Y194.597892 Z-0.125000
G00 Z5.000000

(End cutting path id: path4217)


(Start cutting path id: path4217)
(Change tool to Default tool)

G00 Z5.000000
G00 X21.952296 Y193.185045

G01 Z-0.125000 F100.0(Penetrate)
G01 X21.949258 Y193.247339 Z-0.125000 F400.000000
G03 X21.846237 Y193.254226 Z-0.125000 I-0.057649 J-0.088380
G03 X21.375168 Y192.956325 Z-0.125000 I1.005673 J-2.111658
G01 X21.398785 Y192.889914 Z-0.125000
G03 X21.568979 Y192.932453 Z-0.125000 I0.000000 J0.361736
G03 X21.952296 Y193.185045 Z-0.125000 I-1.165345 J2.185592
G01 X21.952296 Y193.185045 Z-0.125000
G00 Z5.000000

(End cutting path id: path4217)


(Start cutting path id: path4217)
(Change tool to Default tool)

G00 Z5.000000
G00 X23.079777 Y197.444526

G01 Z-0.125000 F100.0(Penetrate)
G03 X23.059027 Y197.557340 Z-0.125000 I-0.072714 J0.044941 F400.000000
G03 X22.831907 Y197.634301 Z-0.125000 I-0.227120 J-0.296651
G02 X22.492403 Y197.708408 Z-0.125000 I-0.000000 J0.814732
G02 X21.956724 Y198.035485 Z-0.125000 I1.107549 J2.416112
G03 X21.469434 Y198.161202 Z-0.125000 I-0.386689 J-0.491594
G03 X21.339428 Y197.934887 Z-0.125000 I0.027059 J-0.166043
G03 X21.514434 Y197.721259 Z-0.125000 I0.409892 J0.157289
G03 X22.074529 Y197.469381 Z-0.125000 I1.161552 J1.834248
G03 X22.893021 Y197.343403 Z-0.125000 I0.898702 J3.117043
G03 X23.079777 Y197.444518 Z-0.125000 I0.005275 J0.213280
G01 X23.079777 Y197.444526 Z-0.125000
G00 Z5.000000

(End cutting path id: path4217)


(Start cutting path id: path4217)
(Change tool to Default tool)

G00 Z5.000000
G00 X22.225786 Y198.867843

G01 Z-0.125000 F100.0(Penetrate)
G03 X21.965877 Y199.102116 Z-0.125000 I-0.934897 J-0.775893 F400.000000
G03 X21.799763 Y199.152507 Z-0.125000 I-0.166114 J-0.248600
G03 X21.745624 Y199.088812 Z-0.125000 I-0.000000 J-0.054857
G03 X21.846237 Y198.867843 Z-0.125000 I0.456700 J0.074559
G03 X22.106150 Y198.633570 Z-0.125000 I0.934884 J0.775885
G03 X22.272263 Y198.583180 Z-0.125000 I0.166112 J0.248603
G03 X22.326401 Y198.646874 Z-0.125000 I0.000000 J0.054855
G03 X22.225786 Y198.867843 Z-0.125000 I-0.456722 J-0.074570
G01 X22.225786 Y198.867843 Z-0.125000
G00 Z5.000000

(End cutting path id: path4217)


(Start cutting path id: path4217)
(Change tool to Default tool)

G00 Z5.000000
G00 X24.253181 Y202.034721

G01 Z-0.125000 F100.0(Penetrate)
G01 X24.194121 Y202.046840 Z-0.125000 F400.000000
G03 X24.138525 Y201.920065 Z-0.125000 I0.134608 J-0.134610
G03 X24.179138 Y201.683104 Z-0.125000 I0.573708 J-0.023633
G01 X24.238200 Y201.670985 Z-0.125000
G03 X24.293796 Y201.797758 Z-0.125000 I-0.134609 J0.134609
G03 X24.253186 Y202.034721 Z-0.125000 I-0.573748 J0.023635
G01 X24.253181 Y202.034721 Z-0.125000
G00 Z5.000000

(End cutting path id: path4217)


(Start cutting path id: path4217)
(Change tool to Default tool)

G00 Z5.000000
G00 X24.787757 Y203.517344

G01 Z-0.125000 F100.0(Penetrate)
G03 X24.800184 Y203.648655 Z-0.125000 I-0.126563 J0.078221 F400.000000
G03 X24.715269 Y203.707119 Z-0.125000 I-0.084916 J-0.032435
G03 X24.551443 Y203.660579 Z-0.125000 I-0.000000 J-0.311613
G03 X24.408205 Y203.517344 Z-0.125000 I0.231777 J-0.375019
G03 X24.395779 Y203.386031 Z-0.125000 I0.126568 J-0.078222
G03 X24.480694 Y203.327567 Z-0.125000 I0.084915 J0.032435
G03 X24.644523 Y203.374108 Z-0.125000 I0.000000 J0.311618
G03 X24.787757 Y203.517344 Z-0.125000 I-0.231762 J0.374994
G01 X24.787757 Y203.517344 Z-0.125000
G00 Z5.000000

(End cutting path id: path4217)


(Start cutting path id: path4217)
(Change tool to Default tool)

G00 Z5.000000
G00 X24.801914 Y204.299354

G01 Z-0.125000 F100.0(Penetrate)
G02 X25.509772 Y204.636355 Z-0.125000 I0.615155 J-0.380195 F400.000000
G02 X26.080256 Y204.134113 Z-0.125000 I-0.087132 J-0.674090
G01 X26.132207 Y204.127190 Z-0.125000
G03 X26.189061 Y204.323890 Z-0.125000 I-0.374856 J0.214915
G03 X25.920073 Y204.679555 Z-0.125000 I-0.350099 J0.014772
G03 X24.863520 Y204.639282 Z-0.125000 I-0.455993 J-1.916471
G02 X24.218128 Y204.433761 Z-0.125000 I-68.899933 J215.248727
G02 X23.969183 Y204.355959 Z-0.125000 I-10.146057 J32.027335
G03 X23.824574 Y204.239846 Z-0.125000 I0.074109 J-0.240402
G03 X23.827042 Y204.105826 Z-0.125000 I0.114259 J-0.064929
G03 X24.254674 Y203.919642 Z-0.125000 I0.347978 J0.215056
G03 X24.801914 Y204.299354 Z-0.125000 I-0.162451 J0.818321
G01 X24.801914 Y204.299354 Z-0.125000
G00 Z5.000000

(End cutting path id: path4217)


(Start cutting path id: path4217)
(Change tool to Default tool)

G00 Z5.000000
G00 X26.964362 Y204.371332

G01 Z-0.125000 F100.0(Penetrate)
G03 X26.888917 Y204.495137 Z-0.125000 I-0.139305 J0.000000 F400.000000
G03 X26.780402 Y204.466221 Z-0.125000 I-0.038316 J-0.074284
G03 X26.646038 Y204.166924 Z-0.125000 I0.911204 J-0.588876
G03 X26.596438 Y203.802005 Z-0.125000 I1.317592 J-0.364919
G03 X26.671884 Y203.678201 Z-0.125000 I0.139302 J0.000000
G03 X26.780402 Y203.707119 Z-0.125000 I0.038316 J0.074287
G03 X26.914763 Y204.006416 Z-0.125000 I-0.911245 J0.588886
G03 X26.964362 Y204.371332 Z-0.125000 I-1.317585 J0.364916
G01 X26.964362 Y204.371332 Z-0.125000
G00 Z5.000000

(End cutting path id: path4217)


(Start cutting path id: path4217)
(Change tool to Default tool)

G00 Z5.000000
G00 X27.333484 Y205.889538

G01 Z-0.125000 F100.0(Penetrate)
G01 X27.290939 Y205.916367 Z-0.125000 F400.000000
G03 X27.159951 Y205.794649 Z-0.125000 I0.174525 J-0.319159
G03 X27.021879 Y205.497357 Z-0.125000 I0.993942 J-0.642328
G03 X26.986421 Y205.225322 Z-0.125000 I0.792911 J-0.241678
G03 X27.141305 Y205.190288 Z-0.125000 I0.082084 J0.003006
G03 X27.333484 Y205.889538 Z-0.125000 I-1.518126 J0.793269
G01 X27.333484 Y205.889538 Z-0.125000
G00 Z5.000000

(End cutting path id: path4217)


(Start cutting path id: path4217)
(Change tool to Default tool)

G00 Z5.000000
G00 X27.913242 Y207.407747

G01 Z-0.125000 F100.0(Penetrate)
G01 X27.865788 Y207.436665 Z-0.125000 F400.000000
G03 X27.729278 Y207.312861 Z-0.125000 I0.164047 J-0.318046
G03 X27.578964 Y207.018270 Z-0.125000 I1.365057 J-0.882159
G03 X27.545317 Y206.838420 Z-0.125000 I0.463844 J-0.179850
G01 X27.592769 Y206.809503 Z-0.125000
G03 X27.729278 Y206.933309 Z-0.125000 I-0.164043 J0.318035
G03 X27.879594 Y207.227898 Z-0.125000 I-1.364995 J0.882144
G03 X27.913242 Y207.407747 Z-0.125000 I-0.463833 J0.179849
G01 X27.913242 Y207.407747 Z-0.125000
G00 Z5.000000

(End cutting path id: path4217)


(Start cutting path id: path4217)
(Change tool to Default tool)

G00 Z5.000000
G00 X27.494918 Y208.033089

G01 Z-0.125000 F100.0(Penetrate)
G03 X27.434450 Y208.118249 Z-0.125000 I-0.061384 J0.020462 F400.000000
G03 X27.034667 Y208.039608 Z-0.125000 I-0.013948 J-0.984605
G03 X26.723006 Y207.777119 Z-0.125000 I0.272467 J-0.639774
G03 X26.796073 Y207.670208 Z-0.125000 I0.058995 J-0.038105
G03 X27.353637 Y207.867650 Z-0.125000 I-0.428966 J2.097352
G03 X27.494918 Y208.033086 Z-0.125000 I-0.133454 J0.257012
G01 X27.494918 Y208.033089 Z-0.125000
G00 Z5.000000

(End cutting path id: path4217)


(Start cutting path id: path4217)
(Change tool to Default tool)

G00 Z5.000000
G00 X26.316837 Y209.289980

G01 Z-0.125000 F100.0(Penetrate)
G03 X26.285827 Y209.436976 Z-0.125000 I-0.048633 J0.066509 F400.000000
G03 X25.926411 Y209.375465 Z-0.125000 I-0.103821 J-0.474171
G03 X25.616573 Y209.096210 Z-0.125000 I0.616892 J-0.995967
G01 X25.652921 Y209.021832 Z-0.125000
G03 X25.931039 Y209.075381 Z-0.125000 I0.002552 J0.735753
G03 X26.316837 Y209.289980 Z-0.125000 I-0.669861 J1.658339
G01 X26.316837 Y209.289980 Z-0.125000
G00 Z5.000000

(End cutting path id: path4217)


(Start cutting path id: path4217)
(Change tool to Default tool)

G00 Z5.000000
G00 X24.304314 Y208.257131

G01 Z-0.125000 F100.0(Penetrate)
G03 X24.878686 Y208.704123 Z-0.125000 I-0.877563 J1.720165 F400.000000
G03 X24.945982 Y208.988897 Z-0.125000 I-0.234697 J0.205801
G03 X24.772606 Y209.079071 Z-0.125000 I-0.127477 J-0.033336
G03 X24.108559 Y208.677693 Z-0.125000 I0.723589 J-1.947114
G03 X24.041067 Y208.347803 Z-0.125000 I0.188981 J-0.210513
G03 X24.304314 Y208.257131 Z-0.125000 I0.175351 J0.081619
G01 X24.304314 Y208.257131 Z-0.125000
G00 Z5.000000

(End cutting path id: path4217)


(Start cutting path id: path4217)
(Change tool to Default tool)

G00 Z5.000000
G00 X23.033715 Y208.350479

G01 Z-0.125000 F100.0(Penetrate)
G03 X23.398444 Y208.667365 Z-0.125000 I-1.331122 J1.900429 F400.000000
G03 X24.931330 Y210.382674 Z-0.125000 I-38.444715 J35.898715
G03 X26.063440 Y212.262832 Z-0.125000 I-5.064354 J4.330351
G03 X26.105645 Y213.352484 Z-0.125000 I-1.529760 J0.604894
G02 X26.106476 Y213.677201 Z-0.125000 I0.522171 J0.161023
G02 X26.232656 Y213.756996 Z-0.125000 I0.110203 J-0.034602
G03 X26.819207 Y213.827498 Z-0.125000 I0.159902 J1.144880
G03 X26.970176 Y214.049886 Z-0.125000 I-0.088313 J0.222389
G03 X26.630219 Y214.410299 Z-0.125000 I-0.361028 J0.000000
G03 X26.158641 Y214.097331 Z-0.125000 I-0.027497 J-0.470337
G02 X26.035041 Y214.047809 Z-0.125000 I-0.083589 J0.029622
G02 X25.571093 Y214.394367 Z-0.125000 I0.756810 J1.496993
G03 X25.019380 Y214.795565 Z-0.125000 I-1.340110 J-1.262925
G03 X24.569659 Y214.868805 Z-0.125000 I-0.351734 J-0.742430
G03 X23.829456 Y214.422544 Z-0.125000 I0.125569 J-1.045288
G03 X23.740436 Y213.670334 Z-0.125000 I0.664927 J-0.460063
G03 X23.897787 Y213.598973 Z-0.125000 I0.115080 J0.044593
G03 X24.130877 Y213.812667 Z-0.125000 I-0.141595 J0.388417
G02 X24.643913 Y214.211100 Z-0.125000 I0.644724 J-0.300651
G02 X25.011286 Y213.978512 Z-0.125000 I0.059004 J-0.313230
G03 X25.174989 Y213.678131 Z-0.125000 I0.687147 J0.179687
G03 X25.562844 Y213.377117 Z-0.125000 I1.078160 J0.988818
G02 X25.928526 Y212.781982 Z-0.125000 I-0.326871 J-0.610761
G02 X25.594303 Y211.982812 Z-0.125000 I-1.065106 J-0.024033
G03 X23.414493 Y209.597826 Z-0.125000 I14.931468 J-15.835582
G03 X23.174665 Y208.904653 Z-0.125000 I0.881825 J-0.693172
G02 X23.082032 Y208.695772 Z-0.125000 I-0.281823 J0.000000
G02 X22.655633 Y208.434553 Z-0.125000 I-0.906045 J1.000352
G03 X21.015091 Y207.684865 Z-0.125000 I4.910350 J-12.915163
G03 X20.897358 Y207.487751 Z-0.125000 I0.106142 J-0.197114
G03 X21.141444 Y207.323084 Z-0.125000 I0.177587 J0.000000
G03 X23.033715 Y208.350479 Z-0.125000 I-3.556382 J8.806504
G01 X23.033715 Y208.350479 Z-0.125000
G00 Z5.000000

(End cutting path id: path4217)


(Start cutting path id: path4217)
(Change tool to Default tool)

G00 Z5.000000
G00 X22.325244 Y208.976296

G01 Z-0.125000 F100.0(Penetrate)
G03 X22.483866 Y209.146438 Z-0.125000 I-0.344500 J0.480185 F400.000000
G03 X23.042117 Y210.139607 Z-0.125000 I-12.068379 J7.436998
G03 X23.327940 Y210.867755 Z-0.125000 I-3.566758 J1.820245
G01 X23.260898 Y210.911406 Z-0.125000
G03 X23.000560 Y210.624669 Z-0.125000 I0.880716 J-1.061187
G03 X22.565974 Y209.887521 Z-0.125000 I5.570350 J-3.780679
G02 X22.136802 Y209.149647 Z-0.125000 I-6.600419 J3.345277
G02 X21.963074 Y208.976296 Z-0.125000 I-0.510166 J0.337547
G03 X21.902417 Y208.882144 Z-0.125000 I0.076192 J-0.115702
G01 X21.941117 Y208.836872 Z-0.125000
G03 X22.120735 Y208.868460 Z-0.125000 I0.000000 J0.526464
G03 X22.325239 Y208.976296 Z-0.125000 I-0.288609 J0.795166
G01 X22.325244 Y208.976296 Z-0.125000
G00 Z5.000000

(End cutting path id: path4217)


(Start cutting path id: path4217)
(Change tool to Default tool)

G00 Z5.000000
G00 X21.941126 Y209.779932

G01 Z-0.125000 F100.0(Penetrate)
G03 X21.950081 Y209.909311 Z-0.125000 I-0.118433 J0.073197 F400.000000
G03 X21.857436 Y209.969707 Z-0.125000 I-0.092645 J-0.040859
G03 X21.713629 Y209.912539 Z-0.125000 I-0.000000 J-0.209459
G03 X21.656462 Y209.779932 Z-0.125000 I0.125219 J-0.132607
G03 X21.689488 Y209.623183 Z-0.125000 I0.388499 J0.000000
G03 X21.740150 Y209.590154 Z-0.125000 I0.050662 J0.022340
G03 X21.808653 Y209.617387 Z-0.125000 I-0.000000 J0.099777
G03 X21.941126 Y209.779932 Z-0.125000 I-0.554312 J0.587013
G01 X21.941126 Y209.779932 Z-0.125000
G00 Z5.000000

(End cutting path id: path4217)


(Start cutting path id: path4217)
(Change tool to Default tool)

G00 Z5.000000
G00 X21.010097 Y209.979192

G01 Z-0.125000 F100.0(Penetrate)
G02 X21.489361 Y211.029220 Z-0.125000 I3.607657 J-1.012252 F400.000000
G02 X22.386227 Y212.066725 Z-0.125000 I4.416471 J-2.911398
G03 X22.502082 Y212.402972 Z-0.125000 I-0.241931 J0.271441
G03 X22.310749 Y212.483426 Z-0.125000 I-0.121863 J-0.022073
G03 X21.027467 Y211.326327 Z-0.125000 I3.517227 J-5.190947
G03 X20.517992 Y210.349942 Z-0.125000 I1.950132 J-1.638687
G03 X20.387813 Y209.044730 Z-0.125000 I3.887681 J-1.046846
G03 X20.615666 Y208.831058 Z-0.125000 I0.227853 J0.014652
G01 X20.662568 Y208.864538 Z-0.125000
G03 X21.010097 Y209.979192 Z-0.125000 I-19.256645 J6.615388
G01 X21.010097 Y209.979192 Z-0.125000
G00 Z5.000000

(End cutting path id: path4217)


(Start cutting path id: path4217)
(Change tool to Default tool)

G00 Z5.000000
G00 X20.543426 Y208.004492

G01 Z-0.125000 F100.0(Penetrate)
G03 X20.798135 Y208.394577 Z-0.125000 I-0.969848 J0.911471 F400.000000
G03 X20.760285 Y208.513821 Z-0.125000 I-0.088308 J0.037599
G03 X20.187136 Y208.482966 Z-0.125000 I-0.264376 J-0.427771
G03 X19.170042 Y207.276719 Z-0.125000 I2.333226 J-2.999276
G03 X19.229275 Y207.167780 Z-0.125000 I0.065411 J-0.035007
G03 X19.562117 Y207.243953 Z-0.125000 I0.046846 J0.560566
G03 X20.133512 Y207.631800 Z-0.125000 I-2.788962 J4.723665
G03 X20.543426 Y208.004492 Z-0.125000 I-2.162568 J2.790329
G01 X20.543426 Y208.004492 Z-0.125000
G00 Z5.000000

(End cutting path id: path4217)


(Start cutting path id: path4217)
(Change tool to Default tool)

G00 Z5.000000
G00 X21.250838 Y205.948370

G01 Z-0.125000 F100.0(Penetrate)
G03 X22.257544 Y206.608731 Z-0.125000 I-3.722951 J6.773083 F400.000000
G01 X22.243587 Y206.678625 Z-0.125000
G03 X22.066266 Y206.670771 Z-0.125000 I-0.076341 J-0.282059
G03 X20.728366 Y206.089780 Z-0.125000 I4.437071 J-12.048586
G02 X19.375574 Y205.470058 Z-0.125000 I-9.060042 J17.990816
G02 X19.099230 Y205.415100 Z-0.125000 I-0.276344 J0.667282
G03 X18.879673 Y205.345256 Z-0.125000 I0.000000 J-0.380015
G03 X18.809828 Y205.210243 Z-0.125000 I0.095570 J-0.135013
G03 X19.057913 Y205.026080 Z-0.125000 I0.192398 J0.000000
G03 X21.250838 Y205.948370 Z-0.125000 I-3.301246 J10.917565
G01 X21.250838 Y205.948370 Z-0.125000
G00 Z5.000000

(End cutting path id: path4217)


(Start cutting path id: path4217)
(Change tool to Default tool)

G00 Z5.000000
G00 X18.587377 Y205.480468

G01 Z-0.125000 F100.0(Penetrate)
G03 X18.507517 Y205.627328 Z-0.125000 I-0.129208 J0.024882 F400.000000
G03 X18.257448 Y205.613942 Z-0.125000 I-0.110740 J-0.273730
G03 X18.004729 Y205.245123 Z-0.125000 I0.229010 J-0.427913
G03 X18.190878 Y205.071254 Z-0.125000 I0.156358 J-0.019180
G03 X18.446250 Y205.209348 Z-0.125000 I-0.091284 J0.473981
G03 X18.587377 Y205.480468 Z-0.125000 I-0.384237 J0.372299
G01 X18.587377 Y205.480468 Z-0.125000
G00 Z5.000000

(End cutting path id: path4217)


(Start cutting path id: path4217)
(Change tool to Default tool)

G00 Z5.000000
G00 X17.633052 Y205.877436

G01 Z-0.125000 F100.0(Penetrate)
G03 X17.967587 Y206.045039 Z-0.125000 I-0.361736 J1.139693 F400.000000
G03 X18.357804 Y206.396547 Z-0.125000 I-1.371772 J1.915182
G03 X18.555269 Y206.681721 Z-0.125000 I-1.081740 J0.959990
G01 X18.525164 Y206.713802 Z-0.125000
G03 X16.846598 Y205.615325 Z-0.125000 I2.617071 J-5.830842
G03 X16.533232 Y204.905692 Z-0.125000 I0.642357 J-0.707664
G03 X16.618000 Y204.861557 Z-0.125000 I0.053938 J0.000124
G03 X16.899689 Y205.160933 Z-0.125000 I-0.570509 J0.819013
G02 X17.320890 Y205.690085 Z-0.125000 I2.320639 J-1.415003
G02 X17.633052 Y205.877436 Z-0.125000 I0.550440 J-0.563399
G01 X17.633052 Y205.877436 Z-0.125000
G00 Z5.000000

(End cutting path id: path4217)


(Start cutting path id: path4217)
(Change tool to Default tool)

G00 Z5.000000
G00 X21.562824 Y202.640212

G01 Z-0.125000 F100.0(Penetrate)
G03 X21.822207 Y203.483179 Z-0.125000 I-6.218664 J2.374889 F400.000000
G03 X21.910626 Y204.110974 Z-0.125000 I-3.347234 J0.791550
G03 X21.788374 Y204.624542 Z-0.125000 I-0.949637 J0.045279
G03 X21.514129 Y204.811528 Z-0.125000 I-0.327095 J-0.185132
G02 X21.275801 Y205.036297 Z-0.125000 I0.039917 J0.281062
G02 X21.430414 Y205.225322 Z-0.125000 I0.154613 J0.031280
G03 X21.753241 Y205.286267 Z-0.125000 I0.000000 J0.885491
G03 X22.142071 Y205.503952 Z-0.125000 I-0.593938 J1.517002
G03 X22.250135 Y205.697771 Z-0.125000 I-0.166151 J0.219674
G03 X22.168910 Y205.788615 Z-0.125000 I-0.082694 J0.007797
G03 X21.839862 Y205.741296 Z-0.125000 I-0.018430 J-1.039557
G03 X21.274009 Y205.508490 Z-0.125000 I1.052710 J-3.362777
G03 X20.948724 Y204.978600 Z-0.125000 I0.276372 J-0.534444
G03 X21.265147 Y204.337522 Z-0.125000 I0.795431 J-0.006020
G02 X21.392069 Y204.000134 Z-0.125000 I-0.202792 J-0.268856
G02 X20.808689 Y202.141472 Z-0.125000 I-9.629454 J2.001520
G03 X20.810444 Y201.904128 Z-0.125000 I0.273386 J-0.116658
G03 X20.956244 Y201.809364 Z-0.125000 I0.145800 J0.064779
G03 X21.170547 Y201.918246 Z-0.125000 I0.000000 J0.265338
G03 X21.562818 Y202.640212 Z-0.125000 I-2.503933 J1.828032
G01 X21.562824 Y202.640212 Z-0.125000
G00 Z5.000000

(End cutting path id: path4217)


(Start cutting path id: path4217)
(Change tool to Default tool)

G00 Z5.000000
G00 X22.605339 Y203.401794

G01 Z-0.125000 F100.0(Penetrate)
G03 X22.435429 Y203.465018 Z-0.125000 I-0.096717 J0.000000 F400.000000
G03 X22.131400 Y202.853129 Z-0.125000 I1.039636 J-0.898040
G03 X22.184487 Y202.649667 Z-0.125000 I0.229289 J-0.048831
G03 X22.307747 Y202.652181 Z-0.125000 I0.060571 J0.053156
G03 X22.537048 Y203.044696 Z-0.125000 I-1.176952 J0.950792
G03 X22.605339 Y203.401794 Z-0.125000 I-0.899501 J0.357098
G01 X22.605339 Y203.401794 Z-0.125000
G00 Z5.000000

(End cutting path id: path4217)


(Start cutting path id: path4217)
(Change tool to Default tool)

G00 Z5.000000
G00 X28.369709 Y203.065868

G01 Z-0.125000 F100.0(Penetrate)
G03 X27.628714 Y203.289320 Z-0.125000 I-3.021349 J-8.678824 F400.000000
G03 X27.359217 Y203.324711 Z-0.125000 I-0.281270 J-1.098050
G03 X27.299304 Y203.140944 Z-0.125000 I-0.001050 J-0.101308
G03 X28.138692 Y202.768273 Z-0.125000 I1.328983 J1.861707
G03 X28.426910 Y202.872661 Z-0.125000 I0.061447 J0.280426
G03 X28.369709 Y203.065868 Z-0.125000 I-0.097983 J0.076062
G01 X28.369709 Y203.065868 Z-0.125000
G00 Z5.000000

(End cutting path id: path4217)


(Start cutting path id: path4217)
(Change tool to Default tool)

G00 Z5.000000
G00 X29.053900 Y204.565696

G01 Z-0.125000 F100.0(Penetrate)
G03 X28.809524 Y204.761709 Z-0.125000 I-0.600616 J-0.498466 F400.000000
G03 X28.704055 Y204.745152 Z-0.125000 I-0.041373 J-0.080656
G03 X28.691555 Y204.646176 Z-0.125000 I0.057544 J-0.057544
G03 X28.873428 Y204.458810 Z-0.125000 I0.479881 J0.283856
G03 X29.034958 Y204.456450 Z-0.125000 I0.082693 J0.130756
G03 X29.053900 Y204.565696 Z-0.125000 I-0.037137 J0.062704
G01 X29.053900 Y204.565696 Z-0.125000
G00 Z5.000000

(End cutting path id: path4217)


(Start cutting path id: path4217)
(Change tool to Default tool)

G00 Z5.000000
G00 X30.196361 Y204.086669

G01 Z-0.125000 F100.0(Penetrate)
G03 X29.901772 Y204.236985 Z-0.125000 I-0.882144 J-1.364995 F400.000000
G03 X29.721923 Y204.270632 Z-0.125000 I-0.179849 J-0.463833
G01 X29.693006 Y204.223179 Z-0.125000
G03 X29.816812 Y204.086669 Z-0.125000 I0.318047 J0.164051
G03 X30.111399 Y203.936355 Z-0.125000 I0.882128 J1.364985
G03 X30.291250 Y203.902708 Z-0.125000 I0.179851 J0.463845
G01 X30.320167 Y203.950160 Z-0.125000
G03 X30.196361 Y204.086669 Z-0.125000 I-0.318035 J-0.164043
G01 X30.196361 Y204.086669 Z-0.125000
G00 Z5.000000

(End cutting path id: path4217)


(Start cutting path id: path4217)
(Change tool to Default tool)

G00 Z5.000000
G00 X30.166877 Y203.223354

G01 Z-0.125000 F100.0(Penetrate)
G03 X28.112200 Y204.531286 Z-0.125000 I-4.918623 J-5.458991 F400.000000
G03 X27.403085 Y204.393063 Z-0.125000 I-0.251977 J-0.595371
G03 X27.427206 Y204.103903 Z-0.125000 I0.134378 J-0.134377
G03 X28.887496 Y203.335667 Z-0.125000 I3.565437 J5.005305
G02 X29.805573 Y202.787259 Z-0.125000 I-0.975794 J-2.676224
G02 X29.927598 Y202.409921 Z-0.125000 I-0.260453 J-0.292626
G01 X29.815601 Y201.904250 Z-0.125000
G01 X30.118826 Y202.448840 Z-0.125000
G03 X30.271028 Y202.968332 Z-0.125000 I-1.069090 J0.595265
G03 X30.166877 Y203.223354 Z-0.125000 I-0.316253 J0.019621
G01 X30.166877 Y203.223354 Z-0.125000
G00 Z5.000000

(End cutting path id: path4217)


(Start cutting path id: path4217)
(Change tool to Default tool)

G00 Z5.000000
G00 X32.839488 Y200.963871

G01 Z-0.125000 F100.0(Penetrate)
G02 X32.929555 Y200.826807 Z-0.125000 I-0.102116 J-0.165227 F400.000000
G02 X32.917235 Y200.433313 Z-0.125000 I-1.107326 J-0.162268
G03 X32.959663 Y200.331335 Z-0.125000 I0.095365 J-0.020138
G03 X33.045818 Y200.350142 Z-0.125000 I0.033743 J0.052166
G03 X33.184146 Y200.701856 Z-0.125000 I-0.835014 J0.531468
G03 X33.159720 Y200.966911 Z-0.125000 I-0.482795 J0.089161
G03 X32.637956 Y201.341476 Z-0.125000 I-0.545640 J-0.209381
G03 X32.281300 Y201.002829 Z-0.125000 I-0.014000 J-0.342390
G02 X32.264046 Y200.767134 Z-0.125000 I-1.898911 J0.020538
G02 X32.184416 Y200.291169 Z-0.125000 I-7.859679 J1.070284
G01 X32.234841 Y200.259849 Z-0.125000
G03 X32.380868 Y200.442178 Z-0.125000 I-0.299265 J0.389324
G02 X32.708541 Y200.944342 Z-0.125000 I1.907655 J-0.886795
G02 X32.839488 Y200.963871 Z-0.125000 I0.077029 J-0.067716
G01 X32.839488 Y200.963871 Z-0.125000
G00 Z5.000000

(End cutting path id: path4217)


(Start cutting path id: path4217)
(Change tool to Default tool)

G00 Z5.000000
G00 X33.986058 Y201.050274

G01 Z-0.125000 F100.0(Penetrate)
G03 X33.921213 Y201.115118 Z-0.125000 I-0.064845 J0.000000 F400.000000
G03 X33.802097 Y201.050274 Z-0.125000 I-0.000000 J-0.141827
G03 X33.660989 Y200.752964 Z-0.125000 I1.061146 J-0.685778
G03 X33.618134 Y200.480947 Z-0.125000 I0.841855 J-0.272017
G03 X33.682979 Y200.416101 Z-0.125000 I0.064846 J0.000000
G03 X33.802097 Y200.480947 Z-0.125000 I0.000000 J0.141829
G03 X33.943202 Y200.778251 Z-0.125000 I-1.061143 J0.685769
G03 X33.986058 Y201.050274 Z-0.125000 I-0.841874 J0.272023
G01 X33.986058 Y201.050274 Z-0.125000
G00 Z5.000000

(End cutting path id: path4217)


(Start cutting path id: path4217)
(Change tool to Default tool)

G00 Z5.000000
G00 X33.802097 Y201.599501

G01 Z-0.125000 F100.0(Penetrate)
G03 X33.016037 Y202.768382 Z-0.125000 I-1.262101 J0.000000 F400.000000
G03 X31.278356 Y202.627328 Z-0.125000 I-0.729220 J-1.790544
G03 X31.263037 Y202.340087 Z-0.125000 I0.091025 J-0.148883
G03 X32.450591 Y201.726331 Z-0.125000 I2.296703 J2.988106
G03 X33.674340 Y201.483171 Z-0.125000 I1.792984 J5.822569
G03 X33.802097 Y201.599501 Z-0.125000 I0.010917 J0.116330
G01 X33.802097 Y201.599501 Z-0.125000
G00 Z5.000000

(End cutting path id: path4217)


(Start cutting path id: path4217)
(Change tool to Default tool)

G00 Z5.000000
G00 X34.626285 Y200.718939

G01 Z-0.125000 F100.0(Penetrate)
G03 X34.385066 Y200.726281 Z-0.125000 I-0.123036 J-0.076039 F400.000000
G03 X34.190590 Y200.101394 Z-0.125000 I0.869127 J-0.613194
G03 X34.268286 Y200.042810 Z-0.125000 I0.061473 J0.000713
G03 X34.466268 Y200.176796 Z-0.125000 I-0.097938 J0.357980
G03 X34.650137 Y200.541051 Z-0.125000 I-0.906321 J0.686028
G03 X34.626285 Y200.718939 Z-0.125000 I-0.210940 J0.062259
G01 X34.626285 Y200.718939 Z-0.125000
G00 Z5.000000

(End cutting path id: path4217)


(Start cutting path id: path4217)
(Change tool to Default tool)

G00 Z5.000000
G00 X35.604964 Y199.721831

G01 Z-0.125000 F100.0(Penetrate)
G03 X35.459210 Y199.859768 Z-0.125000 I-0.332787 J-0.205670 F400.000000
G03 X35.261657 Y199.908702 Z-0.125000 I-0.192382 J-0.353435
G01 X35.220890 Y199.852451 Z-0.125000
G03 X35.320300 Y199.721831 Z-0.125000 I0.230579 J0.072346
G03 X35.564757 Y199.649716 Z-0.125000 I0.244457 J0.378272
G01 X35.604964 Y199.721831 Z-0.125000
G01 X35.604964 Y199.721831 Z-0.125000
G00 Z5.000000

(End cutting path id: path4217)


(Start cutting path id: path4217)
(Change tool to Default tool)

G00 Z5.000000
G00 X37.000801 Y198.387450

G01 Z-0.125000 F100.0(Penetrate)
G03 X36.901408 Y199.248352 Z-0.125000 I-0.984640 J0.322509 F400.000000
G03 X36.339055 Y199.475519 Z-0.125000 I-0.433582 J-0.263697
G03 X36.287462 Y199.374636 Z-0.125000 I0.019280 J-0.073494
G03 X36.429846 Y199.240580 Z-0.125000 I0.211111 J0.081583
G02 X36.711712 Y199.002335 Z-0.125000 I-0.146251 J-0.458889
G02 X36.771126 Y198.578391 Z-0.125000 I-0.575997 J-0.296859
G03 X36.574001 Y197.361815 Z-0.125000 I16.442285 J-3.288445
G01 X36.618128 Y197.349637 Z-0.125000
G03 X36.773307 Y197.733740 Z-0.125000 I-6.178242 J2.719436
G03 X37.000801 Y198.387450 Z-0.125000 I-17.679561 J6.519013
G01 X37.000801 Y198.387450 Z-0.125000
G00 Z5.000000

(End cutting path id: path4217)


(Start cutting path id: path4217)
(Change tool to Default tool)

G00 Z5.000000
G00 X38.543580 Y198.546929

G01 Z-0.125000 F100.0(Penetrate)
G03 X38.472388 Y198.632453 Z-0.125000 I-0.087938 J-0.000808 F400.000000
G03 X38.356710 Y198.583171 Z-0.125000 I-0.021379 J-0.110223
G03 X38.236517 Y198.175743 Z-0.125000 I0.630453 J-0.407429
G03 X38.356710 Y198.108731 Z-0.125000 I0.078777 J0.000000
G03 X38.486165 Y198.259295 Z-0.125000 I-0.172693 J0.279416
G03 X38.543580 Y198.546929 Z-0.125000 I-0.659273 J0.281147
G01 X38.543580 Y198.546929 Z-0.125000
G00 Z5.000000

(End cutting path id: path4217)


(Start cutting path id: path4217)
(Change tool to Default tool)

G00 Z5.000000
G00 X37.934514 Y199.820538

G01 Z-0.125000 F100.0(Penetrate)
G03 X36.456330 Y200.775152 Z-0.125000 I-3.754469 J-4.191893 F400.000000
G03 X35.154238 Y201.050254 Z-0.125000 I-1.302092 J-2.943930
G03 X34.998906 Y200.992097 Z-0.125000 I-0.000000 J-0.236519
G03 X34.940751 Y200.864334 Z-0.125000 I0.111266 J-0.127763
G03 X35.296037 Y200.266886 Z-0.125000 I0.679977 J0.000000
G03 X36.693831 Y199.911600 Z-0.125000 I1.397794 J2.572011
G02 X36.928405 Y199.862696 Z-0.125000 I0.000000 J-0.587031
G02 X37.355811 Y199.623036 Z-0.125000 I-0.980961 J-2.250383
G02 X37.568832 Y199.270674 Z-0.125000 I-0.292257 J-0.417256
G02 X37.492926 Y198.555409 Z-0.125000 I-1.541910 J-0.198029
G03 X37.553351 Y198.340953 Z-0.125000 I0.182389 J-0.064351
G03 X37.706568 Y198.381820 Z-0.125000 I0.061779 J0.076033
G03 X38.024614 Y199.567152 Z-0.125000 I-5.463908 J2.101399
G03 X37.934514 Y199.820544 Z-0.125000 I-0.277648 J0.043989
G01 X37.934514 Y199.820538 Z-0.125000
G00 Z5.000000

(End cutting path id: path4217)


(Start cutting path id: path4217)
(Change tool to Default tool)

G00 Z5.000000
G00 X38.166935 Y200.561933

G01 Z-0.125000 F100.0(Penetrate)
G03 X38.133375 Y200.621824 Z-0.125000 I-0.070220 J0.000000 F400.000000
G03 X37.550164 Y200.939476 Z-0.125000 I-3.430960 J-5.605052
G01 X36.933392 Y201.236029 Z-0.125000
G01 X37.381412 Y200.858487 Z-0.125000
G03 X38.038354 Y200.473036 Z-0.125000 I1.453701 J1.725058
G03 X38.166935 Y200.561933 Z-0.125000 I0.033560 J0.088897
G01 X38.166935 Y200.561933 Z-0.125000
G00 Z5.000000

(End cutting path id: path4217)


(Start cutting path id: path4217)
(Change tool to Default tool)

G00 Z5.000000
G00 X39.776084 Y203.048099

G01 Z-0.125000 F100.0(Penetrate)
G01 X39.880281 Y204.181569 Z-0.125000 F400.000000
G01 X39.435405 Y202.663365 Z-0.125000
G03 X39.084573 Y200.998601 Z-0.125000 I10.564850 J-3.095787
G03 X39.212173 Y200.960566 Z-0.125000 I0.066856 J-0.008765
G03 X39.577174 Y201.940876 Z-0.125000 I-5.096031 J2.455526
G03 X39.776084 Y203.048099 Z-0.125000 I-6.315530 J1.706046
G01 X39.776084 Y203.048099 Z-0.125000
G00 Z5.000000

(End cutting path id: path4217)


(Start cutting path id: path4217)
(Change tool to Default tool)

G00 Z5.000000
G00 X42.449637 Y203.259915

G01 Z-0.125000 F100.0(Penetrate)
G03 X42.893166 Y204.940444 Z-0.125000 I-80.213638 J22.068948 F400.000000
G03 X42.911322 Y205.086353 Z-0.125000 I-0.577222 J0.145909
G03 X42.777589 Y205.288018 Z-0.125000 I-0.218919 J0.000000
G03 X41.432192 Y205.711168 Z-0.125000 I-2.894052 J-6.851182
G01 X41.403541 Y205.656225 Z-0.125000
G03 X41.725227 Y205.437297 Z-0.125000 I0.865790 J0.926357
G02 X42.231025 Y204.769975 Z-0.125000 I-0.390057 J-0.820991
G02 X42.152220 Y202.948018 Z-0.125000 I-4.249257 J-0.728891
G03 X41.829544 Y201.500877 Z-0.125000 I19.414833 J-5.088572
G01 X41.880310 Y201.474194 Z-0.125000
G03 X41.956875 Y201.599918 Z-0.125000 I-0.220420 J0.220410
G03 X42.449637 Y203.259915 Z-0.125000 I-41.092103 J13.101122
G01 X42.449637 Y203.259915 Z-0.125000
G00 Z5.000000

(End cutting path id: path4217)


(Start cutting path id: path4217)
(Change tool to Default tool)

G00 Z5.000000
G00 X43.667384 Y201.582398

G01 Z-0.125000 F100.0(Penetrate)
G03 X43.847897 Y202.573261 Z-0.125000 I-9.867545 J2.309525 F400.000000
G03 X43.811489 Y202.680448 Z-0.125000 I-0.126941 J0.016659
G03 X43.390538 Y202.570021 Z-0.125000 I-0.178209 J-0.178215
G03 X43.106868 Y200.157280 Z-0.125000 I7.564401 J-2.112406
G03 X43.217091 Y200.138563 Z-0.125000 I0.057072 J0.002187
G03 X43.667384 Y201.582398 Z-0.125000 I-9.728409 J3.826164
G01 X43.667384 Y201.582398 Z-0.125000
G00 Z5.000000

(End cutting path id: path4217)


(Start cutting path id: path4217)
(Change tool to Default tool)

G00 Z5.000000
G00 X43.040961 Y199.377864

G01 Z-0.125000 F100.0(Penetrate)
G01 X42.981900 Y199.389982 Z-0.125000 F400.000000
G03 X42.926305 Y199.263209 Z-0.125000 I0.134605 J-0.134607
G03 X42.966918 Y199.026246 Z-0.125000 I0.573711 J-0.023633
G01 X43.025980 Y199.014128 Z-0.125000
G03 X43.081575 Y199.140902 Z-0.125000 I-0.134607 J0.134607
G03 X43.040966 Y199.377864 Z-0.125000 I-0.573787 J0.023630
G01 X43.040961 Y199.377864 Z-0.125000
G00 Z5.000000

(End cutting path id: path4217)


(Start cutting path id: path4217)
(Change tool to Default tool)

G00 Z5.000000
G00 X41.931316 Y199.025199

G01 Z-0.125000 F100.0(Penetrate)
G02 X41.695961 Y199.312097 Z-0.125000 I0.485323 J0.638118 F400.000000
G02 X41.541189 Y199.825711 Z-0.125000 I1.505988 J0.733939
G01 X41.466855 Y200.386047 Z-0.125000
G01 X41.313905 Y199.861697 Z-0.125000
G03 X41.408056 Y199.078410 Z-0.125000 I0.964587 J-0.281359
G03 X41.938237 Y198.778989 Z-0.125000 I0.518492 J0.298983
G03 X42.015908 Y198.860448 Z-0.125000 I-0.001547 J0.079235
G03 X41.931322 Y199.025199 Z-0.125000 I-0.214471 J-0.006024
G01 X41.931316 Y199.025199 Z-0.125000
G00 Z5.000000

(End cutting path id: path4217)


(Start cutting path id: path4217)
(Change tool to Default tool)

G00 Z5.000000
G00 X41.962446 Y197.653560

G01 Z-0.125000 F100.0(Penetrate)
G03 X41.822946 Y197.941641 Z-0.125000 I-0.367208 J0.000000 F400.000000
G03 X40.776347 Y198.591088 Z-0.125000 I-3.371997 J-4.266015
G03 X39.285377 Y199.108851 Z-0.125000 I-3.141191 J-6.639880
G03 X39.115811 Y198.973931 Z-0.125000 I-0.031106 J-0.134920
G03 X39.249916 Y198.740913 Z-0.125000 I0.269497 J0.000000
G03 X40.441556 Y198.203628 Z-0.125000 I3.200499 J5.508256
G02 X41.212588 Y197.824977 Z-0.125000 I-1.001185 J-3.013011
G02 X41.479913 Y197.505091 Z-0.125000 I-0.417407 J-0.620466
G03 X41.758570 Y197.377521 Z-0.125000 I0.210916 J0.092589
G03 X41.962446 Y197.653560 Z-0.125000 I-0.084933 J0.276038
G01 X41.962446 Y197.653560 Z-0.125000
G00 Z5.000000

(End cutting path id: path4217)


(Start cutting path id: path4217)
(Change tool to Default tool)

G00 Z5.000000
G00 X40.537283 Y197.754005

G01 Z-0.125000 F100.0(Penetrate)
G03 X40.070545 Y197.852938 Z-0.125000 I-0.343397 J-0.469621 F400.000000
G03 X39.874913 Y197.610315 Z-0.125000 I0.052634 J-0.242623
G03 X39.949356 Y197.520678 Z-0.125000 I0.091188 J0.000000
G03 X40.254465 Y197.539412 Z-0.125000 I0.115248 J0.616948
G02 X40.529565 Y197.510439 Z-0.125000 I0.104425 J-0.329009
G02 X40.648997 Y197.314983 Z-0.125000 I-0.117027 J-0.205726
G03 X40.705536 Y197.217239 Z-0.125000 I0.121928 J0.005304
G01 X40.770000 Y197.238202 Z-0.125000
G03 X40.764424 Y197.474054 Z-0.125000 I-0.281562 J0.111335
G03 X40.537283 Y197.754005 Z-0.125000 I-0.644448 J-0.290757
G01 X40.537283 Y197.754005 Z-0.125000
G00 Z5.000000

(End cutting path id: path4217)


(Start cutting path id: path4217)
(Change tool to Default tool)

G00 Z5.000000
G00 X40.348623 Y194.975245

G01 Z-0.125000 F100.0(Penetrate)
G03 X40.590099 Y195.923525 Z-0.125000 I-6.514513 J2.163782 F400.000000
G03 X40.595762 Y196.348886 Z-0.125000 I-1.276816 J0.229718
G03 X40.498718 Y196.365226 Z-0.125000 I-0.051213 J-0.007812
G03 X40.107546 Y195.422421 Z-0.125000 I4.930801 J-2.598357
G03 X39.767552 Y193.986930 Z-0.125000 I10.211864 J-3.176674
G03 X39.860404 Y193.924710 Z-0.125000 I0.060575 J-0.009996
G03 X39.989205 Y194.069763 Z-0.125000 I-0.177679 J0.287485
G03 X40.348623 Y194.975245 Z-0.125000 I-7.729612 J3.592222
G01 X40.348623 Y194.975245 Z-0.125000
G00 Z5.000000

(End cutting path id: path4217)


(Start cutting path id: path4217)
(Change tool to Default tool)

G00 Z5.000000
G00 X41.018678 Y194.455561

G01 Z-0.125000 F100.0(Penetrate)
G03 X41.311071 Y195.277770 Z-0.125000 I-4.711196 J2.138488 F400.000000
G03 X41.380622 Y195.831434 Z-0.125000 I-2.045872 J0.538202
G03 X41.286954 Y195.880632 Z-0.125000 I-0.059985 J-0.000439
G03 X41.100965 Y195.641657 Z-0.125000 I0.275932 J-0.406614
G03 X40.858352 Y194.496104 Z-0.125000 I3.959807 J-1.437103
G03 X41.018678 Y194.455561 Z-0.125000 I0.083819 J-0.005815
G01 X41.018678 Y194.455561 Z-0.125000
G00 Z5.000000

(End cutting path id: path4217)


(Start cutting path id: path4217)
(Change tool to Default tool)

G00 Z5.000000
G00 X40.948080 Y192.423660

G01 Z-0.125000 F100.0(Penetrate)
G03 X40.859316 Y192.612402 Z-0.125000 I-0.134941 J0.051782 F400.000000
G03 X40.642715 Y192.526615 Z-0.125000 I-0.057611 J-0.170875
G03 X40.558591 Y192.207307 Z-0.125000 I0.628321 J-0.336271
G03 X40.633289 Y192.130809 Z-0.125000 I0.074697 J-0.001778
G03 X40.792628 Y192.193466 Z-0.125000 I0.000000 J0.233931
G03 X40.948074 Y192.423660 Z-0.125000 I-0.419349 J0.450762
G01 X40.948080 Y192.423660 Z-0.125000
G00 Z5.000000

(End cutting path id: path4217)


(Start cutting path id: path4217)
(Change tool to Default tool)

G00 Z5.000000
G00 X39.119610 Y193.663121

G01 Z-0.125000 F100.0(Penetrate)
G03 X39.127045 Y194.340130 Z-0.125000 I-1.310712 J0.352939 F400.000000
G03 X38.950172 Y194.352305 Z-0.125000 I-0.090385 J-0.022221
G03 X38.584251 Y193.036244 Z-0.125000 I5.924452 J-2.356152
G03 X38.708373 Y192.889914 Z-0.125000 I0.124122 J-0.020523
G03 X38.847397 Y192.973437 Z-0.125000 I-0.000000 J0.157464
G03 X39.119610 Y193.663121 Z-0.125000 I-2.905598 J1.545380
G01 X39.119610 Y193.663121 Z-0.125000
G00 Z5.000000

(End cutting path id: path4217)


(Start cutting path id: path4217)
(Change tool to Default tool)

G00 Z5.000000
G00 X38.628083 Y192.488853

G01 Z-0.125000 F100.0(Penetrate)
G03 X38.572074 Y192.750858 Z-0.125000 I-0.164690 J0.101783 F400.000000
G03 X37.333019 Y193.367310 Z-0.125000 I-2.899694 J-4.274864
G03 X36.440978 Y193.561716 Z-0.125000 I-1.304713 J-3.842951
G03 X36.215560 Y193.481528 Z-0.125000 I-0.028340 J-0.277266
G03 X36.200906 Y193.321761 Z-0.125000 I0.088690 J-0.088690
G03 X36.475495 Y193.103581 Z-0.125000 I0.493850 J0.339651
G02 X36.931002 Y192.917873 Z-0.125000 I-7.137610 J-18.158619
G02 X37.597608 Y192.629519 Z-0.125000 I-16.559346 J-39.195982
G03 X38.427533 Y192.394249 Z-0.125000 I1.246287 J2.814897
G03 X38.628083 Y192.488853 Z-0.125000 I0.027513 J0.201550
G01 X38.628083 Y192.488853 Z-0.125000
G00 Z5.000000

(End cutting path id: path4217)


(Start cutting path id: path4217)
(Change tool to Default tool)

G00 Z5.000000
G00 X36.462561 Y194.127797

G01 Z-0.125000 F100.0(Penetrate)
G03 X36.481840 Y194.258588 Z-0.125000 I-0.097899 J0.081247 F400.000000
G03 X36.390908 Y194.297269 Z-0.125000 I-0.065468 J-0.027680
G03 X36.136287 Y194.138634 Z-0.125000 I0.283408 J-0.738553
G03 X36.079402 Y194.008262 Z-0.125000 I0.120955 J-0.130372
G03 X36.176980 Y193.936487 Z-0.125000 I0.075187 J0.000000
G03 X36.462561 Y194.127797 Z-0.125000 I-0.180311 J0.577968
G01 X36.462561 Y194.127797 Z-0.125000
G00 Z5.000000

(End cutting path id: path4217)


(Start cutting path id: path4217)
(Change tool to Default tool)

G00 Z5.000000
G00 X35.278436 Y194.597892

G01 Z-0.125000 F100.0(Penetrate)
G03 X35.202649 Y194.759941 Z-0.125000 I-0.170419 J0.019046 F400.000000
G03 X35.066309 Y194.738266 Z-0.125000 I-0.056355 J-0.085160
G02 X34.754985 Y194.595399 Z-0.125000 I-0.296404 J0.235261
G02 X33.969520 Y194.781545 Z-0.125000 I0.082856 J2.099877
G03 X32.506935 Y195.196365 Z-0.125000 I-2.107473 J-4.644768
G03 X32.020163 Y195.030008 Z-0.125000 I-0.073836 J-0.579293
G03 X32.155887 Y194.422961 Z-0.125000 I0.260462 J-0.260462
G03 X34.656088 Y194.081323 Z-0.125000 I2.052835 J5.703828
G03 X35.095358 Y194.258469 Z-0.125000 I-0.057387 J0.775507
G03 X35.278436 Y194.597892 Z-0.125000 I-0.329256 J0.396679
G01 X35.278436 Y194.597892 Z-0.125000
G00 Z5.000000

(End cutting path id: path4217)


(Start cutting path id: path4217)
(Change tool to Default tool)

G00 Z5.000000
G00 X35.766449 Y196.637980

G01 Z-0.125000 F100.0(Penetrate)
G02 X35.884814 Y197.158839 Z-0.125000 I31.386411 J-6.858689 F400.000000
G02 X36.001593 Y197.634301 Z-0.125000 I26.248058 J-6.194784
G03 X35.952709 Y197.751851 Z-0.125000 I-0.102725 J0.026221
G03 X35.840634 Y197.729190 Z-0.125000 I-0.043432 J-0.073674
G03 X35.234030 Y196.413806 Z-0.125000 I2.828407 J-2.101913
G03 X35.471275 Y196.116098 Z-0.125000 I0.237245 J-0.054323
G03 X35.594531 Y196.187989 Z-0.125000 I0.000000 J0.141605
G03 X35.766449 Y196.637980 Z-0.125000 I-1.404725 J0.794506
G01 X35.766449 Y196.637980 Z-0.125000
G00 Z5.000000

(End cutting path id: path4217)


(Start cutting path id: path4217)
(Change tool to Default tool)

G00 Z5.000000
G00 X35.214476 Y192.492663

G01 Z-0.125000 F100.0(Penetrate)
G01 X35.185741 Y192.564898 Z-0.125000 F400.000000
G03 X34.941011 Y192.565418 Z-0.125000 I-0.123350 J-0.463648
G03 X34.770112 Y192.419002 Z-0.125000 I0.065097 J-0.248928
G03 X34.834661 Y192.320587 Z-0.125000 I0.064549 J-0.028039
G03 X35.078736 Y192.373297 Z-0.125000 I0.000000 J0.591448
G03 X35.214476 Y192.492663 Z-0.125000 I-0.127898 J0.282305
G01 X35.214476 Y192.492663 Z-0.125000
G00 Z5.000000

(End cutting path id: path4217)


(Start cutting path id: path4217)
(Change tool to Default tool)

G00 Z5.000000
G00 X30.904067 Y194.143223

G01 Z-0.125000 F100.0(Penetrate)
G03 X30.777292 Y194.198816 Z-0.125000 I-0.134606 J-0.134612 F400.000000
G03 X30.540331 Y194.158181 Z-0.125000 I-0.023613 J-0.573541
G01 X30.528213 Y194.099122 Z-0.125000
G03 X30.654986 Y194.043528 Z-0.125000 I0.134607 J0.134608
G03 X30.891949 Y194.084141 Z-0.125000 I0.023633 J0.573718
G01 X30.904067 Y194.143201 Z-0.125000
G01 X30.904067 Y194.143223 Z-0.125000
G00 Z5.000000

(End cutting path id: path4217)


(Start cutting path id: path4217)
(Change tool to Default tool)

G00 Z5.000000
G00 X30.765688 Y195.747044

G01 Z-0.125000 F100.0(Penetrate)
G03 X30.041375 Y196.826935 Z-0.125000 I-1.167170 J0.000000 F400.000000
G03 X28.378147 Y196.726163 Z-0.125000 I-0.727226 J-1.773313
G03 X28.372068 Y196.575794 Z-0.125000 I0.043118 J-0.077050
G03 X29.370063 Y196.060576 Z-0.125000 I2.740281 J4.083829
G03 X30.671766 Y195.571047 Z-0.125000 I101.695804 J268.443205
G03 X30.718244 Y195.557292 Z-0.125000 I0.121968 J0.326725
G01 X30.744318 Y195.573418 Z-0.125000
G03 X30.765688 Y195.747044 Z-0.125000 I-0.694648 J0.173626
G01 X30.765688 Y195.747044 Z-0.125000
G00 Z5.000000

(End cutting path id: path4217)


(Start cutting path id: path4217)
(Change tool to Default tool)

G00 Z5.000000
G00 X26.970176 Y197.437838

G01 Z-0.125000 F100.0(Penetrate)
G03 X26.746693 Y197.790361 Z-0.125000 I-0.389777 J0.000000 F400.000000
G03 X25.749111 Y198.013845 Z-0.125000 I-0.997582 J-2.114751
G03 X25.544396 Y197.795406 Z-0.125000 I0.000000 J-0.205146
G03 X25.784078 Y197.475314 Z-0.125000 I0.365253 J0.023716
G03 X26.805205 Y197.277998 Z-0.125000 I1.124639 J3.079239
G03 X26.970176 Y197.437840 Z-0.125000 I0.005050 J0.159842
G01 X26.970176 Y197.437838 Z-0.125000
G00 Z5.000000

(End cutting path id: path4217)


(Start cutting path id: path4217)
(Change tool to Default tool)

G00 Z5.000000
G00 X27.346822 Y198.251064

G01 Z-0.125000 F100.0(Penetrate)
G03 X27.259766 Y198.580112 Z-0.125000 I-0.677744 J-0.003269 F400.000000
G03 X27.159951 Y198.583171 Z-0.125000 I-0.050831 J-0.028597
G03 X26.943795 Y197.850448 Z-0.125000 I1.133811 J-0.732723
G03 X27.159951 Y197.634292 Z-0.125000 I0.216156 J0.000000
G03 X27.268679 Y197.714959 Z-0.125000 I0.000000 J0.113609
G03 X27.346822 Y198.251064 Z-0.125000 I-1.741158 J0.527538
G01 X27.346822 Y198.251064 Z-0.125000
G00 Z5.000000

(End cutting path id: path4217)


(Start cutting path id: path4217)
(Change tool to Default tool)

G00 Z5.000000
G00 X31.877663 Y206.553751

G01 Z-0.125000 F100.0(Penetrate)
G01 X31.825288 Y206.583874 Z-0.125000 F400.000000
G03 X31.714564 Y206.458865 Z-0.125000 I0.133878 J-0.230120
G03 X31.585069 Y206.072399 Z-0.125000 I2.271082 J-0.975913
G03 X31.551468 Y205.794649 Z-0.125000 I1.131161 J-0.277750
G01 X31.603841 Y205.764528 Z-0.125000
G03 X31.714564 Y205.889538 Z-0.125000 I-0.133884 J0.230122
G03 X31.844063 Y206.276003 Z-0.125000 I-2.270836 J0.975851
G03 X31.877663 Y206.553751 Z-0.125000 I-1.131155 J0.277747
G01 X31.877663 Y206.553751 Z-0.125000
G00 Z5.000000

(End cutting path id: path4217)


(Start cutting path id: path4217)
(Change tool to Default tool)

G00 Z5.000000
G00 X32.393631 Y208.215249

G01 Z-0.125000 F100.0(Penetrate)
G03 X32.261683 Y208.198821 Z-0.125000 I-0.059579 J-0.059577 F400.000000
G03 X32.025322 Y207.597519 Z-0.125000 I1.708619 J-1.018732
G01 X31.903131 Y207.028192 Z-0.125000
G01 X32.203252 Y207.566852 Z-0.125000
G03 X32.424450 Y208.094506 Z-0.125000 I-2.248585 J1.252824
G03 X32.393631 Y208.215249 Z-0.125000 I-0.117159 J0.034400
G01 X32.393631 Y208.215249 Z-0.125000
G00 Z5.000000

(End cutting path id: path4217)


(Start cutting path id: path4217)
(Change tool to Default tool)

G00 Z5.000000
G00 X32.726746 Y209.481397

G01 Z-0.125000 F100.0(Penetrate)
G03 X32.489609 Y210.085227 Z-0.125000 I-0.448806 J0.172224 F400.000000
G03 X31.382459 Y210.140665 Z-0.125000 I-0.618070 J-1.260281
G03 X31.287752 Y209.881048 Z-0.125000 I0.063251 J-0.170157
G03 X31.619678 Y209.721811 Z-0.125000 I0.280323 J0.158761
G02 X32.161278 Y209.685482 Z-0.125000 I0.192462 J-1.186022
G02 X32.283891 Y209.520104 Z-0.125000 I-0.050222 J-0.165378
G03 X32.467722 Y209.319505 Z-0.125000 I0.201364 J0.000000
G03 X32.726746 Y209.481397 Z-0.125000 I0.022097 J0.252808
G01 X32.726746 Y209.481397 Z-0.125000
G00 Z5.000000

(End cutting path id: path4217)


(Start cutting path id: path4217)
(Change tool to Default tool)

G00 Z5.000000
G00 X33.802097 Y209.026788

G01 Z-0.125000 F100.0(Penetrate)
G03 X33.544298 Y209.410589 Z-0.125000 I-0.414594 J0.000000 F400.000000
G03 X33.087750 Y209.318623 Z-0.125000 I-0.159092 J-0.389423
G03 X33.068521 Y209.202136 Z-0.125000 I0.071660 J-0.071660
G03 X33.238265 Y209.013422 Z-0.125000 I0.420145 J0.207213
G03 X33.671824 Y208.893376 Z-0.125000 I0.415166 J0.656468
G03 X33.802097 Y209.026771 Z-0.125000 I-0.003160 J0.133395
G01 X33.802097 Y209.026788 Z-0.125000
G00 Z5.000000

(End cutting path id: path4217)


(Start cutting path id: path4217)
(Change tool to Default tool)

G00 Z5.000000
G00 X34.857035 Y207.793327

G01 Z-0.125000 F100.0(Penetrate)
G03 X34.469926 Y208.014202 Z-0.125000 I-1.044507 J-1.380961 F400.000000
G03 X34.192820 Y208.065920 Z-0.125000 I-0.262969 J-0.640758
G03 X34.130588 Y207.984132 Z-0.125000 I0.001338 J-0.065588
G03 X34.265362 Y207.781259 Z-0.125000 I0.357039 J0.090988
G03 X34.652472 Y207.560385 Z-0.125000 I1.044510 J1.380966
G03 X34.929578 Y207.508664 Z-0.125000 I0.262980 J0.640785
G03 X34.991810 Y207.590453 Z-0.125000 I-0.001338 J0.065589
G03 X34.857035 Y207.793327 Z-0.125000 I-0.357041 J-0.090988
G01 X34.857035 Y207.793327 Z-0.125000
G00 Z5.000000

(End cutting path id: path4217)


(Start cutting path id: path4217)
(Change tool to Default tool)

G00 Z5.000000
G00 X36.648729 Y207.856266

G01 Z-0.125000 F100.0(Penetrate)
G03 X35.745023 Y209.192310 Z-0.125000 I-1.439461 J0.000000 F400.000000
G03 X34.137820 Y208.863141 Z-0.125000 I-0.554237 J-1.382134
G03 X34.179592 Y208.582733 Z-0.125000 I0.124734 J-0.124734
G03 X35.984516 Y207.878996 Z-0.125000 I3.873880 J7.269132
G02 X36.552837 Y207.728244 Z-0.125000 I-13.689852 J-52.756167
G02 X36.601285 Y207.711830 Z-0.125000 I-0.108013 J-0.398514
G01 X36.627563 Y207.723957 Z-0.125000
G03 X36.648729 Y207.856266 Z-0.125000 I-0.402962 J0.132309
G01 X36.648729 Y207.856266 Z-0.125000
G00 Z5.000000

(End cutting path id: path4217)


(Start cutting path id: path4217)
(Change tool to Default tool)

G00 Z5.000000
G00 X36.149512 Y205.794649

G01 Z-0.125000 F100.0(Penetrate)
G01 X36.264291 Y206.458865 Z-0.125000 F400.000000
G01 X35.973289 Y205.821906 Z-0.125000
G03 X35.726223 Y205.171960 Z-0.125000 I4.847479 J-2.214622
G03 X35.594434 Y204.588364 Z-0.125000 I3.771918 J-1.158460
G01 X35.506578 Y203.991783 Z-0.125000
G01 X35.770657 Y204.561109 Z-0.125000
G03 X35.993852 Y205.143203 Z-0.125000 I-4.151716 J1.925750
G03 X36.149512 Y205.794649 Z-0.125000 I-5.049993 J1.550993
G01 X36.149512 Y205.794649 Z-0.125000
G00 Z5.000000

(End cutting path id: path4217)


(Start cutting path id: path4217)
(Change tool to Default tool)

G00 Z5.000000
G00 X38.890587 Y206.606953

G01 Z-0.125000 F100.0(Penetrate)
G03 X38.604312 Y207.282687 Z-0.125000 I-0.645215 J0.125162 F400.000000
G03 X37.225617 Y207.692410 Z-0.125000 I-1.378696 J-2.114753
G03 X37.151158 Y207.520225 Z-0.125000 I0.000000 J-0.102192
G03 X37.917340 Y206.956555 Z-0.125000 I1.914278 J1.799471
G02 X38.549489 Y206.504520 Z-0.125000 I-1.012419 J-2.083847
G02 X38.534109 Y206.334964 Z-0.125000 I-0.078928 J-0.078316
G03 X38.498158 Y206.255794 Z-0.125000 I0.048642 J-0.069836
G01 X38.546470 Y206.222930 Z-0.125000
G03 X38.767621 Y206.359488 Z-0.125000 I-0.120773 J0.442938
G03 X38.890570 Y206.606953 Z-0.125000 I-0.386449 J0.346276
G01 X38.890587 Y206.606953 Z-0.125000
G00 Z5.000000

(End cutting path id: path4217)


(Start cutting path id: path4217)
(Change tool to Default tool)

G00 Z5.000000
G00 X41.796998 Y207.568201

G01 Z-0.125000 F100.0(Penetrate)
G03 X41.551165 Y207.778394 Z-0.125000 I-0.732680 J-0.608061 F400.000000
G03 X40.777440 Y208.174821 Z-0.125000 I-3.517314 J-5.911632
G02 X39.972235 Y208.530661 Z-0.125000 I29.965023 J68.894559
G02 X39.910289 Y208.564127 Z-0.125000 I0.196772 J0.438297
G01 X39.889697 Y208.616537 Z-0.125000
G02 X40.330769 Y210.187370 Z-0.125000 I38.952214 J-10.090003
G03 X40.774114 Y211.780937 Z-0.125000 I-34.920671 J10.573708
G03 X40.933523 Y212.561017 Z-0.125000 I-8.194434 J2.080849
G03 X40.885110 Y213.264120 Z-0.125000 I-1.572921 J0.244913
G03 X40.627608 Y213.578877 Z-0.125000 I-0.507604 J-0.152560
G03 X40.381643 Y213.576529 Z-0.125000 I-0.120837 J-0.225788
G03 X40.306021 Y213.398788 Z-0.125000 I0.077161 J-0.137787
G02 X40.321864 Y212.989552 Z-0.125000 I-0.919790 J-0.240534
G02 X39.859862 Y210.924351 Z-0.125000 I-24.983334 J4.504702
G03 X39.395246 Y208.864061 Z-0.125000 I25.522054 J-6.838006
G03 X39.423987 Y208.553558 Z-0.125000 I0.566478 J-0.104148
G03 X39.793076 Y208.114570 Z-0.125000 I0.819747 J0.314568
G03 X41.202114 Y207.490170 Z-0.125000 I3.254142 J5.441339
G03 X41.748676 Y207.445012 Z-0.125000 I0.377746 J1.241819
G03 X41.796998 Y207.568201 Z-0.125000 I-0.009828 J0.074927
G01 X41.796998 Y207.568201 Z-0.125000
G00 Z5.000000

(End cutting path id: path4217)


(Start cutting path id: path4217)
(Change tool to Default tool)

G00 Z5.000000
G00 X43.667519 Y207.751050

G01 Z-0.125000 F100.0(Penetrate)
G03 X43.587817 Y207.903084 Z-0.125000 I-0.187240 J-0.001251 F400.000000
G03 X43.480649 Y207.882179 Z-0.125000 I-0.043522 J-0.062036
G03 X43.312380 Y207.311782 Z-0.125000 I0.882628 J-0.570397
G03 X43.480649 Y207.217966 Z-0.125000 I0.110287 J0.000000
G03 X43.604335 Y207.371799 Z-0.125000 I-0.155572 J0.251725
G03 X43.667519 Y207.751050 Z-0.125000 I-1.059526 J0.371409
G01 X43.667519 Y207.751050 Z-0.125000
G00 Z5.000000

(End cutting path id: path4217)


(Start cutting path id: path4217)
(Change tool to Default tool)

G00 Z5.000000
G00 X44.468621 Y210.668568

G01 Z-0.125000 F100.0(Penetrate)
G03 X44.475109 Y211.374975 Z-0.125000 I-0.741501 J0.360044 F400.000000
G03 X44.001335 Y211.677693 Z-0.125000 I-0.473774 J-0.219386
G03 X43.690279 Y211.509516 Z-0.125000 I-0.000000 J-0.371749
G03 X43.256141 Y210.539039 Z-0.125000 I2.811777 J-1.840177
G03 X43.357515 Y210.280970 Z-0.125000 I0.225418 J-0.060397
G03 X43.557377 Y210.350007 Z-0.125000 I0.072143 J0.114964
G02 X43.997687 Y211.001631 Z-0.125000 I1.501247 J-0.539837
G02 X44.175765 Y210.900650 Z-0.125000 I0.071889 J-0.080734
G03 X44.055504 Y210.253838 Z-0.125000 I70.622515 J-13.465312
G03 X43.955499 Y209.685049 Z-0.125000 I54.521272 J-9.879184
G01 X43.858457 Y209.115722 Z-0.125000
G01 X44.062980 Y209.685049 Z-0.125000
G02 X44.280417 Y210.248937 Z-0.125000 I12.285412 J-4.413407
G02 X44.468621 Y210.668568 Z-0.125000 I6.988463 J-2.882310
G01 X44.468621 Y210.668568 Z-0.125000
G00 Z5.000000

(End cutting path id: path4217)


(Start cutting path id: path4217)
(Change tool to Default tool)

G00 Z5.000000
G00 X43.622982 Y212.316379

G01 Z-0.125000 F100.0(Penetrate)
G03 X43.791161 Y212.526105 Z-0.125000 I-0.010820 J0.180971 F400.000000
G03 X43.540240 Y212.831443 Z-0.125000 I-0.386864 J-0.062147
G03 X43.159209 Y212.867078 Z-0.125000 I-0.257211 J-0.695328
G03 X42.743467 Y212.696473 Z-0.125000 I0.170731 J-1.007902
G03 X42.550269 Y212.303052 Z-0.125000 I0.260666 J-0.372154
G03 X42.768980 Y212.151911 Z-0.125000 I0.166986 J0.007824
G02 X43.201174 Y212.263383 Z-0.125000 I1.111469 J-3.415767
G02 X43.622971 Y212.316379 Z-0.125000 I0.616346 J-3.200466
G01 X43.622982 Y212.316379 Z-0.125000
G00 Z5.000000

(End cutting path id: path4217)


(Start cutting path id: path4217)
(Change tool to Default tool)

G00 Z5.000000
G00 X42.517997 Y213.126602

G01 Z-0.125000 F100.0(Penetrate)
G03 X42.844429 Y213.649790 Z-0.125000 I-2.234103 J1.757349 F400.000000
G03 X42.911322 Y213.942636 Z-0.125000 I-0.607572 J0.292846
G02 X43.434608 Y214.703294 Z-0.125000 I0.814496 J0.000000
G02 X44.374966 Y214.502974 Z-0.125000 I0.315796 J-0.824878
G03 X44.604498 Y214.369891 Z-0.125000 I0.364940 J0.364940
G03 X44.839916 Y214.376559 Z-0.125000 I0.106690 J0.392399
G03 X44.868910 Y214.880472 Z-0.125000 I-0.086015 J0.257740
G03 X43.372002 Y215.062347 Z-0.125000 I-1.026450 J-2.197082
G03 X43.109205 Y214.919404 Z-0.125000 I0.097264 J-0.491860
G03 X42.729246 Y214.399066 Z-0.125000 I1.670149 J-1.618462
G02 X42.396142 Y213.806426 Z-0.125000 I-14.758334 J7.905249
G02 X42.090346 Y213.314534 Z-0.125000 I-10.468103 J6.166749
G03 X42.171779 Y213.039997 Z-0.125000 I0.156901 J-0.102806
G03 X42.517997 Y213.126602 Z-0.125000 I0.117218 J0.266736
G01 X42.517997 Y213.126602 Z-0.125000
G00 Z5.000000

(End cutting path id: path4217)


(Start cutting path id: path4217)
(Change tool to Default tool)

G00 Z5.000000
G00 X41.823358 Y213.717790

G01 Z-0.125000 F100.0(Penetrate)
G03 X42.318998 Y214.711859 Z-0.125000 I-1.541504 J1.389187 F400.000000
G03 X42.146717 Y215.384955 Z-0.125000 I-0.797040 J0.154591
G02 X42.050787 Y215.796044 Z-0.125000 I0.363313 J0.301518
G02 X43.775159 Y222.210246 Z-0.125000 I113.694425 J-27.126327
G03 X44.869272 Y226.784910 Z-0.125000 I-40.047877 J11.996339
G03 X44.648123 Y227.049522 Z-0.125000 I-0.221149 J0.039893
G03 X44.372056 Y226.847342 Z-0.125000 I0.000000 J-0.289569
G03 X41.944810 Y218.509621 Z-0.125000 I177.797607 J-56.281945
G03 X41.356589 Y215.804437 Z-0.125000 I29.157656 J-7.756638
G03 X41.445279 Y215.568101 Z-0.125000 I0.247315 J-0.041999
G02 X41.719142 Y214.905069 Z-0.125000 I-0.477866 J-0.585456
G02 X41.306982 Y214.227957 Z-0.125000 I-0.917883 J0.094722
G03 X40.972450 Y213.885780 Z-0.125000 I0.610032 J-0.931020
G03 X40.950433 Y213.656023 Z-0.125000 I0.219747 J-0.136991
G03 X41.274299 Y213.449861 Z-0.125000 I0.301102 J0.115544
G03 X41.823358 Y213.717790 Z-0.125000 I-0.057646 J0.814683
G01 X41.823358 Y213.717790 Z-0.125000
G00 Z5.000000

(End cutting path id: path4217)


(Start cutting path id: path4217)
(Change tool to Default tool)

G00 Z5.000000
G00 X46.896610 Y214.714110

G01 Z-0.125000 F100.0(Penetrate)
G03 X46.863583 Y214.870861 Z-0.125000 I-0.388489 J-0.000000 F400.000000
G03 X46.812923 Y214.903888 Z-0.125000 I-0.050660 J-0.022340
G03 X46.744415 Y214.876654 Z-0.125000 I-0.000000 J-0.099783
G03 X46.611947 Y214.714110 Z-0.125000 I0.554261 J-0.586959
G03 X46.602991 Y214.584730 Z-0.125000 I0.118431 J-0.073198
G03 X46.695634 Y214.524336 Z-0.125000 I0.092643 J0.040859
G03 X46.839443 Y214.581503 Z-0.125000 I0.000000 J0.209464
G03 X46.896610 Y214.714110 Z-0.125000 I-0.125217 J0.132607
G01 X46.896610 Y214.714110 Z-0.125000
G00 Z5.000000

(End cutting path id: path4217)


(Start cutting path id: path4217)
(Change tool to Default tool)

G00 Z5.000000
G00 X49.173915 Y212.622618

G01 Z-0.125000 F100.0(Penetrate)
G03 X49.109548 Y212.712943 Z-0.125000 I-0.095559 J0.000000 F400.000000
G03 X48.390757 Y212.893066 Z-0.125000 I-1.392282 J-4.031727
G02 X47.633260 Y213.081676 Z-0.125000 I0.722037 J4.515288
G02 X47.209874 Y213.296872 Z-0.125000 I0.547689 J1.601638
G03 X46.792303 Y213.507656 Z-0.125000 I-0.937931 J-1.339078
G03 X46.427387 Y213.559584 Z-0.125000 I-0.323094 J-0.962314
G01 X46.402350 Y213.471414 Z-0.125000
G03 X47.371048 Y212.921604 Z-0.125000 I3.989983 J5.901601
G03 X48.948608 Y212.431599 Z-0.125000 I2.568301 J5.484119
G03 X49.173915 Y212.622618 Z-0.125000 I0.031678 J0.191019
G01 X49.173915 Y212.622618 Z-0.125000
G00 Z5.000000

(End cutting path id: path4217)


(Start cutting path id: path4217)
(Change tool to Default tool)

G00 Z5.000000
G00 X51.266144 Y212.354261

G01 Z-0.125000 F100.0(Penetrate)
G03 X51.232860 Y212.644372 Z-0.125000 I-0.296942 J0.112897 F400.000000
G03 X51.065357 Y212.652991 Z-0.125000 I-0.086981 J-0.058463
G03 X50.757166 Y212.029657 Z-0.125000 I1.145283 J-0.954110
G03 X50.886592 Y211.867468 Z-0.125000 I0.129426 J-0.029454
G03 X51.032069 Y211.938510 Z-0.125000 I0.000000 J0.184471
G03 X51.266144 Y212.354261 Z-0.125000 I-1.263448 J0.985112
G01 X51.266144 Y212.354261 Z-0.125000
G00 Z5.000000

(End cutting path id: path4217)


(Start cutting path id: path4217)
(Change tool to Default tool)

G00 Z5.000000
G00 X48.414813 Y210.444145

G01 Z-0.125000 F100.0(Penetrate)
G03 X48.005919 Y210.685622 Z-0.125000 I-0.540823 J-0.448846 F400.000000
G03 X47.845486 Y210.552947 Z-0.125000 I-0.025356 J-0.132675
G03 X47.907452 Y210.424940 Z-0.125000 I0.163200 J0.000000
G03 X48.177594 Y210.290300 Z-0.125000 I0.456000 J0.576592
G02 X48.509315 Y210.202152 Z-0.125000 I-10.559241 J-40.405297
G02 X48.580382 Y210.181495 Z-0.125000 I-0.506616 J-1.875435
G01 X48.593224 Y210.198209 Z-0.125000
G03 X48.414813 Y210.444145 Z-0.125000 I-1.974523 J-1.244706
G01 X48.414813 Y210.444145 Z-0.125000
G00 Z5.000000

(End cutting path id: path4217)


(Start cutting path id: path4217)
(Change tool to Default tool)

G00 Z5.000000
G00 X47.655712 Y210.746574

G01 Z-0.125000 F100.0(Penetrate)
G03 X47.583302 Y210.898210 Z-0.125000 I-0.194979 J0.000000 F400.000000
G03 X47.276159 Y211.053372 Z-0.125000 I-0.514012 J-0.635908
G02 X46.959862 Y211.201465 Z-0.125000 I0.243949 J0.932852
G02 X46.896610 Y211.324336 Z-0.125000 I0.087719 J0.122872
G03 X46.832279 Y211.453532 Z-0.125000 I-0.161896 J-0.000000
G03 X46.374725 Y211.718449 Z-0.125000 I-1.309293 J-1.733767
G02 X45.870425 Y211.969687 Z-0.125000 I1.862149 J4.369561
G02 X45.548181 Y212.193395 Z-0.125000 I1.147147 J1.996376
G03 X45.227319 Y212.347353 Z-0.125000 I-0.468645 J-0.565362
G03 X44.921117 Y212.322221 Z-0.125000 I-0.110133 J-0.536062
G03 X44.820715 Y212.147669 Z-0.125000 I0.057194 J-0.149049
G03 X45.012390 Y211.758163 Z-0.125000 I0.732453 J0.118524
G03 X45.471358 Y211.397771 Z-0.125000 I1.414252 J1.328637
G03 X46.019006 Y211.188844 Z-0.125000 I0.963743 J1.703983
G02 X46.591411 Y211.012745 Z-0.125000 I-0.756314 J-3.476724
G02 X46.986281 Y210.799448 Z-0.125000 I-0.746131 J-1.853437
G03 X47.510245 Y210.612143 Z-0.125000 I0.607759 J0.873620
G03 X47.655712 Y210.746574 Z-0.125000 I0.010618 J0.134431
G01 X47.655712 Y210.746574 Z-0.125000
G00 Z5.000000

(End cutting path id: path4217)


(Start cutting path id: path4217)
(Change tool to Default tool)

G00 Z5.000000
G00 X47.845486 Y209.791136

G01 Z-0.125000 F100.0(Penetrate)
G03 X47.791604 Y209.915828 Z-0.125000 I-0.171218 J0.000000 F400.000000
G03 X47.655712 Y209.969712 Z-0.125000 I-0.135892 J-0.144412
G03 X47.533007 Y209.902641 Z-0.125000 I0.000000 J-0.145779
G03 X47.465934 Y209.673847 Z-0.125000 I0.356689 J-0.228794
G03 X47.537961 Y209.507172 Z-0.125000 I0.228863 J0.000000
G03 X47.655712 Y209.495274 Z-0.125000 I0.066632 J0.070812
G03 X47.800491 Y209.637648 Z-0.125000 I-0.240866 J0.389736
G03 X47.845486 Y209.791136 Z-0.125000 I-0.239293 J0.153488
G01 X47.845486 Y209.791136 Z-0.125000
G00 Z5.000000

(End cutting path id: path4217)


(Start cutting path id: path4217)
(Change tool to Default tool)

G00 Z5.000000
G00 X48.479899 Y209.448603

G01 Z-0.125000 F100.0(Penetrate)
G03 X48.238681 Y209.455945 Z-0.125000 I-0.123036 J-0.076039 F400.000000
G03 X48.044205 Y208.831058 Z-0.125000 I0.869127 J-0.613194
G03 X48.121901 Y208.772474 Z-0.125000 I0.061473 J0.000713
G03 X48.319882 Y208.906460 Z-0.125000 I-0.097938 J0.357980
G03 X48.503750 Y209.270712 Z-0.125000 I-0.906320 J0.686027
G03 X48.479899 Y209.448603 Z-0.125000 I-0.210946 J0.062262
G01 X48.479899 Y209.448603 Z-0.125000
G00 Z5.000000

(End cutting path id: path4217)


(Start cutting path id: path4217)
(Change tool to Default tool)

G00 Z5.000000
G00 X46.470793 Y210.017151

G01 Z-0.125000 F100.0(Penetrate)
G03 X46.329557 Y210.174741 Z-0.125000 I-0.250212 J-0.082161 F400.000000
G03 X45.838209 Y210.304682 Z-0.125000 I-0.628566 J-1.382871
G01 X45.283518 Y210.354996 Z-0.125000
G01 X45.757956 Y210.074188 Z-0.125000
G03 X46.364338 Y209.881862 Z-0.125000 I0.718966 J1.214727
G03 X46.470793 Y210.017151 Z-0.125000 I0.008245 J0.103040
G01 X46.470793 Y210.017151 Z-0.125000
G00 Z5.000000

(End cutting path id: path4217)


(Start cutting path id: path4217)
(Change tool to Default tool)

G00 Z5.000000
G00 X47.405798 Y205.830232

G01 Z-0.125000 F100.0(Penetrate)
G01 X47.346738 Y205.842350 Z-0.125000 F400.000000
G03 X47.291143 Y205.715576 Z-0.125000 I0.134605 J-0.134607
G03 X47.331756 Y205.478615 Z-0.125000 I0.573708 J-0.023633
G01 X47.390818 Y205.466495 Z-0.125000
G03 X47.446413 Y205.593269 Z-0.125000 I-0.134607 J0.134607
G03 X47.405804 Y205.830232 Z-0.125000 I-0.573787 J0.023630
G01 X47.405798 Y205.830232 Z-0.125000
G00 Z5.000000

(End cutting path id: path4217)


(Start cutting path id: path4217)
(Change tool to Default tool)

G00 Z5.000000
G00 X49.553467 Y204.738805

G01 Z-0.125000 F100.0(Penetrate)
G02 X49.576861 Y204.986383 Z-0.125000 I1.321750 J0.000000 F400.000000
G02 X49.860039 Y206.346532 Z-0.125000 I40.520584 J-7.726693
G02 X50.289694 Y207.489446 Z-0.125000 I4.345189 J-0.981265
G02 X50.533360 Y207.587675 Z-0.125000 I0.181278 J-0.098343
G03 X50.881972 Y207.564237 Z-0.125000 I0.222150 J0.699922
G03 X51.175666 Y207.699962 Z-0.125000 I-0.108440 J0.620278
G03 X51.303594 Y208.019160 Z-0.125000 I-0.230350 J0.277553
G03 X51.119115 Y208.186502 Z-0.125000 I-0.187956 J-0.021847
G02 X50.791808 Y208.220496 Z-0.125000 I0.035583 J1.935314
G02 X50.387290 Y208.326188 Z-0.125000 I0.585646 J3.068427
G03 X50.098890 Y208.242855 Z-0.125000 I-0.083791 J-0.250730
G03 X49.678079 Y207.459317 Z-0.125000 I1.795892 J-1.469281
G03 X49.066879 Y204.521975 Z-0.125000 I15.130021 J-4.680508
G03 X49.334096 Y204.353041 Z-0.125000 I0.174773 J-0.019354
G03 X49.495807 Y204.520768 Z-0.125000 I-0.247478 J0.400421
G03 X49.553467 Y204.738805 Z-0.125000 I-0.383415 J0.218037
G01 X49.553467 Y204.738805 Z-0.125000
G00 Z5.000000

(End cutting path id: path4217)


(Start cutting path id: path4217)
(Change tool to Default tool)

G00 Z5.000000
G00 X47.560823 Y202.758240

G01 Z-0.125000 F100.0(Penetrate)
G03 X47.569778 Y202.887623 Z-0.125000 I-0.118440 J0.073199 F400.000000
G03 X47.477136 Y202.948018 Z-0.125000 I-0.092643 J-0.040857
G03 X47.333328 Y202.890850 Z-0.125000 I0.000000 J-0.209462
G03 X47.276159 Y202.758240 Z-0.125000 I0.125220 J-0.132610
G03 X47.309186 Y202.601493 Z-0.125000 I0.388479 J-0.000000
G03 X47.359847 Y202.568465 Z-0.125000 I0.050660 J0.022340
G03 X47.428352 Y202.595698 Z-0.125000 I-0.000000 J0.099781
G03 X47.560823 Y202.758240 Z-0.125000 I-0.554251 J0.586965
G01 X47.560823 Y202.758240 Z-0.125000
G00 Z5.000000

(End cutting path id: path4217)


(Start cutting path id: path4217)
(Change tool to Default tool)

G00 Z5.000000
G00 X48.098247 Y202.188913

G01 Z-0.125000 F100.0(Penetrate)
G03 X48.110993 Y202.557162 Z-0.125000 I-1.258466 J0.227901 F400.000000
G01 X48.056343 Y202.568465 Z-0.125000
G03 X47.933913 Y202.269968 Z-0.125000 I1.092555 J-0.622474
G03 X47.778024 Y201.524700 Z-0.125000 I6.766527 J-1.804301
G03 X47.872856 Y201.495311 Z-0.125000 I0.049618 J-0.007591
G03 X48.098247 Y202.188913 Z-0.125000 I-2.439843 J1.176267
G01 X48.098247 Y202.188913 Z-0.125000
G00 Z5.000000

(End cutting path id: path4217)


(Start cutting path id: path4217)
(Change tool to Default tool)

G00 Z5.000000
G00 X47.175931 Y201.334937

G01 Z-0.125000 F100.0(Penetrate)
G03 X47.036158 Y201.393378 Z-0.125000 I-0.077955 J0.009922 F400.000000
G03 X46.803559 Y200.860496 Z-0.125000 I0.910532 J-0.714647
G03 X46.781112 Y200.226009 Z-0.125000 I2.569340 J-0.408537
G01 X46.861465 Y200.196283 Z-0.125000
G03 X46.991843 Y200.417515 Z-0.125000 I-0.345541 J0.352670
G03 X47.175931 Y201.334937 Z-0.125000 I-6.318627 J1.745066
G01 X47.175931 Y201.334937 Z-0.125000
G00 Z5.000000

(End cutting path id: path4217)


(Start cutting path id: path4217)
(Change tool to Default tool)

G00 Z5.000000
G00 X46.397308 Y201.619589

G01 Z-0.125000 F100.0(Penetrate)
G03 X46.543973 Y202.998730 Z-0.125000 I-6.925963 J1.433909 F400.000000
G03 X46.410516 Y203.325027 Z-0.125000 I-0.456969 J0.003539
G03 X46.288516 Y203.308757 Z-0.125000 I-0.054795 J-0.054669
G03 X46.243816 Y203.033268 Z-0.125000 I0.345559 J-0.197440
G02 X46.269760 Y202.461888 Z-0.125000 I-1.851771 J-0.370361
G02 X46.058277 Y201.300438 Z-0.125000 I-7.996560 J0.856075
G03 X45.825036 Y199.947004 Z-0.125000 I8.028565 J-2.080405
G03 X45.936072 Y199.911608 Z-0.125000 I0.059491 J-0.005235
G03 X46.061847 Y200.211944 Z-0.125000 I-1.060995 J0.620826
G03 X46.397314 Y201.619589 Z-0.125000 I-23.437758 J6.329435
G01 X46.397308 Y201.619589 Z-0.125000
G00 Z5.000000

(End cutting path id: path4217)


(Start cutting path id: path4217)
(Change tool to Default tool)

G00 Z5.000000
G00 X47.591619 Y200.528391

G01 Z-0.125000 F100.0(Penetrate)
G01 X47.541954 Y200.528390 Z-0.125000 F400.000000
G03 X47.495901 Y200.291169 Z-0.125000 I0.587933 J-0.237221
G03 X47.541955 Y200.053950 Z-0.125000 I0.633960 J-0.000000
G01 X47.591619 Y200.053950 Z-0.125000
G03 X47.637675 Y200.291171 Z-0.125000 I-0.587901 J0.237220
G03 X47.591619 Y200.528391 Z-0.125000 I-0.633957 J0.000000
G01 X47.591619 Y200.528391 Z-0.125000
G00 Z5.000000

(End cutting path id: path4217)


(Start cutting path id: path4217)
(Change tool to Default tool)

G00 Z5.000000
G00 X47.052987 Y197.726777

G01 Z-0.125000 F100.0(Penetrate)
G03 X47.211038 Y198.661789 Z-0.125000 I-12.509203 J2.595377 F400.000000
G03 X47.185425 Y198.737172 Z-0.125000 I-0.089292 J0.011704
G03 X46.830383 Y198.649132 Z-0.125000 I-0.150995 J-0.150995
G03 X46.517058 Y196.570817 Z-0.125000 I6.736174 J-2.078315
G03 X46.660303 Y196.539226 Z-0.125000 I0.075106 J0.000000
G03 X47.052987 Y197.726777 Z-0.125000 I-4.954304 J2.296925
G01 X47.052987 Y197.726777 Z-0.125000
G00 Z5.000000

(End cutting path id: path4217)


(Start cutting path id: path4217)
(Change tool to Default tool)

G00 Z5.000000
G00 X47.615492 Y196.543091

G01 Z-0.125000 F100.0(Penetrate)
G03 X47.758745 Y196.804354 Z-0.125000 I-0.611042 J0.504946 F400.000000
G03 X47.937364 Y197.539412 Z-0.125000 I-4.861682 J1.570616
G02 X48.080272 Y198.295096 Z-0.125000 I16.769522 J-2.779957
G02 X48.428783 Y199.850346 Z-0.125000 I71.405437 J-15.184329
G03 X48.720363 Y201.520442 Z-0.125000 I-14.108504 J3.323686
G03 X48.631949 Y201.619589 Z-0.125000 I-0.088414 J0.010153
G03 X48.529393 Y201.544485 Z-0.125000 I0.000000 J-0.107574
G03 X48.046135 Y199.769275 Z-0.125000 I21.484118 J-6.801913
G02 X47.603921 Y197.923936 Z-0.125000 I-90.214019 J20.643107
G02 X47.380576 Y197.112418 Z-0.125000 I-17.663570 J4.424844
G03 X47.407404 Y196.574463 Z-0.125000 I0.770163 J-0.231239
G03 X47.615492 Y196.543091 Z-0.125000 I0.113468 J0.046819
G01 X47.615492 Y196.543091 Z-0.125000
G00 Z5.000000

(End cutting path id: path4217)


(Start cutting path id: path4217)
(Change tool to Default tool)

G00 Z5.000000
G00 X45.944827 Y195.820261

G01 Z-0.125000 F100.0(Penetrate)
G03 X45.762524 Y196.186868 Z-0.125000 I-0.473574 J-0.006863 F400.000000
G03 X44.641440 Y196.836763 Z-0.125000 I-2.917487 J-3.740837
G03 X43.481923 Y197.083274 Z-0.125000 I-1.261436 J-3.083169
G03 X43.385760 Y196.875199 Z-0.125000 I-0.003811 J-0.124497
G03 X43.763134 Y196.572003 Z-0.125000 I1.137770 J1.029681
G03 X44.051068 Y196.495647 Z-0.125000 I0.287934 J0.504712
G02 X44.366875 Y196.460112 Z-0.125000 I0.000000 J-1.421093
G02 X44.980753 Y196.283743 Z-0.125000 I-1.275533 J-5.596216
G02 X45.387486 Y195.955896 Z-0.125000 I-0.255667 J-0.733409
G02 X45.474569 Y195.477197 Z-0.125000 I-0.574585 J-0.351796
G03 X45.530066 Y195.251065 Z-0.125000 I0.274184 J-0.052586
G03 X45.654127 Y195.250934 Z-0.125000 I0.062083 J0.049268
G03 X45.901690 Y195.635045 Z-0.125000 I-1.782532 J1.420692
G03 X45.944827 Y195.820261 Z-0.125000 I-0.351564 J0.179511
G01 X45.944827 Y195.820261 Z-0.125000
G00 Z5.000000

(End cutting path id: path4217)


(Start cutting path id: path4217)
(Change tool to Default tool)

G00 Z5.000000
G00 X46.321469 Y194.882555

G01 Z-0.125000 F100.0(Penetrate)
G01 X46.274016 Y194.911473 Z-0.125000 F400.000000
G03 X46.137506 Y194.787669 Z-0.125000 I0.164047 J-0.318046
G03 X45.987192 Y194.493079 Z-0.125000 I1.365057 J-0.882159
G03 X45.953545 Y194.313228 Z-0.125000 I0.463844 J-0.179850
G01 X46.000997 Y194.284311 Z-0.125000
G03 X46.137506 Y194.408117 Z-0.125000 I-0.164043 J0.318035
G03 X46.287822 Y194.702706 Z-0.125000 I-1.364995 J0.882144
G03 X46.321469 Y194.882555 Z-0.125000 I-0.463833 J0.179849
G01 X46.321469 Y194.882555 Z-0.125000
G00 Z5.000000

(End cutting path id: path4217)


(Start cutting path id: path4217)
(Change tool to Default tool)

G00 Z5.000000
G00 X45.318265 Y194.253925

G01 Z-0.125000 F100.0(Penetrate)
G01 X45.259207 Y194.266043 Z-0.125000 F400.000000
G03 X45.203613 Y194.139266 Z-0.125000 I0.134613 J-0.134609
G03 X45.244224 Y193.902307 Z-0.125000 I0.573719 J-0.023633
G01 X45.303285 Y193.890188 Z-0.125000
G03 X45.358882 Y194.016963 Z-0.125000 I-0.134602 J0.134608
G03 X45.318271 Y194.253925 Z-0.125000 I-0.573762 J0.023629
G01 X45.318265 Y194.253925 Z-0.125000
G00 Z5.000000

(End cutting path id: path4217)


(Start cutting path id: path4217)
(Change tool to Default tool)

G00 Z5.000000
G00 X44.563276 Y194.664448

G01 Z-0.125000 F100.0(Penetrate)
G03 X44.150730 Y194.659304 Z-0.125000 I-0.205425 J-0.070558 F400.000000
G03 X43.873736 Y192.481149 Z-0.125000 I5.866093 J-1.852676
G01 X43.921148 Y192.472177 Z-0.125000
G03 X44.262729 Y193.336017 Z-0.125000 I-8.380515 J3.813288
G03 X44.575111 Y194.446192 Z-0.125000 I-10.552043 J3.568178
G03 X44.563276 Y194.664448 Z-0.125000 I-0.390236 J0.088288
G01 X44.563276 Y194.664448 Z-0.125000
G00 Z5.000000

(End cutting path id: path4217)


(Start cutting path id: path4217)
(Change tool to Default tool)

G00 Z5.000000
G00 X43.857294 Y194.466763

G01 Z-0.125000 F100.0(Penetrate)
G03 X43.777593 Y194.618796 Z-0.125000 I-0.187241 J-0.001251 F400.000000
G03 X43.670423 Y194.597892 Z-0.125000 I-0.043523 J-0.062036
G03 X43.502154 Y194.027495 Z-0.125000 I0.882628 J-0.570397
G03 X43.670423 Y193.933679 Z-0.125000 I0.110287 J-0.000000
G03 X43.794110 Y194.087512 Z-0.125000 I-0.155572 J0.251725
G03 X43.857294 Y194.466763 Z-0.125000 I-1.059526 J0.371409
G01 X43.857294 Y194.466763 Z-0.125000
G00 Z5.000000

(End cutting path id: path4217)


(Start cutting path id: path4217)
(Change tool to Default tool)

G00 Z5.000000
G00 X44.881490 Y195.461740

G01 Z-0.125000 F100.0(Penetrate)
G03 X44.879218 Y195.617086 Z-0.125000 I-0.195026 J0.074838 F400.000000
G01 X44.806904 Y195.640313 Z-0.125000
G03 X44.664072 Y195.499410 Z-0.125000 I0.236356 J-0.382437
G03 X44.619303 Y195.345795 Z-0.125000 I0.241163 J-0.153615
G03 X44.713096 Y195.284717 Z-0.125000 I0.066784 J0.000000
G03 X44.881490 Y195.461740 Z-0.125000 I-0.128699 J0.291029
G01 X44.881490 Y195.461740 Z-0.125000
G00 Z5.000000

(End cutting path id: path4217)


(Start cutting path id: path4217)
(Change tool to Default tool)

G00 Z5.000000
G00 X44.334639 Y195.926320

G01 Z-0.125000 F100.0(Penetrate)
G03 X44.343594 Y196.055703 Z-0.125000 I-0.118440 J0.073199 F400.000000
G03 X44.250952 Y196.116098 Z-0.125000 I-0.092643 J-0.040857
G03 X44.107144 Y196.058930 Z-0.125000 I0.000000 J-0.209462
G03 X44.049976 Y195.926320 Z-0.125000 I0.125220 J-0.132610
G03 X44.083003 Y195.769573 Z-0.125000 I0.388479 J0.000000
G03 X44.133663 Y195.736545 Z-0.125000 I0.050660 J0.022340
G03 X44.202168 Y195.763778 Z-0.125000 I0.000000 J0.099781
G03 X44.334639 Y195.926320 Z-0.125000 I-0.554251 J0.586965
G01 X44.334639 Y195.926320 Z-0.125000
G00 Z5.000000

(End cutting path id: path4217)


(Start cutting path id: path4217)
(Change tool to Default tool)

G00 Z5.000000
G00 X45.757956 Y197.139560

G01 Z-0.125000 F100.0(Penetrate)
G03 X45.728241 Y197.193718 Z-0.125000 I-0.064211 J-0.000000 F400.000000
G03 X45.463435 Y197.327161 Z-0.125000 I-0.794947 J-1.248035
G03 X45.308088 Y197.324891 Z-0.125000 I-0.074839 J-0.195029
G01 X45.284862 Y197.252578 Z-0.125000
G03 X45.606552 Y197.020063 Z-0.125000 I0.442572 J0.273519
G03 X45.757956 Y197.139560 Z-0.125000 I0.028546 J0.119497
G01 X45.757956 Y197.139560 Z-0.125000
G00 Z5.000000

(End cutting path id: path4217)


(Start cutting path id: path4217)
(Change tool to Default tool)

G00 Z5.000000
G00 X49.515511 Y193.686969

G01 Z-0.125000 F100.0(Penetrate)
G03 X49.606097 Y194.270351 Z-0.125000 I-0.353638 J0.353636 F400.000000
G03 X48.800673 Y195.069135 Z-0.125000 I-1.640007 J-0.848188
G03 X47.320113 Y195.539685 Z-0.125000 I-2.186240 J-4.314364
G03 X47.131933 Y195.315239 Z-0.125000 I-0.025083 J-0.170080
G03 X47.273260 Y195.153103 Z-0.125000 I0.265007 J0.088334
G03 X47.996664 Y194.888245 Z-0.125000 I1.586597 J3.213115
G02 X49.153330 Y194.251104 Z-0.125000 I-0.618170 J-2.490701
G02 X49.181820 Y193.753426 Z-0.125000 I-0.252914 J-0.264132
G03 X49.235492 Y193.602057 Z-0.125000 I0.071929 J-0.059696
G03 X49.515511 Y193.686969 Z-0.125000 I0.060606 J0.304314
G01 X49.515511 Y193.686969 Z-0.125000
G00 Z5.000000

(End cutting path id: path4217)


(Start cutting path id: path4217)
(Change tool to Default tool)

G00 Z5.000000
G00 X50.368641 Y193.901596

G01 Z-0.125000 F100.0(Penetrate)
G03 X50.262701 Y193.925647 Z-0.125000 I-0.064791 J-0.040043 F400.000000
G03 X50.103394 Y193.731306 Z-0.125000 I0.220173 J-0.342946
G03 X50.087820 Y193.368520 Z-0.125000 I0.521193 J-0.204101
G03 X50.217638 Y193.344865 Z-0.125000 I0.070882 J0.020955
G03 X50.396587 Y193.709352 Z-0.125000 I-0.850357 J0.643666
G03 X50.368641 Y193.901596 Z-0.125000 I-0.235605 J0.063903
G01 X50.368641 Y193.901596 Z-0.125000
G00 Z5.000000

(End cutting path id: path4217)


(Start cutting path id: path4217)
(Change tool to Default tool)

G00 Z5.000000
G00 X51.154268 Y192.870028

G01 Z-0.125000 F100.0(Penetrate)
G03 X51.155696 Y193.004968 Z-0.125000 I-0.111081 J0.068652 F400.000000
G03 X50.994245 Y193.141614 Z-0.125000 I-0.276360 J-0.162824
G03 X50.650581 Y193.114728 Z-0.125000 I-0.143607 J-0.374231
G03 X50.502343 Y192.858282 Z-0.125000 I0.147703 J-0.256446
G03 X50.734023 Y192.630738 Z-0.125000 I0.227581 J0.000000
G03 X51.154268 Y192.870023 Z-0.125000 I-0.009089 J0.504634
G01 X51.154268 Y192.870028 Z-0.125000
G00 Z5.000000

(End cutting path id: path4217)


(Start cutting path id: path4217)
(Change tool to Default tool)

G00 Z5.000000
G00 X51.747056 Y193.749938

G01 Z-0.125000 F100.0(Penetrate)
G03 X50.929871 Y194.069932 Z-0.125000 I-0.977108 J-1.291850 F400.000000
G03 X50.692121 Y193.854603 Z-0.125000 I-0.021364 J-0.215329
G03 X50.837562 Y193.640874 Z-0.125000 I0.229760 J0.000000
G03 X51.640997 Y193.480258 Z-0.125000 I0.846940 J2.146784
G03 X51.794151 Y193.582492 Z-0.125000 I0.003044 J0.161275
G03 X51.747056 Y193.749938 Z-0.125000 I-0.133931 J0.052677
G01 X51.747056 Y193.749938 Z-0.125000
G00 Z5.000000

(End cutting path id: path4217)


(Start cutting path id: path4217)
(Change tool to Default tool)

G00 Z5.000000
G00 X54.861147 Y194.337437

G01 Z-0.125000 F100.0(Penetrate)
G03 X54.617308 Y195.063288 Z-0.125000 I-1.151197 J0.017154 F400.000000
G03 X54.277963 Y195.084067 Z-0.125000 I-0.178863 J-0.139702
G03 X54.238177 Y194.989442 Z-0.125000 I0.096061 J-0.096067
G03 X54.267803 Y194.127693 Z-0.125000 I9.589008 J-0.101719
G03 X54.439653 Y193.600139 Z-0.125000 I1.185004 J0.094246
G03 X54.596307 Y193.592427 Z-0.125000 I0.080963 J0.049689
G03 X54.792294 Y193.955322 Z-0.125000 I-1.073643 J0.814208
G03 X54.861136 Y194.337437 Z-0.125000 I-1.125209 J0.399976
G01 X54.861147 Y194.337437 Z-0.125000
G00 Z5.000000

(End cutting path id: path4217)


(Start cutting path id: path4217)
(Change tool to Default tool)

G00 Z5.000000
G00 X53.449531 Y196.485625

G01 Z-0.125000 F100.0(Penetrate)
G02 X52.840101 Y197.626677 Z-0.125000 I23.545578 J13.308845 F400.000000
G02 X52.693381 Y197.986695 Z-0.125000 I2.181895 J1.099103
G03 X52.530501 Y198.329039 Z-0.125000 I-1.325309 J-0.420637
G03 X52.297861 Y198.589279 Z-0.125000 I-0.985388 J-0.646777
G03 X52.130777 Y198.494799 Z-0.125000 I-0.065575 J-0.079014
G03 X52.496842 Y197.283349 Z-0.125000 I4.412641 J0.672340
G02 X52.912084 Y196.255490 Z-0.125000 I-9.714520 J-4.522349
G02 X52.969426 Y195.913434 Z-0.125000 I-0.991546 J-0.342056
G03 X53.066943 Y195.700551 Z-0.125000 I0.281122 J-0.000000
G03 X53.254089 Y195.667918 Z-0.125000 I0.120853 J0.140124
G02 X53.465552 Y195.670662 Z-0.125000 I0.109451 J-0.285227
G02 X53.538752 Y195.567074 Z-0.125000 I-0.036695 J-0.103588
G03 X53.608197 Y195.426437 Z-0.125000 I0.177128 J-0.000000
G03 X53.813112 Y195.356996 Z-0.125000 I0.204915 J0.267622
G03 X53.894942 Y195.469328 Z-0.125000 I-0.000000 J0.085971
G03 X53.449531 Y196.485625 Z-0.125000 I-5.216495 J-1.680471
G01 X53.449531 Y196.485625 Z-0.125000
G00 Z5.000000

(End cutting path id: path4217)


(Start cutting path id: path4217)
(Change tool to Default tool)

G00 Z5.000000
G00 X51.714953 Y197.349637

G01 Z-0.125000 F100.0(Penetrate)
G03 X51.714220 Y197.622238 Z-0.125000 I-0.602104 J0.134680 F400.000000
G01 X51.649667 Y197.634301 Z-0.125000
G03 X51.506914 Y197.334128 Z-0.125000 I0.914949 J-0.619152
G03 X51.454126 Y196.985901 Z-0.125000 I1.187523 J-0.358130
G01 X51.539578 Y196.958054 Z-0.125000
G03 X51.714953 Y197.349637 Z-0.125000 I-0.873185 J0.626131
G01 X51.714953 Y197.349637 Z-0.125000
G00 Z5.000000

(End cutting path id: path4217)


(Start cutting path id: path4217)
(Change tool to Default tool)

G00 Z5.000000
G00 X53.348978 Y198.589891

G01 Z-0.125000 F100.0(Penetrate)
G03 X53.276079 Y198.956164 Z-0.125000 I-0.956602 J0.000000 F400.000000
G03 X52.818044 Y199.870878 Z-0.125000 I-6.631047 J-2.748401
G02 X52.288820 Y200.766593 Z-0.125000 I235.055876 J139.484849
G02 X51.916610 Y201.403212 Z-0.125000 I118.309644 J69.598760
G03 X51.420482 Y201.905906 Z-0.125000 I-1.222471 J-0.710333
G03 X47.750598 Y203.897757 Z-0.125000 I-25.386762 J-42.397088
G03 X43.938844 Y205.718938 Z-0.125000 I-99.927781 J-204.250529
G03 X42.057332 Y206.553209 Z-0.125000 I-22.813032 J-48.910891
G02 X40.171951 Y207.378206 Z-0.125000 I28.136977 J66.868804
G02 X39.115811 Y207.890378 Z-0.125000 I9.764771 J21.480745
G03 X32.732194 Y210.984985 Z-0.125000 I-65.030123 J-126.013988
G03 X31.904342 Y211.166134 Z-0.125000 I-0.836895 J-1.842401
G03 X31.450148 Y211.078818 Z-0.125000 I-0.005183 J-1.198000
G03 X28.962821 Y209.976912 Z-0.125000 I15.523994 J-38.400469
G02 X26.495319 Y208.786438 Z-0.125000 I-1694.542839 J3509.133022
G02 X24.692869 Y207.918682 Z-0.125000 I-897.208494 J1861.323024
G03 X23.230984 Y207.091806 Z-0.125000 I5.471623 J-11.379329
G03 X23.253078 Y206.972665 Z-0.125000 I0.036090 J-0.054927
G03 X23.602834 Y207.000788 Z-0.125000 I0.128573 J0.589939
G03 X25.753801 Y207.957180 Z-0.125000 I-9.955067 J25.286375
G02 X27.900720 Y208.981365 Z-0.125000 I31.938906 J-64.188750
G02 X28.082058 Y209.020825 Z-0.125000 I0.181338 J-0.396939
G03 X28.263878 Y209.058983 Z-0.125000 I0.000000 J0.452249
G03 X30.029904 Y209.876088 Z-0.125000 I-19.947987 J45.431047
G02 X31.981177 Y210.375695 Z-0.125000 I2.193541 J-4.506867
G02 X33.281854 Y210.033452 Z-0.125000 I0.108018 J-2.232188
G03 X34.015560 Y209.623835 Z-0.125000 I4.172724 J6.612275
G03 X34.989832 Y209.196962 Z-0.125000 I5.510058 J11.250605
G02 X35.972961 Y208.784106 Z-0.125000 I-7.127187 J-18.348850
G02 X37.882271 Y207.889054 Z-0.125000 I-31.715999 J-70.140052
G03 X39.790175 Y206.989588 Z-0.125000 I39.994958 J82.362093
G03 X42.057332 Y205.979220 Z-0.125000 I52.741485 J115.297397
G02 X44.320387 Y204.962870 Z-0.125000 I-38.991154 J-89.847342
G02 X44.903966 Y204.657206 Z-0.125000 I-2.909049 J-6.263936
G03 X45.486003 Y204.348741 Z-0.125000 I3.887755 J6.632383
G03 X46.706833 Y203.798556 Z-0.125000 I13.659958 J28.681123
G02 X50.202153 Y202.064562 Z-0.125000 I-13.136169 J-30.869267
G02 X51.403778 Y201.117366 Z-0.125000 I-2.557518 J-4.480295
G02 X52.128781 Y200.226910 Z-0.125000 I-5.891339 J-5.537058
G02 X52.210324 Y199.968916 Z-0.125000 I-0.367360 J-0.257994
G03 X52.574416 Y198.567712 Z-0.125000 I2.878307 J-0.000000
G03 X53.194148 Y198.203619 Z-0.125000 I0.619732 J0.345385
G03 X53.286500 Y198.266096 Z-0.125000 I0.000000 J0.099495
G03 X53.348978 Y198.589891 Z-0.125000 I-0.807801 J0.323795
G01 X53.348978 Y198.589891 Z-0.125000
G00 Z5.000000

(End cutting path id: path4217)


(Start cutting path id: path4217)
(Change tool to Default tool)

G00 Z5.000000
G00 X51.830772 Y199.600368

G01 Z-0.125000 F100.0(Penetrate)
G03 X51.729985 Y200.007871 Z-0.125000 I-0.874206 J-0.000000 F400.000000
G03 X51.330457 Y200.549936 Z-0.125000 I-1.990200 J-1.048607
G03 X50.806669 Y200.826759 Z-0.125000 I-0.710597 J-0.710597
G03 X50.692121 Y200.670702 Z-0.125000 I-0.019946 J-0.105428
G03 X50.945286 Y200.374678 Z-0.125000 I0.800729 J0.428532
G03 X51.194355 Y200.291149 Z-0.125000 I0.249069 J0.329577
G02 X51.334408 Y200.147609 Z-0.125000 I0.000000 J-0.140096
G02 X51.145339 Y198.298508 Z-0.125000 I-12.031051 J0.295953
G03 X51.224079 Y198.238823 Z-0.125000 I0.054507 J-0.009873
G03 X51.436490 Y198.440153 Z-0.125000 I-0.212617 J0.437036
G03 X51.759568 Y199.169544 Z-0.125000 I-3.907862 J2.167198
G03 X51.830772 Y199.600368 Z-0.125000 I-1.267757 J0.430824
G01 X51.830772 Y199.600368 Z-0.125000
G00 Z5.000000

(End cutting path id: path4217)


(Start cutting path id: path4217)
(Change tool to Default tool)

G00 Z5.000000
G00 X50.381397 Y201.524173

G01 Z-0.125000 F100.0(Penetrate)
G03 X49.637116 Y202.308961 Z-0.125000 I-1.319957 J-0.506499 F400.000000
G03 X48.746921 Y202.252853 Z-0.125000 I-0.391514 J-0.878198
G03 X48.705822 Y202.008959 Z-0.125000 I0.084736 J-0.139689
G03 X49.196950 Y201.709415 Z-0.125000 I0.680735 J0.563729
G02 X49.699130 Y201.485493 Z-0.125000 I-0.292203 J-1.330382
G02 X49.884342 Y201.215898 Z-0.125000 I-0.281103 J-0.391536
G03 X50.037812 Y201.034198 Z-0.125000 I0.266943 J0.069806
G03 X50.229581 Y201.060137 Z-0.125000 I0.075118 J0.166496
G03 X50.387229 Y201.291995 Z-0.125000 I-0.322904 J0.389078
G03 X50.381397 Y201.524173 Z-0.125000 I-0.329739 J0.107879
G01 X50.381397 Y201.524173 Z-0.125000
G00 Z5.000000

