%
(Header)
(Generated by gcodetools from Inkscape.)
(Using default header. To add your own header create file "header" in the output dir.)
M3
(Header end.)
G21 (All units in mm)

(Start cutting path id: path4136)
(Change tool to Default tool)

G00 Z5.000000
G00 X82.156665 Y39.987766

G01 Z-0.125000 F100.0(Penetrate)
G01 X66.027029 Y73.215448 Z-0.125000 F400.000000
G01 X29.510719 Y78.765520 Z-0.125000
G01 X56.127791 Y104.373634 Z-0.125000
G01 X50.122063 Y140.817774 Z-0.125000
G01 X82.701955 Y123.416779 Z-0.125000
G01 X115.506518 Y140.390425 Z-0.125000
G01 X109.024929 Y104.027903 Z-0.125000
G01 X135.304994 Y78.074053 Z-0.125000
G01 X98.719257 Y73.001775 Z-0.125000
G01 X82.156665 Y39.987766 Z-0.125000
G00 Z5.000000

(End cutting path id: path4136)


(Footer)
M5
G00 X0.0000 Y0.0000
M2
(Using default footer. To add your own footer create file "footer" in the output dir.)
(end)
%