%
(Header)
(Generated by gcodetools from Inkscape.)
(Using default header. To add your own header create file "header" in the output dir.)
M3
(Header end.)
G21 (All units in mm)

(Start cutting path id: path4582)
(Change tool to Default tool)

G00 Z5.000000
G00 X68.706089 Y40.197347

G01 Z-0.125000 F100.0(Penetrate)
G01 X52.422290 Y28.962981 Z-0.125000 F400.000000
G01 X58.211029 Y10.045701 Z-0.125000
G01 X40.339882 Y18.530698 Z-0.125000
G01 X26.851404 Y4.058865 Z-0.125000
G01 X25.264056 Y23.778228 Z-0.125000
G01 X5.986838 Y28.223674 Z-0.125000
G01 X22.270637 Y39.458041 Z-0.125000
G01 X16.481897 Y58.375323 Z-0.125000
G01 X34.353043 Y49.890323 Z-0.125000
G01 X47.841521 Y64.362162 Z-0.125000
G01 X49.428869 Y44.642793 Z-0.125000
G01 X68.706089 Y40.197347 Z-0.125000
G00 Z5.000000

(End cutting path id: path4582)


(Footer)
M5
G00 X0.0000 Y0.0000
M2
(Using default footer. To add your own footer create file "footer" in the output dir.)
(end)
%