%
(Header)
(Generated by gcodetools from Inkscape.)
(Using default header. To add your own header create file "header" in the output dir.)
M3
(Header end.)
G21 (All units in mm)

(Start cutting path id: path4297)
(Change tool to Default tool)

G00 Z5.000000
G00 X152.784907 Y274.873682

G01 Z-0.125000 F100.0(Penetrate)
G02 X153.035289 Y274.967413 Z-0.125000 I0.185381 J-0.113920 F400.000000
G02 X153.104164 Y274.873682 Z-0.125000 I-0.029340 J-0.093731
G02 X153.035289 Y274.779951 Z-0.125000 I-0.098215 J0.000000
G02 X152.784907 Y274.873682 Z-0.125000 I-0.065001 J0.207651
G01 X152.784907 Y274.873682 Z-0.125000
G00 Z5.000000

(End cutting path id: path4297)


(Start cutting path id: path4297)
(Change tool to Default tool)

G00 Z5.000000
G00 X150.870932 Y274.627412

G01 Z-0.125000 F100.0(Penetrate)
G02 X150.997137 Y274.780314 Z-0.125000 I0.110901 J0.036998 F400.000000
G02 X151.151036 Y274.683590 Z-0.125000 I-0.028549 J-0.216223
G02 X151.127053 Y274.590208 Z-0.125000 I-0.054585 J-0.035752
G02 X150.870932 Y274.627412 Z-0.125000 I-0.102675 J0.193360
G01 X150.870932 Y274.627412 Z-0.125000
G00 Z5.000000

(End cutting path id: path4297)


(Start cutting path id: path4297)
(Change tool to Default tool)

G00 Z5.000000
G00 X150.315462 Y272.188919

G01 Z-0.125000 F100.0(Penetrate)
G02 X149.699795 Y273.498429 Z-0.125000 I1.419701 J1.466957 F400.000000
G02 X149.909505 Y273.655243 Z-0.125000 I0.154546 J0.011955
G02 X150.571898 Y273.121595 Z-0.125000 I-0.489581 J-1.285616
G02 X150.409126 Y271.958407 Z-0.125000 I-0.748054 J-0.488304
G01 X150.315462 Y272.188919 Z-0.125000
G01 X150.315462 Y272.188919 Z-0.125000
G00 Z5.000000

(End cutting path id: path4297)


(Start cutting path id: path4297)
(Change tool to Default tool)

G00 Z5.000000
G00 X148.904351 Y268.876468

G01 Z-0.125000 F100.0(Penetrate)
G02 X149.154734 Y268.970198 Z-0.125000 I0.185381 J-0.113922 F400.000000
G02 X149.223609 Y268.876466 Z-0.125000 I-0.029341 J-0.093731
G02 X149.154733 Y268.782736 Z-0.125000 I-0.098216 J0.000001
G02 X148.904351 Y268.876468 Z-0.125000 I-0.065000 J0.207652
G01 X148.904351 Y268.876468 Z-0.125000
G00 Z5.000000

(End cutting path id: path4297)


(Start cutting path id: path4297)
(Change tool to Default tool)

G00 Z5.000000
G00 X147.140462 Y269.052857

G01 Z-0.125000 F100.0(Penetrate)
G02 X147.370311 Y269.167375 Z-0.125000 I0.171655 J-0.056605 F400.000000
G02 X147.452326 Y269.052856 Z-0.125000 I-0.038945 J-0.114518
G02 X147.370311 Y268.938338 Z-0.125000 I-0.120959 J0.000000
G02 X147.140462 Y269.052857 Z-0.125000 I-0.058194 J0.171123
G01 X147.140462 Y269.052857 Z-0.125000
G00 Z5.000000

(End cutting path id: path4297)


(Start cutting path id: path4297)
(Change tool to Default tool)

G00 Z5.000000
G00 X146.434907 Y270.640357

G01 Z-0.125000 F100.0(Penetrate)
G02 X146.685289 Y270.734088 Z-0.125000 I0.185381 J-0.113920 F400.000000
G02 X146.754164 Y270.640357 Z-0.125000 I-0.029340 J-0.093731
G02 X146.685289 Y270.546627 Z-0.125000 I-0.098215 J0.000000
G02 X146.434907 Y270.640357 Z-0.125000 I-0.065001 J0.207651
G01 X146.434907 Y270.640357 Z-0.125000
G00 Z5.000000

(End cutting path id: path4297)


(Start cutting path id: path4297)
(Change tool to Default tool)

G00 Z5.000000
G00 X144.318240 Y270.640357

G01 Z-0.125000 F100.0(Penetrate)
G02 X145.161695 Y270.784633 Z-0.125000 I0.603822 J-0.992411 F400.000000
G02 X145.278726 Y270.640357 Z-0.125000 I-0.030416 J-0.144276
G02 X145.161695 Y270.496081 Z-0.125000 I-0.147447 J0.000000
G02 X144.318240 Y270.640357 Z-0.125000 I-0.239632 J1.136687
G01 X144.318240 Y270.640357 Z-0.125000
G00 Z5.000000

(End cutting path id: path4297)


(Start cutting path id: path4297)
(Change tool to Default tool)

G00 Z5.000000
G00 X144.318240 Y269.758413

G01 Z-0.125000 F100.0(Penetrate)
G02 X144.548087 Y269.872930 Z-0.125000 I0.171654 J-0.056604 F400.000000
G02 X144.630101 Y269.758413 Z-0.125000 I-0.038944 J-0.114518
G02 X144.548087 Y269.643895 Z-0.125000 I-0.120958 J0.000000
G02 X144.318240 Y269.758413 Z-0.125000 I-0.058194 J0.171121
G01 X144.318240 Y269.758413 Z-0.125000
G00 Z5.000000

(End cutting path id: path4297)


(Start cutting path id: path4297)
(Change tool to Default tool)

G00 Z5.000000
G00 X144.671018 Y268.347300

G01 Z-0.125000 F100.0(Penetrate)
G02 X144.900865 Y268.461818 Z-0.125000 I0.171654 J-0.056604 F400.000000
G02 X144.982879 Y268.347301 Z-0.125000 I-0.038944 J-0.114517
G02 X144.900865 Y268.232783 Z-0.125000 I-0.120959 J0.000000
G02 X144.671018 Y268.347300 Z-0.125000 I-0.058194 J0.171121
G01 X144.671018 Y268.347300 Z-0.125000
G00 Z5.000000

(End cutting path id: path4297)


(Start cutting path id: path4297)
(Change tool to Default tool)

G00 Z5.000000
G00 X142.554351 Y268.347300

G01 Z-0.125000 F100.0(Penetrate)
G03 X141.864379 Y268.702783 Z-0.125000 I-0.687357 J-0.486782 F400.000000
G03 X141.712824 Y268.556862 Z-0.125000 I0.000472 J-0.152154
G03 X141.855807 Y268.294453 Z-0.125000 I0.290431 J-0.011907
G03 X142.554351 Y268.347300 Z-0.125000 I0.311265 J0.528813
G01 X142.554351 Y268.347300 Z-0.125000
G00 Z5.000000

(End cutting path id: path4297)


(Start cutting path id: path4297)
(Change tool to Default tool)

G00 Z5.000000
G00 X142.377962 Y267.288967

G01 Z-0.125000 F100.0(Penetrate)
G02 X141.273034 Y268.538547 Z-0.125000 I0.258067 J1.341494 F400.000000
G02 X141.678353 Y269.172013 Z-0.125000 I0.631155 J0.042562
G02 X142.592104 Y269.018813 Z-0.125000 I0.326491 J-0.854270
G02 X142.907129 Y267.288967 Z-0.125000 I-0.883283 J-1.054464
G02 X144.731455 Y267.442998 Z-0.125000 I1.185381 J-3.158948
G02 X144.794819 Y267.215297 Z-0.125000 I-0.024999 J-0.129623
G02 X143.926719 Y266.772148 Z-0.125000 I-1.262472 J1.401251
G02 X142.377962 Y267.288967 Z-0.125000 I-0.336091 J1.571830
G01 X142.377962 Y267.288967 Z-0.125000
G00 Z5.000000

(End cutting path id: path4297)


(Start cutting path id: path4297)
(Change tool to Default tool)

G00 Z5.000000
G00 X140.437685 Y265.625871

G01 Z-0.125000 F100.0(Penetrate)
G02 X142.411109 Y266.214723 Z-0.125000 I2.505501 J-4.795504 F400.000000
G02 X142.652835 Y266.107570 Z-0.125000 I0.026361 J-0.266764
G02 X142.606198 Y265.962666 Z-0.125000 I-0.075221 J-0.055747
G02 X140.437685 Y265.625871 Z-0.125000 I-2.153847 J6.718347
G01 X140.437685 Y265.625871 Z-0.125000
G00 Z5.000000

(End cutting path id: path4297)


(Start cutting path id: path4297)
(Change tool to Default tool)

G00 Z5.000000
G00 X141.363726 Y264.730591

G01 Z-0.125000 F100.0(Penetrate)
G02 X143.864479 Y265.429800 Z-0.125000 I2.529131 J-4.223920 F400.000000
G03 X144.067257 Y266.225517 Z-0.125000 I-0.002446 J0.424319
G02 X145.420999 Y266.241704 Z-0.125000 I0.691175 J-1.188207
G03 X146.563973 Y266.156920 Z-0.125000 I0.664190 J1.207345
G02 X147.033038 Y267.108429 Z-0.125000 I1.314052 J-0.056417
G02 X147.224525 Y267.017154 Z-0.125000 I0.074907 J-0.089351
G02 X146.741082 Y265.509063 Z-0.125000 I-2.734700 J0.045119
G02 X144.401784 Y264.714538 Z-0.125000 I-1.703835 J1.175527
G02 X142.882236 Y264.659171 Z-0.125000 I-1.374798 J16.851387
G02 X141.363726 Y264.730597 Z-0.125000 I0.169325 J19.777152
G01 X141.363726 Y264.730591 Z-0.125000
G00 Z5.000000

(End cutting path id: path4297)


(Start cutting path id: path4297)
(Change tool to Default tool)

G00 Z5.000000
G00 X139.026573 Y264.643133

G01 Z-0.125000 F100.0(Penetrate)
G02 X136.681117 Y264.853663 Z-0.125000 I-0.383593 J8.896827 F400.000000
G02 X134.368168 Y265.523180 Z-0.125000 I4.450473 J19.704801
G02 X134.381343 Y265.729072 Z-0.125000 I0.035911 J0.101069
G02 X136.288089 Y265.795763 Z-0.125000 I1.138062 J-5.247079
G03 X139.005193 Y265.498579 Z-0.125000 I2.727518 J12.367628
G02 X139.026573 Y264.643133 Z-0.125000 I-0.000352 J-0.427999
G01 X139.026573 Y264.643133 Z-0.125000
G00 Z5.000000

(End cutting path id: path4297)


(Start cutting path id: path4297)
(Change tool to Default tool)

G00 Z5.000000
G00 X138.497407 Y266.230633

G01 Z-0.125000 F100.0(Penetrate)
G02 X137.656663 Y266.762352 Z-0.125000 I1.975429 J4.054060 F400.000000
G01 X137.681716 Y266.805899 Z-0.125000
G02 X138.552451 Y266.404607 Z-0.125000 I-2.788550 J-7.195982
G02 X138.497407 Y266.230633 Z-0.125000 I-0.044033 J-0.081763
G01 X138.497407 Y266.230633 Z-0.125000
G00 Z5.000000

(End cutting path id: path4297)


(Start cutting path id: path4297)
(Change tool to Default tool)

G00 Z5.000000
G00 X138.365115 Y267.741324

G01 Z-0.125000 F100.0(Penetrate)
G02 X136.988611 Y269.191081 Z-0.125000 I5.499322 J6.599807 F400.000000
G02 X137.067070 Y269.339781 Z-0.125000 I0.074453 J0.055766
G02 X137.665456 Y269.193479 Z-0.125000 I-0.067867 J-1.574453
G02 X139.322740 Y268.323003 Z-0.125000 I-8.398353 J-18.002339
G02 X140.873122 Y267.313700 Z-0.125000 I-10.114901 J-17.232830
G02 X141.461224 Y266.718093 Z-0.125000 I-1.458144 J-2.027918
G02 X141.361809 Y266.482252 Z-0.125000 I-0.123828 J-0.086676
G02 X139.811617 Y266.552158 Z-0.125000 I-0.608901 J3.720415
G02 X138.934298 Y266.907342 Z-0.125000 I2.284013 J6.902693
G02 X138.365115 Y267.741324 Z-0.125000 I0.440160 J0.911625
G01 X138.365115 Y267.741324 Z-0.125000
G00 Z5.000000

(End cutting path id: path4297)


(Start cutting path id: path4297)
(Change tool to Default tool)

G00 Z5.000000
G00 X137.439073 Y267.641745

G01 Z-0.125000 F100.0(Penetrate)
G02 X135.424159 Y269.045390 Z-0.125000 I3.999595 J7.889378 F400.000000
G02 X135.493764 Y269.175755 Z-0.125000 I0.051954 J0.056025
G02 X136.844589 Y268.690455 Z-0.125000 I-1.486058 J-6.259068
G02 X137.439073 Y267.641745 Z-0.125000 I-0.471850 J-0.960332
G01 X137.439073 Y267.641745 Z-0.125000
G00 Z5.000000

(End cutting path id: path4297)


(Start cutting path id: path4297)
(Change tool to Default tool)

G00 Z5.000000
G00 X135.675185 Y267.288967

G01 Z-0.125000 F100.0(Penetrate)
G02 X133.715408 Y268.400798 Z-0.125000 I1.110817 J4.241111 F400.000000
G02 X133.742754 Y268.681516 Z-0.125000 I0.126903 J0.129329
G02 X134.227007 Y268.717753 Z-0.125000 I0.274746 J-0.417784
G02 X135.675185 Y267.288967 Z-0.125000 I-1.255557 J-2.720906
G01 X135.675185 Y267.288967 Z-0.125000
G00 Z5.000000

(End cutting path id: path4297)


(Start cutting path id: path4297)
(Change tool to Default tool)

G00 Z5.000000
G00 X134.440462 Y266.759800

G01 Z-0.125000 F100.0(Penetrate)
G02 X134.975650 Y266.891661 Z-0.125000 I0.389457 J-0.428676 F400.000000
G02 X135.077613 Y266.759800 Z-0.125000 I-0.034282 J-0.131861
G02 X134.975650 Y266.627939 Z-0.125000 I-0.136245 J0.000000
G02 X134.440462 Y266.759800 Z-0.125000 I-0.145731 J0.560538
G01 X134.440462 Y266.759800 Z-0.125000
G00 Z5.000000

(End cutting path id: path4297)


(Start cutting path id: path4297)
(Change tool to Default tool)

G00 Z5.000000
G00 X133.734907 Y267.465356

G01 Z-0.125000 F100.0(Penetrate)
G02 X133.985288 Y267.559086 Z-0.125000 I0.185381 J-0.113920 F400.000000
G02 X134.054164 Y267.465356 Z-0.125000 I-0.029340 J-0.093731
G02 X133.985288 Y267.371625 Z-0.125000 I-0.098216 J0.000000
G02 X133.734907 Y267.465356 Z-0.125000 I-0.065001 J0.207651
G01 X133.734907 Y267.465356 Z-0.125000
G00 Z5.000000

(End cutting path id: path4297)


(Start cutting path id: path4297)
(Change tool to Default tool)

G00 Z5.000000
G00 X132.879265 Y269.688532

G01 Z-0.125000 F100.0(Penetrate)
G02 X133.004802 Y269.854138 Z-0.125000 I0.119448 J0.039838 F400.000000
G02 X133.153408 Y269.769177 Z-0.125000 I-0.009121 J-0.188397
G02 X133.132463 Y269.666088 Z-0.125000 I-0.062484 J-0.040977
G02 X132.879265 Y269.688532 Z-0.125000 I-0.112661 J0.168457
G01 X132.879265 Y269.688532 Z-0.125000
G00 Z5.000000

(End cutting path id: path4297)


(Start cutting path id: path4297)
(Change tool to Default tool)

G00 Z5.000000
G00 X133.734907 Y270.287579

G01 Z-0.125000 F100.0(Penetrate)
G02 X132.507060 Y271.060968 Z-0.125000 I0.766933 J2.578967 F400.000000
G02 X132.364383 Y271.439641 Z-0.125000 I0.409213 J0.370400
G02 X132.516285 Y271.543153 Z-0.125000 I0.112367 J-0.001684
G02 X133.585783 Y270.790967 Z-0.125000 I-0.917188 J-2.440537
G01 X133.911296 Y270.111190 Z-0.125000
G01 X133.734907 Y270.287579 Z-0.125000
G01 X133.734907 Y270.287579 Z-0.125000
G00 Z5.000000

(End cutting path id: path4297)


(Start cutting path id: path4297)
(Change tool to Default tool)

G00 Z5.000000
G00 X135.146018 Y270.993135

G01 Z-0.125000 F100.0(Penetrate)
G02 X132.905348 Y272.354352 Z-0.125000 I2.599614 J6.803938 F400.000000
G02 X131.762146 Y273.726628 Z-0.125000 I3.988840 J4.485304
G02 X131.959875 Y274.094628 Z-0.125000 I0.207292 J0.125741
G02 X134.090786 Y273.568477 Z-0.125000 I0.155800 J-3.947181
G03 X135.111826 Y272.295621 Z-0.125000 I23.114266 J17.495488
G03 X135.402094 Y272.237646 Z-0.125000 I0.181764 J0.154410
G03 X135.611257 Y272.508916 Z-0.125000 I-0.182304 J0.356838
G03 X136.032873 Y274.737084 Z-0.125000 I-39.299934 J8.590346
G02 X136.386775 Y273.241071 Z-0.125000 I-2.086763 J-1.283518
G03 X136.370688 Y271.620277 Z-0.125000 I10.506721 J-0.914761
G03 X136.731843 Y271.345915 Z-0.125000 I0.300086 J0.020134
G03 X138.141716 Y272.196730 Z-0.125000 I-0.503448 J2.427804
G02 X139.256822 Y273.502707 Z-0.125000 I1.388600 J-0.056600
G03 X140.465692 Y274.777431 Z-0.125000 I-0.300110 J1.495176
G02 X139.182123 Y271.158648 Z-0.125000 I-2.981135 J-0.979632
G02 X135.146018 Y270.993135 Z-0.125000 I-2.159098 J3.356679
G01 X135.146018 Y270.993135 Z-0.125000
G00 Z5.000000

(End cutting path id: path4297)


(Start cutting path id: path4297)
(Change tool to Default tool)

G00 Z5.000000
G00 X134.440462 Y272.933413

G01 Z-0.125000 F100.0(Penetrate)
G03 X133.964122 Y273.126727 Z-0.125000 I-0.361616 J-0.207523 F400.000000
G03 X133.829457 Y272.948833 Z-0.125000 I0.051122 J-0.178617
G03 X133.963434 Y272.759885 Z-0.125000 I0.199133 J-0.000774
G03 X134.440462 Y272.933413 Z-0.125000 I0.131707 J0.380377
G01 X134.440462 Y272.933413 Z-0.125000
G00 Z5.000000

(End cutting path id: path4297)


(Start cutting path id: path4297)
(Change tool to Default tool)

G00 Z5.000000
G00 X134.995932 Y274.274634

G01 Z-0.125000 F100.0(Penetrate)
G02 X135.121469 Y274.440241 Z-0.125000 I0.119448 J0.039838 F400.000000
G02 X135.270074 Y274.355280 Z-0.125000 I-0.009121 J-0.188396
G02 X135.249129 Y274.252191 Z-0.125000 I-0.062484 J-0.040977
G02 X134.995932 Y274.274634 Z-0.125000 I-0.112662 J0.168457
G01 X134.995932 Y274.274634 Z-0.125000
G00 Z5.000000

(End cutting path id: path4297)


(Start cutting path id: path4297)
(Change tool to Default tool)

G00 Z5.000000
G00 X132.720671 Y274.437194

G01 Z-0.125000 F100.0(Penetrate)
G02 X133.221793 Y274.880805 Z-0.125000 I0.420982 J0.029290 F400.000000
G02 X133.753399 Y274.569377 Z-0.125000 I-0.175986 J-0.909844
G02 X133.697306 Y274.358616 Z-0.125000 I-0.101493 J-0.085833
G02 X132.720671 Y274.437194 Z-0.125000 I-0.402390 J1.107265
G01 X132.720671 Y274.437194 Z-0.125000
G00 Z5.000000

(End cutting path id: path4297)


(Start cutting path id: path4297)
(Change tool to Default tool)

G00 Z5.000000
G00 X131.971018 Y274.092539

G01 Z-0.125000 F100.0(Penetrate)
G03 X131.454964 Y274.725270 Z-0.125000 I-1.281125 J-0.518070 F400.000000
G03 X131.352093 Y274.670679 Z-0.125000 I-0.036659 J-0.055141
G03 X131.469079 Y274.228633 Z-0.125000 I0.866480 J-0.007192
G03 X131.971018 Y274.092539 Z-0.125000 I0.319715 J0.185497
G01 X131.971018 Y274.092539 Z-0.125000
G00 Z5.000000

(End cutting path id: path4297)


(Start cutting path id: path4297)
(Change tool to Default tool)

G00 Z5.000000
G00 X129.148796 Y272.933413

G01 Z-0.125000 F100.0(Penetrate)
G02 X129.378643 Y273.047930 Z-0.125000 I0.171654 J-0.056604 F400.000000
G02 X129.460657 Y272.933413 Z-0.125000 I-0.038944 J-0.114517
G02 X129.378643 Y272.818895 Z-0.125000 I-0.120958 J0.000000
G02 X129.148796 Y272.933413 Z-0.125000 I-0.058194 J0.171121
G01 X129.148796 Y272.933413 Z-0.125000
G00 Z5.000000

(End cutting path id: path4297)


(Start cutting path id: path4297)
(Change tool to Default tool)

G00 Z5.000000
G00 X128.443240 Y270.287579

G01 Z-0.125000 F100.0(Penetrate)
G02 X127.841688 Y271.084850 Z-0.125000 I0.974836 J1.361102 F400.000000
G02 X127.949839 Y271.184560 Z-0.125000 I0.075231 J0.026908
G02 X128.627113 Y270.701843 Z-0.125000 I-0.886171 J-1.959819
G02 X128.443240 Y270.287579 Z-0.125000 I-0.178549 J-0.168688
G01 X128.443240 Y270.287579 Z-0.125000
G00 Z5.000000

(End cutting path id: path4297)


(Start cutting path id: path4297)
(Change tool to Default tool)

G00 Z5.000000
G00 X128.443240 Y269.582024

G01 Z-0.125000 F100.0(Penetrate)
G02 X128.693622 Y269.675754 Z-0.125000 I0.185381 J-0.113920 F400.000000
G02 X128.762497 Y269.582024 Z-0.125000 I-0.029340 J-0.093731
G02 X128.693622 Y269.488293 Z-0.125000 I-0.098215 J0.000000
G02 X128.443240 Y269.582024 Z-0.125000 I-0.065001 J0.207651
G01 X128.443240 Y269.582024 Z-0.125000
G00 Z5.000000

(End cutting path id: path4297)


(Start cutting path id: path4297)
(Change tool to Default tool)

G00 Z5.000000
G00 X127.737684 Y269.229246

G01 Z-0.125000 F100.0(Penetrate)
G02 X125.938283 Y269.651044 Z-0.125000 I1.500977 J10.452254 F400.000000
G02 X124.800100 Y270.123569 Z-0.125000 I2.549003 J7.746886
G02 X124.826215 Y270.257663 Z-0.125000 I0.032104 J0.063337
G02 X126.294050 Y270.161548 Z-0.125000 I0.415589 J-4.909479
G03 X126.923737 Y254.008355 Z-0.125000 I1.001019 J-8.049848
G03 X127.737684 Y269.229246 Z-0.125000 I0.348888 J7.613552
G01 X127.737684 Y269.229246 Z-0.125000
G00 Z5.000000

(End cutting path id: path4297)


(Start cutting path id: path4297)
(Change tool to Default tool)

G00 Z5.000000
G00 X129.501573 Y269.582024

G01 Z-0.125000 F100.0(Penetrate)
G02 X129.751955 Y269.675754 Z-0.125000 I0.185381 J-0.113920 F400.000000
G02 X129.820830 Y269.582024 Z-0.125000 I-0.029340 J-0.093731
G02 X129.751955 Y269.488293 Z-0.125000 I-0.098215 J0.000000
G02 X129.501573 Y269.582024 Z-0.125000 I-0.065001 J0.207651
G01 X129.501573 Y269.582024 Z-0.125000
G00 Z5.000000

(End cutting path id: path4297)


(Start cutting path id: path4297)
(Change tool to Default tool)

G00 Z5.000000
G00 X131.441851 Y269.758413

G01 Z-0.125000 F100.0(Penetrate)
G02 X129.562707 Y270.348771 Z-0.125000 I-0.337330 J2.212149 F400.000000
G02 X127.812355 Y272.482454 Z-0.125000 I7.708699 J8.108564
G02 X127.380285 Y273.891646 Z-0.125000 I2.371437 J1.497936
G02 X127.938929 Y274.193220 Z-0.125000 I0.354661 J0.011227
G03 X128.764838 Y272.395599 Z-0.125000 I2.726175 J0.163989
G03 X129.318628 Y272.245155 Z-0.125000 I0.413206 J0.426545
G03 X129.527889 Y272.579995 Z-0.125000 I-0.066913 J0.274627
G03 X128.554337 Y274.068641 Z-0.125000 I-2.437516 J-0.531432
G02 X129.525565 Y273.989465 Z-0.125000 I0.452388 J-0.447155
G02 X130.475013 Y272.197439 Z-0.125000 I-6.395905 J-4.536198
G02 X131.404169 Y269.644278 Z-0.125000 I-149.509825 J-55.855822
G03 X132.178053 Y269.085194 Z-0.125000 I0.791492 J0.280437
G01 X131.441851 Y269.758413 Z-0.125000
G01 X131.441851 Y269.758413 Z-0.125000
G01 X131.441851 Y269.758413 Z-0.125000
G00 Z5.000000

(End cutting path id: path4297)


(Start cutting path id: path4297)
(Change tool to Default tool)

G00 Z5.000000
G00 X131.265462 Y267.465356

G01 Z-0.125000 F100.0(Penetrate)
G02 X130.382161 Y268.283936 Z-0.125000 I3.422126 J4.578558 F400.000000
G01 X130.422165 Y268.363115 Z-0.125000
G02 X130.799596 Y268.267201 Z-0.125000 I-0.097312 J-1.173501
G02 X131.792039 Y267.785097 Z-0.125000 I-5.976316 J-13.565210
G02 X132.751868 Y267.223553 Z-0.125000 I-6.549058 J-12.295163
G02 X132.929641 Y267.024312 Z-0.125000 I-0.266906 J-0.417076
G01 X132.879552 Y266.959180 Z-0.125000
G02 X131.389524 Y267.373772 Z-0.125000 I1.993915 J10.050906
G01 X131.265462 Y267.465356 Z-0.125000
G01 X131.265462 Y267.465356 Z-0.125000
G00 Z5.000000

(End cutting path id: path4297)


(Start cutting path id: path4297)
(Change tool to Default tool)

G00 Z5.000000
G00 X130.383518 Y266.936189

G01 Z-0.125000 F100.0(Penetrate)
G02 X128.115353 Y268.198195 Z-0.125000 I2.319437 J6.837908 F400.000000
G02 X128.199908 Y268.392988 Z-0.125000 I0.070172 J0.085288
G02 X130.232389 Y267.887310 Z-0.125000 I-1.206947 J-9.188526
G02 X130.383518 Y266.936189 Z-0.125000 I-0.193366 J-0.518292
G01 X130.383518 Y266.936189 Z-0.125000
G00 Z5.000000

(End cutting path id: path4297)


(Start cutting path id: path4297)
(Change tool to Default tool)

G00 Z5.000000
G00 X130.559907 Y266.054245

G01 Z-0.125000 F100.0(Penetrate)
G02 X128.876289 Y266.739905 Z-0.125000 I1.077695 J5.056115 F400.000000
G02 X128.924386 Y266.903064 Z-0.125000 I0.047226 J0.074747
G02 X130.764488 Y266.733333 Z-0.125000 I-0.110821 J-11.260855
G02 X132.108423 Y265.974500 Z-0.125000 I-0.400997 J-2.279696
G01 X131.355988 Y266.063504 Z-0.125000
G01 X130.559907 Y266.054247 Z-0.125000
G01 X130.559907 Y266.054245 Z-0.125000
G00 Z5.000000

(End cutting path id: path4297)


(Start cutting path id: path4297)
(Change tool to Default tool)

G00 Z5.000000
G00 X129.854351 Y264.920315

G01 Z-0.125000 F100.0(Penetrate)
G02 X130.915892 Y265.355518 Z-0.125000 I0.957019 J-0.822096 F400.000000
G02 X131.190100 Y265.138878 Z-0.125000 I-0.026187 J-0.315003
G02 X131.075142 Y264.892760 Z-0.125000 I-0.188674 J-0.061780
G02 X129.854351 Y264.920315 Z-0.125000 I-0.578077 J1.445584
G01 X129.854351 Y264.920315 Z-0.125000
G00 Z5.000000

(End cutting path id: path4297)


(Start cutting path id: path4297)
(Change tool to Default tool)

G00 Z5.000000
G00 X128.796018 Y263.584800

G01 Z-0.125000 F100.0(Penetrate)
G02 X129.046400 Y263.678531 Z-0.125000 I0.185381 J-0.113920 F400.000000
G02 X129.115275 Y263.584800 Z-0.125000 I-0.029340 J-0.093731
G02 X129.046400 Y263.491069 Z-0.125000 I-0.098216 J0.000000
G02 X128.796018 Y263.584800 Z-0.125000 I-0.065001 J0.207651
G01 X128.796018 Y263.584800 Z-0.125000
G00 Z5.000000

(End cutting path id: path4297)


(Start cutting path id: path4297)
(Change tool to Default tool)

G00 Z5.000000
G00 X129.148796 Y262.702861

G01 Z-0.125000 F100.0(Penetrate)
G02 X129.378643 Y262.817379 Z-0.125000 I0.171654 J-0.056604 F400.000000
G02 X129.460657 Y262.702861 Z-0.125000 I-0.038944 J-0.114517
G02 X129.378643 Y262.588344 Z-0.125000 I-0.120958 J0.000000
G02 X129.148796 Y262.702861 Z-0.125000 I-0.058194 J0.171121
G01 X129.148796 Y262.702861 Z-0.125000
G00 Z5.000000

(End cutting path id: path4297)


(Start cutting path id: path4297)
(Change tool to Default tool)

G00 Z5.000000
G00 X129.501573 Y261.820917

G01 Z-0.125000 F100.0(Penetrate)
G02 X129.751955 Y261.914647 Z-0.125000 I0.185381 J-0.113920 F400.000000
G02 X129.820830 Y261.820917 Z-0.125000 I-0.029340 J-0.093731
G02 X129.751955 Y261.727186 Z-0.125000 I-0.098216 J0.000000
G02 X129.501573 Y261.820917 Z-0.125000 I-0.065001 J0.207651
G01 X129.501573 Y261.820917 Z-0.125000
G00 Z5.000000

(End cutting path id: path4297)


(Start cutting path id: path4297)
(Change tool to Default tool)

G00 Z5.000000
G00 X130.207129 Y261.820917

G01 Z-0.125000 F100.0(Penetrate)
G03 X129.033300 Y264.289333 Z-0.125000 I-13.102323 J-4.717359 F400.000000
G02 X128.377815 Y265.411474 Z-0.125000 I41.198182 J24.817958
G01 X128.450091 Y265.467884 Z-0.125000
G02 X130.058643 Y263.822039 Z-0.125000 I-21.823858 J-22.938344
G02 X130.878526 Y262.869164 Z-0.125000 I-63.581286 J-55.536446
G02 X130.207129 Y261.820917 Z-0.125000 I-0.496715 J-0.420993
G01 X130.207129 Y261.820917 Z-0.125000
G00 Z5.000000

(End cutting path id: path4297)


(Start cutting path id: path4297)
(Change tool to Default tool)

G00 Z5.000000
G00 X130.559907 Y261.115361

G01 Z-0.125000 F100.0(Penetrate)
G02 X131.095094 Y261.247223 Z-0.125000 I0.389457 J-0.428676 F400.000000
G02 X131.197057 Y261.115361 Z-0.125000 I-0.034282 J-0.131861
G02 X131.095094 Y260.983500 Z-0.125000 I-0.136245 J0.000000
G02 X130.559907 Y261.115361 Z-0.125000 I-0.145731 J0.560538
G01 X130.559907 Y261.115361 Z-0.125000
G00 Z5.000000

(End cutting path id: path4297)


(Start cutting path id: path4297)
(Change tool to Default tool)

G00 Z5.000000
G00 X129.369282 Y260.850041

G01 Z-0.125000 F100.0(Penetrate)
G02 X129.495498 Y261.149532 Z-0.125000 I0.215309 J0.085602 F400.000000
G02 X129.665772 Y261.110406 Z-0.125000 I0.057766 J-0.138681
G02 X129.683067 Y260.937679 Z-0.125000 I-0.111157 J-0.098360
G02 X129.369282 Y260.850041 Z-0.125000 I-0.201753 J0.116806
G01 X129.369282 Y260.850041 Z-0.125000
G00 Z5.000000

(End cutting path id: path4297)


(Start cutting path id: path4297)
(Change tool to Default tool)

G00 Z5.000000
G00 X128.443240 Y259.704245

G01 Z-0.125000 F100.0(Penetrate)
G02 X128.693622 Y259.797975 Z-0.125000 I0.185381 J-0.113920 F400.000000
G02 X128.762497 Y259.704245 Z-0.125000 I-0.029340 J-0.093731
G02 X128.693622 Y259.610514 Z-0.125000 I-0.098216 J0.000000
G02 X128.443240 Y259.704245 Z-0.125000 I-0.065001 J0.207651
G01 X128.443240 Y259.704245 Z-0.125000
G00 Z5.000000

(End cutting path id: path4297)


(Start cutting path id: path4297)
(Change tool to Default tool)

G00 Z5.000000
G00 X128.443240 Y258.998689

G01 Z-0.125000 F100.0(Penetrate)
G02 X128.693622 Y259.092420 Z-0.125000 I0.185381 J-0.113920 F400.000000
G02 X128.762497 Y258.998689 Z-0.125000 I-0.029340 J-0.093731
G02 X128.693622 Y258.904958 Z-0.125000 I-0.098216 J0.000000
G02 X128.443240 Y258.998689 Z-0.125000 I-0.065001 J0.207651
G01 X128.443240 Y258.998689 Z-0.125000
G00 Z5.000000

(End cutting path id: path4297)


(Start cutting path id: path4297)
(Change tool to Default tool)

G00 Z5.000000
G00 X127.384907 Y257.940356

G01 Z-0.125000 F100.0(Penetrate)
G02 X126.596820 Y259.765889 Z-0.125000 I1.145075 J1.577207 F400.000000
G02 X126.959028 Y259.813687 Z-0.125000 I0.187435 J-0.024077
G03 X126.884062 Y261.569002 Z-0.125000 I-4.007806 J0.708092
G02 X126.751941 Y262.420109 Z-0.125000 I3.924692 J1.045052
G02 X126.929900 Y262.515619 Z-0.125000 I0.111742 J0.005342
G02 X128.554441 Y261.051706 Z-0.125000 I-6.482068 J-8.826668
G03 X129.624434 Y258.975833 Z-0.125000 I15.634967 J6.745226
G01 X129.631883 Y258.979986 Z-0.125000
G03 X129.431270 Y259.277069 Z-0.125000 I-1.318804 J-0.674279
G03 X128.015905 Y260.182586 Z-0.125000 I-2.245101 J-1.950298
G03 X127.623656 Y259.938992 Z-0.125000 I-0.109549 J-0.261206
G03 X127.638386 Y258.820072 Z-0.125000 I7.414873 J-0.461941
G02 X127.637660 Y258.013910 Z-0.125000 I-4.494640 J-0.399031
G02 X127.384907 Y257.940356 Z-0.125000 I-0.140791 J0.012755
G01 X127.384907 Y257.940356 Z-0.125000
G00 Z5.000000

(End cutting path id: path4297)


(Start cutting path id: path4297)
(Change tool to Default tool)

G00 Z5.000000
G00 X129.148796 Y257.058411

G01 Z-0.125000 F100.0(Penetrate)
G02 X129.625136 Y257.251726 Z-0.125000 I0.361616 J-0.207523 F400.000000
G02 X129.759801 Y257.073831 Z-0.125000 I-0.051122 J-0.178617
G02 X129.625824 Y256.884883 Z-0.125000 I-0.199133 J-0.000774
G02 X129.148796 Y257.058411 Z-0.125000 I-0.131707 J0.380377
G01 X129.148796 Y257.058411 Z-0.125000
G00 Z5.000000

(End cutting path id: path4297)


(Start cutting path id: path4297)
(Change tool to Default tool)

G00 Z5.000000
G00 X129.501573 Y255.647300

G01 Z-0.125000 F100.0(Penetrate)
G02 X130.962353 Y257.099090 Z-0.125000 I2.653419 J-1.209041 F400.000000
G02 X131.295370 Y256.924840 Z-0.125000 I0.097858 J-0.218326
G02 X131.104047 Y256.160344 Z-0.125000 I-0.928032 J-0.173939
G02 X129.501573 Y255.647300 Z-0.125000 I-1.188344 J0.952594
G01 X129.501573 Y255.647300 Z-0.125000
G00 Z5.000000

(End cutting path id: path4297)


(Start cutting path id: path4297)
(Change tool to Default tool)

G00 Z5.000000
G00 X128.796018 Y253.530633

G01 Z-0.125000 F100.0(Penetrate)
G02 X129.359894 Y254.711469 Z-0.125000 I2.043517 J-0.250776 F400.000000
G02 X129.564724 Y254.681395 Z-0.125000 I0.091609 J-0.088635
G02 X129.602217 Y254.196261 Z-0.125000 I-0.554648 J-0.286880
G02 X128.796018 Y253.530633 Z-0.125000 I-0.936860 J0.313669
G01 X128.796018 Y253.530633 Z-0.125000
G00 Z5.000000

(End cutting path id: path4297)


(Start cutting path id: path4297)
(Change tool to Default tool)

G00 Z5.000000
G00 X128.443240 Y252.295911

G01 Z-0.125000 F100.0(Penetrate)
G02 X128.693622 Y252.389642 Z-0.125000 I0.185381 J-0.113920 F400.000000
G02 X128.762497 Y252.295911 Z-0.125000 I-0.029340 J-0.093731
G02 X128.693622 Y252.202181 Z-0.125000 I-0.098216 J0.000000
G02 X128.443240 Y252.295911 Z-0.125000 I-0.065001 J0.207651
G01 X128.443240 Y252.295911 Z-0.125000
G00 Z5.000000

(End cutting path id: path4297)


(Start cutting path id: path4297)
(Change tool to Default tool)

G00 Z5.000000
G00 X129.356875 Y251.691095

G01 Z-0.125000 F100.0(Penetrate)
G02 X130.266461 Y253.043312 Z-0.125000 I1.691439 J-0.155737 F400.000000
G02 X130.717599 Y252.908790 Z-0.125000 I0.155942 J-0.300765
G02 X130.747982 Y252.347180 Z-0.125000 I-0.553224 J-0.311556
G02 X130.103875 Y252.219485 Z-0.125000 I-0.365782 J0.156724
G01 X129.356875 Y251.691095 Z-0.125000
G01 X129.356875 Y251.691095 Z-0.125000
G00 Z5.000000

(End cutting path id: path4297)


(Start cutting path id: path4297)
(Change tool to Default tool)

G00 Z5.000000
G00 X127.737684 Y250.002856

G01 Z-0.125000 F100.0(Penetrate)
G02 X127.651648 Y251.820676 Z-0.125000 I5.251388 J1.159491 F400.000000
G02 X127.774681 Y251.874542 Z-0.125000 I0.077493 J-0.009558
G02 X127.935099 Y251.603820 Z-0.125000 I-0.228565 J-0.318328
G02 X127.737684 Y250.002856 Z-0.125000 I-3.307574 J-0.404797
G01 X127.737684 Y250.002856 Z-0.125000
G00 Z5.000000

(End cutting path id: path4297)


(Start cutting path id: path4297)
(Change tool to Default tool)

G00 Z5.000000
G00 X126.679351 Y250.355633

G01 Z-0.125000 F100.0(Penetrate)
G02 X126.575091 Y252.226613 Z-0.125000 I2.416657 J1.073062 F400.000000
G02 X127.860040 Y255.701843 Z-0.125000 I37.108903 J-11.745663
G02 X128.517314 Y257.041555 Z-0.125000 I12.644415 J-5.372363
G02 X128.653717 Y257.092421 Z-0.125000 I0.098188 J-0.054980
G02 X128.713571 Y256.987836 Z-0.125000 I-0.031591 J-0.087499
G02 X128.169871 Y254.740582 Z-0.125000 I-21.585703 J4.033042
G02 X127.253898 Y252.610237 Z-0.125000 I-39.306967 J15.638516
G03 X126.679351 Y250.355633 Z-0.125000 I5.771492 J-2.671274
G01 X126.679351 Y250.355633 Z-0.125000
G00 Z5.000000

(End cutting path id: path4297)


(Start cutting path id: path4297)
(Change tool to Default tool)

G00 Z5.000000
G00 X125.268240 Y249.826467

G01 Z-0.125000 F100.0(Penetrate)
G02 X125.518622 Y249.920197 Z-0.125000 I0.185381 J-0.113920 F400.000000
G02 X125.587497 Y249.826467 Z-0.125000 I-0.029340 J-0.093731
G02 X125.518622 Y249.732736 Z-0.125000 I-0.098216 J0.000000
G02 X125.268240 Y249.826467 Z-0.125000 I-0.065001 J0.207651
G01 X125.268240 Y249.826467 Z-0.125000
G00 Z5.000000

(End cutting path id: path4297)


(Start cutting path id: path4297)
(Change tool to Default tool)

G00 Z5.000000
G00 X124.209907 Y251.061189

G01 Z-0.125000 F100.0(Penetrate)
G02 X124.608930 Y251.315826 Z-0.125000 I0.416742 J-0.213086 F400.000000
G02 X124.708774 Y251.215652 Z-0.125000 I0.003645 J-0.096212
G02 X124.586169 Y250.987584 Z-0.125000 I-0.296114 J0.012197
G02 X124.209907 Y251.061189 Z-0.125000 I-0.153697 J0.212830
G01 X124.209907 Y251.061189 Z-0.125000
G00 Z5.000000

(End cutting path id: path4297)


(Start cutting path id: path4297)
(Change tool to Default tool)

G00 Z5.000000
G00 X124.562684 Y252.295911

G01 Z-0.125000 F100.0(Penetrate)
G02 X125.319709 Y254.226642 Z-0.125000 I70.374802 J-26.479643 F400.000000
G02 X126.270347 Y256.369155 Z-0.125000 I36.003931 J-14.692873
G02 X126.397179 Y256.337092 Z-0.125000 I0.060164 J-0.028896
G02 X126.116908 Y254.738014 Z-0.125000 I-6.450278 J0.306444
G02 X125.553063 Y253.400517 Z-0.125000 I-40.857539 J16.436598
G02 X124.562684 Y252.295911 Z-0.125000 I-2.187348 J0.964869
G01 X124.562684 Y252.295911 Z-0.125000
G00 Z5.000000

(End cutting path id: path4297)


(Start cutting path id: path4297)
(Change tool to Default tool)

G00 Z5.000000
G00 X121.387684 Y252.119522

G01 Z-0.125000 F100.0(Penetrate)
G02 X122.520319 Y252.686037 Z-0.125000 I1.175457 J-0.934597 F400.000000
G02 X122.746885 Y252.480272 Z-0.125000 I0.006295 J-0.220685
G02 X122.548590 Y252.106880 Z-0.125000 I-0.399715 J-0.027076
G02 X121.387684 Y252.119522 Z-0.125000 I-0.569852 J0.979788
G01 X121.387684 Y252.119522 Z-0.125000
G00 Z5.000000

(End cutting path id: path4297)


(Start cutting path id: path4297)
(Change tool to Default tool)

G00 Z5.000000
G00 X121.387684 Y253.177856

G01 Z-0.125000 F100.0(Penetrate)
G02 X122.243753 Y254.958577 Z-0.125000 I4.520984 J-1.077295 F400.000000
G02 X122.427881 Y254.912323 Z-0.125000 I0.081841 J-0.063822
G02 X122.374153 Y254.025320 Z-0.125000 I-1.915917 J-0.329076
G02 X121.394458 Y253.154149 Z-0.125000 I-1.195754 J0.358258
G01 X121.387684 Y253.177856 Z-0.125000
G01 X121.387684 Y253.177856 Z-0.125000
G00 Z5.000000

(End cutting path id: path4297)


(Start cutting path id: path4297)
(Change tool to Default tool)

G00 Z5.000000
G00 X121.034907 Y255.118133

G01 Z-0.125000 F100.0(Penetrate)
G02 X121.285288 Y255.211864 Z-0.125000 I0.185381 J-0.113920 F400.000000
G02 X121.354163 Y255.118133 Z-0.125000 I-0.029340 J-0.093731
G02 X121.285288 Y255.024403 Z-0.125000 I-0.098216 J-0.000000
G02 X121.034907 Y255.118133 Z-0.125000 I-0.065001 J0.207651
G01 X121.034907 Y255.118133 Z-0.125000
G00 Z5.000000

(End cutting path id: path4297)


(Start cutting path id: path4297)
(Change tool to Default tool)

G00 Z5.000000
G00 X121.034907 Y256.176467

G01 Z-0.125000 F100.0(Penetrate)
G02 X121.252393 Y256.298330 Z-0.125000 I0.162800 J-0.035543 F400.000000
G02 X121.339063 Y256.176467 Z-0.125000 I-0.042338 J-0.121863
G02 X121.252393 Y256.054604 Z-0.125000 I-0.129008 J0.000000
G02 X121.034907 Y256.176467 Z-0.125000 I-0.054686 J0.157406
G01 X121.034907 Y256.176467 Z-0.125000
G00 Z5.000000

(End cutting path id: path4297)


(Start cutting path id: path4297)
(Change tool to Default tool)

G00 Z5.000000
G00 X121.079004 Y257.503868

G01 Z-0.125000 F100.0(Penetrate)
G02 X120.898030 Y258.145350 Z-0.125000 I0.688082 J0.540389 F400.000000
G02 X121.022478 Y258.192160 Z-0.125000 I0.074278 J-0.008640
G02 X121.333712 Y257.728646 Z-0.125000 I-0.775138 J-0.856727
G02 X121.079004 Y257.503868 Z-0.125000 I-0.171694 J-0.062145
G01 X121.079004 Y257.503868 Z-0.125000
G00 Z5.000000

(End cutting path id: path4297)


(Start cutting path id: path4297)
(Change tool to Default tool)

G00 Z5.000000
G00 X121.387684 Y258.822300

G01 Z-0.125000 F100.0(Penetrate)
G02 X121.363973 Y259.277870 Z-0.125000 I0.443513 J0.251485 F400.000000
G02 X121.474182 Y259.297600 Z-0.125000 I0.061695 J-0.026948
G02 X121.619478 Y258.994796 Z-0.125000 I-0.386164 J-0.371556
G02 X121.387684 Y258.822300 Z-0.125000 I-0.164267 J-0.021250
G01 X121.387684 Y258.822300 Z-0.125000
G00 Z5.000000

(End cutting path id: path4297)


(Start cutting path id: path4297)
(Change tool to Default tool)

G00 Z5.000000
G00 X122.446018 Y257.925657

G01 Z-0.125000 F100.0(Penetrate)
G02 X122.782986 Y259.117928 Z-0.125000 I2.074514 J0.057439 F400.000000
G02 X122.961546 Y259.096059 Z-0.125000 I0.083907 J-0.054802
G02 X123.051239 Y258.254496 Z-0.125000 I-1.763207 J-0.613484
G02 X122.446018 Y257.925657 Z-0.125000 I-0.420038 J0.051704
G01 X122.446018 Y257.925657 Z-0.125000
G00 Z5.000000

(End cutting path id: path4297)


(Start cutting path id: path4297)
(Change tool to Default tool)

G00 Z5.000000
G00 X123.504351 Y258.645911

G01 Z-0.125000 F100.0(Penetrate)
G02 X123.754733 Y258.739642 Z-0.125000 I0.185381 J-0.113920 F400.000000
G02 X123.823608 Y258.645911 Z-0.125000 I-0.029340 J-0.093731
G02 X123.754733 Y258.552181 Z-0.125000 I-0.098216 J0.000000
G02 X123.504351 Y258.645911 Z-0.125000 I-0.065001 J0.207651
G01 X123.504351 Y258.645911 Z-0.125000
G00 Z5.000000

(End cutting path id: path4297)


(Start cutting path id: path4297)
(Change tool to Default tool)

G00 Z5.000000
G00 X123.151573 Y259.704245

G01 Z-0.125000 F100.0(Penetrate)
G02 X121.972230 Y261.182281 Z-0.125000 I2.140946 J2.917812 F400.000000
G02 X122.101023 Y261.376915 Z-0.125000 I0.127749 J0.055396
G02 X122.642402 Y261.152009 Z-0.125000 I-0.005838 J-0.778093
G02 X123.151573 Y259.704245 Z-0.125000 I-1.233920 J-1.247383
G01 X123.151573 Y259.704245 Z-0.125000
G00 Z5.000000

(End cutting path id: path4297)


(Start cutting path id: path4297)
(Change tool to Default tool)

G00 Z5.000000
G00 X124.412599 Y260.869091

G01 Z-0.125000 F100.0(Penetrate)
G02 X124.538135 Y261.034698 Z-0.125000 I0.119448 J0.039838 F400.000000
G02 X124.686741 Y260.949737 Z-0.125000 I-0.009120 J-0.188396
G02 X124.665796 Y260.846649 Z-0.125000 I-0.062485 J-0.040977
G02 X124.412599 Y260.869091 Z-0.125000 I-0.112662 J0.168456
G01 X124.412599 Y260.869091 Z-0.125000
G00 Z5.000000

(End cutting path id: path4297)


(Start cutting path id: path4297)
(Change tool to Default tool)

G00 Z5.000000
G00 X124.915462 Y261.468139

G01 Z-0.125000 F100.0(Penetrate)
G02 X125.165844 Y261.561870 Z-0.125000 I0.185381 J-0.113920 F400.000000
G02 X125.234719 Y261.468139 Z-0.125000 I-0.029340 J-0.093731
G02 X125.165844 Y261.374408 Z-0.125000 I-0.098216 J0.000000
G02 X124.915462 Y261.468139 Z-0.125000 I-0.065001 J0.207651
G01 X124.915462 Y261.468139 Z-0.125000
G00 Z5.000000

(End cutting path id: path4297)


(Start cutting path id: path4297)
(Change tool to Default tool)

G00 Z5.000000
G00 X125.268240 Y262.526472

G01 Z-0.125000 F100.0(Penetrate)
G02 X125.518622 Y262.620203 Z-0.125000 I0.185381 J-0.113920 F400.000000
G02 X125.587497 Y262.526472 Z-0.125000 I-0.029340 J-0.093731
G02 X125.518622 Y262.432742 Z-0.125000 I-0.098216 J0.000000
G02 X125.268240 Y262.526472 Z-0.125000 I-0.065001 J0.207651
G01 X125.268240 Y262.526472 Z-0.125000
G00 Z5.000000

(End cutting path id: path4297)


(Start cutting path id: path4297)
(Change tool to Default tool)

G00 Z5.000000
G00 X123.548448 Y262.089985

G01 Z-0.125000 F100.0(Penetrate)
G02 X123.824390 Y262.472139 Z-0.125000 I0.246687 J0.112577 F400.000000
G02 X124.436414 Y262.252261 Z-0.125000 I-0.149534 J-1.377938
G02 X124.420334 Y262.108424 Z-0.125000 I-0.044606 J-0.067831
G02 X123.548448 Y262.089985 Z-0.125000 I-0.462182 J1.231438
G01 X123.548448 Y262.089985 Z-0.125000
G00 Z5.000000

(End cutting path id: path4297)


(Start cutting path id: path4297)
(Change tool to Default tool)

G00 Z5.000000
G00 X122.666504 Y261.916223

G01 Z-0.125000 F100.0(Penetrate)
G02 X122.767008 Y262.159305 Z-0.125000 I0.142923 J0.083225 F400.000000
G02 X122.939726 Y262.102452 Z-0.125000 I0.042721 J-0.160997
G02 X122.942673 Y261.941341 Z-0.125000 I-0.102936 J-0.082465
G02 X122.666504 Y261.916223 Z-0.125000 I-0.149313 J0.110905
G01 X122.666504 Y261.916223 Z-0.125000
G00 Z5.000000

(End cutting path id: path4297)


(Start cutting path id: path4297)
(Change tool to Default tool)

G00 Z5.000000
G00 X122.642145 Y263.345563

G01 Z-0.125000 F100.0(Penetrate)
G01 X122.642142 Y263.345563 Z-0.125000 F400.000000
G01 X122.642145 Y263.345563 Z-0.125000
G01 X122.642145 Y263.345563 Z-0.125000
G00 Z5.000000

(End cutting path id: path4297)


(Start cutting path id: path4297)
(Change tool to Default tool)

G00 Z5.000000
G00 X123.151573 Y263.584806

G01 Z-0.125000 F100.0(Penetrate)
G03 X122.901192 Y263.678536 Z-0.125000 I-0.185381 J-0.113920 F400.000000
G03 X122.832317 Y263.584806 Z-0.125000 I0.029340 J-0.093731
G03 X122.901192 Y263.491075 Z-0.125000 I0.098216 J0.000000
G03 X123.151573 Y263.584806 Z-0.125000 I0.065001 J0.207651
G01 X123.151573 Y263.584806 Z-0.125000
G00 Z5.000000

(End cutting path id: path4297)


(Start cutting path id: path4297)
(Change tool to Default tool)

G00 Z5.000000
G00 X122.093240 Y264.995911

G01 Z-0.125000 F100.0(Penetrate)
G02 X122.343622 Y265.089642 Z-0.125000 I0.185381 J-0.113920 F400.000000
G02 X122.412497 Y264.995911 Z-0.125000 I-0.029340 J-0.093731
G02 X122.343622 Y264.902181 Z-0.125000 I-0.098216 J0.000000
G02 X122.093240 Y264.995911 Z-0.125000 I-0.065001 J0.207651
G01 X122.093240 Y264.995911 Z-0.125000
G00 Z5.000000

(End cutting path id: path4297)


(Start cutting path id: path4297)
(Change tool to Default tool)

G00 Z5.000000
G00 X123.701881 Y265.469559

G01 Z-0.125000 F100.0(Penetrate)
G03 X122.551883 Y265.974008 Z-0.125000 I-0.958485 J-0.622013 F400.000000
G02 X121.478103 Y266.398420 Z-0.125000 I-0.186706 J1.098188
G02 X121.395200 Y268.235821 Z-0.125000 I2.011724 J1.011338
G02 X121.912810 Y268.369415 Z-0.125000 I0.307327 J-0.121201
G02 X124.002748 Y266.253491 Z-0.125000 I-9.332278 J-11.307765
G02 X124.554167 Y264.725429 Z-0.125000 I-1.945436 J-1.565558
G01 X123.701881 Y265.469559 Z-0.125000
G01 X123.701881 Y265.469559 Z-0.125000
G01 X123.701881 Y265.469559 Z-0.125000
G00 Z5.000000

(End cutting path id: path4297)


(Start cutting path id: path4297)
(Change tool to Default tool)

G00 Z5.000000
G00 X124.209907 Y266.759800

G01 Z-0.125000 F100.0(Penetrate)
G02 X124.460288 Y266.853531 Z-0.125000 I0.185381 J-0.113920 F400.000000
G02 X124.529164 Y266.759800 Z-0.125000 I-0.029340 J-0.093731
G02 X124.460288 Y266.666070 Z-0.125000 I-0.098216 J0.000000
G02 X124.209907 Y266.759800 Z-0.125000 I-0.065001 J0.207651
G01 X124.209907 Y266.759800 Z-0.125000
G00 Z5.000000

(End cutting path id: path4297)


(Start cutting path id: path4297)
(Change tool to Default tool)

G00 Z5.000000
G00 X124.209907 Y267.465356

G01 Z-0.125000 F100.0(Penetrate)
G02 X123.215352 Y268.582776 Z-0.125000 I1.146079 J2.021372 F400.000000
G02 X123.319726 Y268.811637 Z-0.125000 I0.157378 J0.066458
G02 X123.693726 Y268.726616 Z-0.125000 I0.115922 J-0.355181
G02 X124.209907 Y267.465356 Z-0.125000 I-1.154814 J-1.208872
G01 X124.209907 Y267.465356 Z-0.125000
G00 Z5.000000

(End cutting path id: path4297)


(Start cutting path id: path4297)
(Change tool to Default tool)

G00 Z5.000000
G00 X125.268240 Y269.052857

G01 Z-0.125000 F100.0(Penetrate)
G02 X125.948013 Y269.237373 Z-0.125000 I0.444015 J-0.291361 F400.000000
G02 X126.159851 Y268.922447 Z-0.125000 I-0.169939 J-0.343022
G02 X125.996430 Y268.722620 Z-0.125000 I-0.187049 J-0.013765
G02 X125.268240 Y269.052857 Z-0.125000 I-0.096031 J0.756213
G01 X125.268240 Y269.052857 Z-0.125000
G00 Z5.000000

(End cutting path id: path4297)


(Start cutting path id: path4297)
(Change tool to Default tool)

G00 Z5.000000
G00 X125.268240 Y270.993135

G01 Z-0.125000 F100.0(Penetrate)
G02 X124.202906 Y271.584600 Z-0.125000 I-0.095358 J1.083403 F400.000000
G02 X123.981142 Y272.462475 Z-0.125000 I1.834405 J0.930347
G02 X124.148501 Y272.540037 Z-0.125000 I0.100464 J0.002564
G02 X125.268240 Y270.993135 Z-0.125000 I-2.967046 J-3.326440
G01 X125.268240 Y270.993135 Z-0.125000
G00 Z5.000000

(End cutting path id: path4297)


(Start cutting path id: path4297)
(Change tool to Default tool)

G00 Z5.000000
G00 X126.547059 Y270.727815

G01 Z-0.125000 F100.0(Penetrate)
G02 X125.637277 Y272.229939 Z-0.125000 I1.871240 J2.159917 F400.000000
G02 X125.840485 Y272.427265 Z-0.125000 I0.160538 J0.037972
G02 X126.733899 Y271.913101 Z-0.125000 I-0.517434 J-1.932378
G02 X127.047454 Y270.479019 Z-0.125000 I-0.955176 J-0.960164
G01 X126.741000 Y270.631387 Z-0.125000
G01 X126.547059 Y270.727815 Z-0.125000
G01 X126.547059 Y270.727815 Z-0.125000
G00 Z5.000000

(End cutting path id: path4297)


(Start cutting path id: path4297)
(Change tool to Default tool)

G00 Z5.000000
G00 X125.973796 Y272.404246

G01 Z-0.125000 F100.0(Penetrate)
G03 X125.438608 Y272.536107 Z-0.125000 I-0.389457 J-0.428678 F400.000000
G03 X125.336645 Y272.404246 Z-0.125000 I0.034282 J-0.131861
G03 X125.438608 Y272.272385 Z-0.125000 I0.136244 J0.000000
G03 X125.973796 Y272.404246 Z-0.125000 I0.145731 J0.560539
G01 X125.973796 Y272.404246 Z-0.125000
G00 Z5.000000

(End cutting path id: path4297)


(Start cutting path id: path4297)
(Change tool to Default tool)

G00 Z5.000000
G00 X124.562684 Y273.109793

G01 Z-0.125000 F100.0(Penetrate)
G02 X124.046687 Y274.009444 Z-0.125000 I0.654001 J0.972906 F400.000000
G02 X124.229675 Y274.188502 Z-0.125000 I0.168761 J0.010566
G02 X124.667946 Y273.936569 Z-0.125000 I-0.050199 J-0.594512
G02 X124.562684 Y273.109793 Z-0.125000 I-0.506958 J-0.355545
G01 X124.562684 Y273.109793 Z-0.125000
G00 Z5.000000

(End cutting path id: path4297)


(Start cutting path id: path4297)
(Change tool to Default tool)

G00 Z5.000000
G00 X125.135948 Y274.263433

G01 Z-0.125000 F100.0(Penetrate)
G02 X125.642631 Y274.720542 Z-0.125000 I0.422331 J0.041237 F400.000000
G02 X126.260479 Y274.387484 Z-0.125000 I-0.240510 J-1.185774
G02 X126.211853 Y274.188715 Z-0.125000 I-0.085078 J-0.084519
G02 X125.135948 Y274.263433 Z-0.125000 I-0.443922 J1.391354
G01 X125.135948 Y274.263433 Z-0.125000
G00 Z5.000000

(End cutting path id: path4297)


(Start cutting path id: path4297)
(Change tool to Default tool)

G00 Z5.000000
G00 X121.608171 Y272.844482

G01 Z-0.125000 F100.0(Penetrate)
G02 X121.674530 Y273.819725 Z-0.125000 I0.759840 J0.438177 F400.000000
G02 X122.007335 Y273.845670 Z-0.125000 I0.178171 J-0.137984
G02 X122.245918 Y273.253808 Z-0.125000 I-0.523619 J-0.555093
G02 X121.608171 Y272.844482 Z-0.125000 I-0.464619 J0.022413
G01 X121.608171 Y272.844482 Z-0.125000
G00 Z5.000000

(End cutting path id: path4297)


(Start cutting path id: path4297)
(Change tool to Default tool)

G00 Z5.000000
G00 X120.329351 Y272.757024

G01 Z-0.125000 F100.0(Penetrate)
G02 X119.880242 Y273.232757 Z-0.125000 I0.290938 J0.724510 F400.000000
G02 X119.969712 Y273.349294 Z-0.125000 I0.083896 J0.028203
G02 X120.377272 Y273.183527 Z-0.125000 I-0.043618 J-0.691144
G02 X120.329351 Y272.757024 Z-0.125000 I-0.169127 J-0.196941
G01 X120.329351 Y272.757024 Z-0.125000
G00 Z5.000000

(End cutting path id: path4297)


(Start cutting path id: path4297)
(Change tool to Default tool)

G00 Z5.000000
G00 X118.918240 Y273.462571

G01 Z-0.125000 F100.0(Penetrate)
G02 X116.397677 Y274.378696 Z-0.125000 I7.254906 J23.886160 F400.000000
G02 X116.391284 Y274.516190 Z-0.125000 I0.029912 J0.070287
G02 X116.764686 Y274.599276 Z-0.125000 I0.333186 J-0.616780
G02 X119.477765 Y274.384163 Z-0.125000 I-3.594232 J-62.548360
G03 X119.288351 Y274.230183 Z-0.125000 I-0.077054 J-0.098705
G02 X118.918240 Y273.462571 Z-0.125000 I-0.485605 J-0.238894
G01 X118.918240 Y273.462571 Z-0.125000
G00 Z5.000000

(End cutting path id: path4297)


(Start cutting path id: path4297)
(Change tool to Default tool)

G00 Z5.000000
G00 X118.918240 Y272.051468

G01 Z-0.125000 F100.0(Penetrate)
G02 X118.712570 Y272.669889 Z-0.125000 I0.340573 J0.456676 F400.000000
G02 X118.922657 Y272.761152 Z-0.125000 I0.143299 J-0.042431
G02 X119.238925 Y272.393839 Z-0.125000 I-0.280355 J-0.561208
G02 X118.918240 Y272.051468 Z-0.125000 I-0.254724 J-0.082782
G01 X118.918240 Y272.051468 Z-0.125000
G00 Z5.000000

(End cutting path id: path4297)


(Start cutting path id: path4297)
(Change tool to Default tool)

G00 Z5.000000
G00 X119.623796 Y270.993135

G01 Z-0.125000 F100.0(Penetrate)
G02 X119.368931 Y271.342841 Z-0.125000 I0.287874 J0.477528 F400.000000
G01 X119.437150 Y271.399692 Z-0.125000
G02 X119.735894 Y271.171974 Z-0.125000 I-0.318543 J-0.727720
G02 X119.623796 Y270.993135 Z-0.125000 I-0.086686 J-0.070216
G01 X119.623796 Y270.993135 Z-0.125000
G00 Z5.000000

(End cutting path id: path4297)


(Start cutting path id: path4297)
(Change tool to Default tool)

G00 Z5.000000
G00 X119.138726 Y270.375037

G01 Z-0.125000 F100.0(Penetrate)
G02 X119.264942 Y270.674528 Z-0.125000 I0.215309 J0.085603 F400.000000
G02 X119.435216 Y270.635402 Z-0.125000 I0.057766 J-0.138681
G02 X119.452511 Y270.462675 Z-0.125000 I-0.111157 J-0.098360
G02 X119.138726 Y270.375037 Z-0.125000 I-0.201754 J0.116805
G01 X119.138726 Y270.375037 Z-0.125000
G00 Z5.000000

(End cutting path id: path4297)


(Start cutting path id: path4297)
(Change tool to Default tool)

G00 Z5.000000
G00 X119.491504 Y269.316704

G01 Z-0.125000 F100.0(Penetrate)
G02 X119.816725 Y269.680755 Z-0.125000 I0.359958 J0.005727 F400.000000
G02 X120.035786 Y269.557966 Z-0.125000 I0.021225 J-0.218936
G02 X119.990398 Y269.326092 Z-0.125000 I-0.176577 J-0.085815
G02 X119.491504 Y269.316704 Z-0.125000 I-0.254875 J0.283765
G01 X119.491504 Y269.316704 Z-0.125000
G00 Z5.000000

(End cutting path id: path4297)


(Start cutting path id: path4297)
(Change tool to Default tool)

G00 Z5.000000
G00 X117.859907 Y270.287579

G01 Z-0.125000 F100.0(Penetrate)
G02 X118.110288 Y270.381310 Z-0.125000 I0.185381 J-0.113920 F400.000000
G02 X118.179163 Y270.287579 Z-0.125000 I-0.029340 J-0.093731
G02 X118.110288 Y270.193849 Z-0.125000 I-0.098215 J0.000000
G02 X117.859907 Y270.287579 Z-0.125000 I-0.065001 J0.207651
G01 X117.859907 Y270.287579 Z-0.125000
G00 Z5.000000

(End cutting path id: path4297)


(Start cutting path id: path4297)
(Change tool to Default tool)

G00 Z5.000000
G00 X116.801573 Y270.640357

G01 Z-0.125000 F100.0(Penetrate)
G03 X115.051109 Y271.912594 Z-0.125000 I-2.837140 J-2.063260 F400.000000
G02 X113.056274 Y272.635300 Z-0.125000 I10.071949 J30.915347
G02 X113.045033 Y272.942709 Z-0.125000 I0.062424 J0.156193
G02 X115.060770 Y273.476559 Z-0.125000 I2.363487 J-4.851693
G02 X115.920154 Y272.639664 Z-0.125000 I-0.142936 J-1.006463
G03 X117.011530 Y271.486735 Z-0.125000 I1.405932 J0.237851
G01 X117.083846 Y271.145496 Z-0.125000
G01 X116.801573 Y270.640357 Z-0.125000
G01 X116.801573 Y270.640357 Z-0.125000
G00 Z5.000000

(End cutting path id: path4297)


(Start cutting path id: path4297)
(Change tool to Default tool)

G00 Z5.000000
G00 X117.507129 Y271.345913

G01 Z-0.125000 F100.0(Penetrate)
G02 X117.757511 Y271.439643 Z-0.125000 I0.185381 J-0.113920 F400.000000
G02 X117.826386 Y271.345913 Z-0.125000 I-0.029340 J-0.093731
G02 X117.757511 Y271.252182 Z-0.125000 I-0.098215 J0.000000
G02 X117.507129 Y271.345913 Z-0.125000 I-0.065001 J0.207651
G01 X117.507129 Y271.345913 Z-0.125000
G00 Z5.000000

(End cutting path id: path4297)


(Start cutting path id: path4297)
(Change tool to Default tool)

G00 Z5.000000
G00 X116.801573 Y273.462571

G01 Z-0.125000 F100.0(Penetrate)
G02 X117.051955 Y273.556301 Z-0.125000 I0.185381 J-0.113920 F400.000000
G02 X117.120830 Y273.462571 Z-0.125000 I-0.029340 J-0.093731
G02 X117.051955 Y273.368840 Z-0.125000 I-0.098215 J0.000000
G02 X116.801573 Y273.462571 Z-0.125000 I-0.065001 J0.207651
G01 X116.801573 Y273.462571 Z-0.125000
G00 Z5.000000

(End cutting path id: path4297)


(Start cutting path id: path4297)
(Change tool to Default tool)

G00 Z5.000000
G00 X114.684907 Y270.993135

G01 Z-0.125000 F100.0(Penetrate)
G02 X114.206576 Y271.426714 Z-0.125000 I0.282521 J0.792321 F400.000000
G02 X114.283954 Y271.530762 Z-0.125000 I0.066489 J0.031350
G02 X114.767725 Y271.325474 Z-0.125000 I-0.155692 J-1.039556
G02 X114.684907 Y270.993135 Z-0.125000 I-0.113583 J-0.148184
G01 X114.684907 Y270.993135 Z-0.125000
G00 Z5.000000

(End cutting path id: path4297)


(Start cutting path id: path4297)
(Change tool to Default tool)

G00 Z5.000000
G00 X115.037684 Y270.287579

G01 Z-0.125000 F100.0(Penetrate)
G02 X115.881139 Y270.431855 Z-0.125000 I0.603822 J-0.992411 F400.000000
G02 X115.998171 Y270.287579 Z-0.125000 I-0.030416 J-0.144276
G02 X115.881139 Y270.143303 Z-0.125000 I-0.147447 J0.000000
G02 X115.037684 Y270.287579 Z-0.125000 I-0.239632 J1.136687
G01 X115.037684 Y270.287579 Z-0.125000
G00 Z5.000000

(End cutting path id: path4297)


(Start cutting path id: path4297)
(Change tool to Default tool)

G00 Z5.000000
G00 X115.610948 Y268.963926

G01 Z-0.125000 F100.0(Penetrate)
G02 X116.160226 Y269.751904 Z-0.125000 I0.736058 J0.072346 F400.000000
G02 X116.630611 Y269.613567 Z-0.125000 I0.120150 J-0.460345
G02 X116.633637 Y269.253972 Z-0.125000 I-0.197378 J-0.181471
G02 X115.610948 Y268.963926 Z-0.125000 I-0.738683 J0.656562
G01 X115.610948 Y268.963926 Z-0.125000
G00 Z5.000000

(End cutting path id: path4297)


(Start cutting path id: path4297)
(Change tool to Default tool)

G00 Z5.000000
G00 X115.390462 Y268.170911

G01 Z-0.125000 F100.0(Penetrate)
G02 X114.660603 Y268.729303 Z-0.125000 I1.131757 J2.235476 F400.000000
G01 X114.703737 Y268.794914 Z-0.125000
G02 X115.456271 Y268.444399 Z-0.125000 I-1.207190 J-3.574843
G02 X115.390462 Y268.170911 Z-0.125000 I-0.076706 J-0.126204
G01 X115.390462 Y268.170911 Z-0.125000
G00 Z5.000000

(End cutting path id: path4297)


(Start cutting path id: path4297)
(Change tool to Default tool)

G00 Z5.000000
G00 X114.684907 Y267.818133

G01 Z-0.125000 F100.0(Penetrate)
G02 X114.935288 Y267.911864 Z-0.125000 I0.185381 J-0.113920 F400.000000
G02 X115.004163 Y267.818133 Z-0.125000 I-0.029340 J-0.093731
G02 X114.935288 Y267.724403 Z-0.125000 I-0.098216 J0.000000
G02 X114.684907 Y267.818133 Z-0.125000 I-0.065001 J0.207651
G01 X114.684907 Y267.818133 Z-0.125000
G00 Z5.000000

(End cutting path id: path4297)


(Start cutting path id: path4297)
(Change tool to Default tool)

G00 Z5.000000
G00 X114.508518 Y266.230633

G01 Z-0.125000 F100.0(Penetrate)
G02 X113.432290 Y267.739254 Z-0.125000 I3.559359 J3.677388 F400.000000
G02 X113.536559 Y267.865823 Z-0.125000 I0.082246 J0.038479
G02 X114.044600 Y267.579294 Z-0.125000 I-0.266602 J-1.066373
G02 X114.904594 Y266.095982 Z-0.125000 I-2.321112 J-2.336693
G01 X114.508518 Y266.230633 Z-0.125000
G01 X114.508518 Y266.230633 Z-0.125000
G00 Z5.000000

(End cutting path id: path4297)


(Start cutting path id: path4297)
(Change tool to Default tool)

G00 Z5.000000
G00 X113.273796 Y266.054245

G01 Z-0.125000 F100.0(Penetrate)
G02 X113.524177 Y266.147975 Z-0.125000 I0.185381 J-0.113920 F400.000000
G02 X113.593052 Y266.054245 Z-0.125000 I-0.029340 J-0.093731
G02 X113.524177 Y265.960514 Z-0.125000 I-0.098216 J0.000000
G02 X113.273796 Y266.054245 Z-0.125000 I-0.065001 J0.207651
G01 X113.273796 Y266.054245 Z-0.125000
G00 Z5.000000

(End cutting path id: path4297)


(Start cutting path id: path4297)
(Change tool to Default tool)

G00 Z5.000000
G00 X111.730393 Y266.494480

G01 Z-0.125000 F100.0(Penetrate)
G03 X111.237974 Y268.350676 Z-0.125000 I-3.595556 J0.039571 F400.000000
G02 X110.339220 Y269.963858 Z-0.125000 I37.368106 J21.875882
G02 X110.485117 Y270.131744 Z-0.125000 I0.105351 J0.055784
G02 X111.871950 Y269.321850 Z-0.125000 I-1.513046 J-4.183214
G03 X112.444148 Y267.842207 Z-0.125000 I4.029653 J0.707861
G02 X111.730393 Y266.494480 Z-0.125000 I-0.742383 J-0.469700
G01 X111.730393 Y266.494480 Z-0.125000
G00 Z5.000000

(End cutting path id: path4297)


(Start cutting path id: path4297)
(Change tool to Default tool)

G00 Z5.000000
G00 X110.804351 Y266.759800

G01 Z-0.125000 F100.0(Penetrate)
G02 X111.054733 Y266.853531 Z-0.125000 I0.185381 J-0.113920 F400.000000
G02 X111.123608 Y266.759800 Z-0.125000 I-0.029340 J-0.093731
G02 X111.054733 Y266.666070 Z-0.125000 I-0.098216 J0.000000
G02 X110.804351 Y266.759800 Z-0.125000 I-0.065001 J0.207651
G01 X110.804351 Y266.759800 Z-0.125000
G00 Z5.000000

(End cutting path id: path4297)


(Start cutting path id: path4297)
(Change tool to Default tool)

G00 Z5.000000
G00 X110.451573 Y265.625871

G01 Z-0.125000 F100.0(Penetrate)
G02 X110.923744 Y266.133178 Z-0.125000 I0.731771 J-0.207701 F400.000000
G02 X111.079997 Y266.047273 Z-0.125000 I0.040466 J-0.111453
G02 X111.003189 Y265.709815 Z-0.125000 I-0.395912 J-0.087358
G02 X110.451573 Y265.625871 Z-0.125000 I-0.320411 J0.251124
G01 X110.451573 Y265.625871 Z-0.125000
G00 Z5.000000

(End cutting path id: path4297)


(Start cutting path id: path4297)
(Change tool to Default tool)

G00 Z5.000000
G00 X109.040462 Y266.054245

G01 Z-0.125000 F100.0(Penetrate)
G02 X109.758157 Y266.762556 Z-0.125000 I0.928243 J-0.222784 F400.000000
G02 X110.059552 Y266.606345 Z-0.125000 I0.058074 J-0.256816
G02 X109.981254 Y266.206527 Z-0.125000 I-0.340679 J-0.140859
G02 X109.040462 Y266.054245 Z-0.125000 I-0.574501 J0.567008
G01 X109.040462 Y266.054245 Z-0.125000
G00 Z5.000000

(End cutting path id: path4297)


(Start cutting path id: path4297)
(Change tool to Default tool)

G00 Z5.000000
G00 X107.982129 Y265.625871

G01 Z-0.125000 F100.0(Penetrate)
G02 X108.454300 Y266.133178 Z-0.125000 I0.731771 J-0.207701 F400.000000
G02 X108.610552 Y266.047273 Z-0.125000 I0.040466 J-0.111453
G02 X108.533745 Y265.709815 Z-0.125000 I-0.395912 J-0.087358
G02 X107.982129 Y265.625871 Z-0.125000 I-0.320411 J0.251124
G01 X107.982129 Y265.625871 Z-0.125000
G00 Z5.000000

(End cutting path id: path4297)


(Start cutting path id: path4297)
(Change tool to Default tool)

G00 Z5.000000
G00 X106.571018 Y265.348689

G01 Z-0.125000 F100.0(Penetrate)
G02 X107.269430 Y266.131099 Z-0.125000 I1.122197 J-0.298800 F400.000000
G02 X107.526664 Y266.026723 Z-0.125000 I0.073600 J-0.187777
G02 X107.479417 Y265.644530 Z-0.125000 I-0.335790 J-0.152506
G02 X106.571018 Y265.348689 Z-0.125000 I-0.678189 J0.539855
G01 X106.571018 Y265.348689 Z-0.125000
G00 Z5.000000

(End cutting path id: path4297)


(Start cutting path id: path4297)
(Change tool to Default tool)

G00 Z5.000000
G00 X106.085948 Y266.141702

G01 Z-0.125000 F100.0(Penetrate)
G02 X106.212165 Y266.441193 Z-0.125000 I0.215309 J0.085602 F400.000000
G02 X106.382438 Y266.402067 Z-0.125000 I0.057766 J-0.138681
G02 X106.399733 Y266.229340 Z-0.125000 I-0.111157 J-0.098360
G02 X106.085948 Y266.141702 Z-0.125000 I-0.201753 J0.116806
G01 X106.085948 Y266.141702 Z-0.125000
G00 Z5.000000

(End cutting path id: path4297)


(Start cutting path id: path4297)
(Change tool to Default tool)

G00 Z5.000000
G00 X107.276573 Y267.112578

G01 Z-0.125000 F100.0(Penetrate)
G02 X105.581937 Y268.209420 Z-0.125000 I0.184646 J2.142820 F400.000000
G02 X105.424780 Y269.146878 Z-0.125000 I1.239008 J0.689611
G02 X105.732926 Y269.292418 Z-0.125000 I0.205688 J-0.036514
G02 X106.673165 Y268.060229 Z-0.125000 I-0.961553 J-1.708552
G02 X107.831375 Y270.209322 Z-0.125000 I0.762079 J0.975936
G02 X107.276573 Y267.112578 Z-0.125000 I-0.508827 J-1.506911
G01 X107.276573 Y267.112578 Z-0.125000
G00 Z5.000000

(End cutting path id: path4297)


(Start cutting path id: path4297)
(Change tool to Default tool)

G00 Z5.000000
G00 X108.334907 Y267.288967

G01 Z-0.125000 F100.0(Penetrate)
G02 X108.564754 Y267.403484 Z-0.125000 I0.171654 J-0.056604 F400.000000
G02 X108.646768 Y267.288967 Z-0.125000 I-0.038944 J-0.114517
G02 X108.564754 Y267.174449 Z-0.125000 I-0.120958 J0.000000
G02 X108.334907 Y267.288967 Z-0.125000 I-0.058194 J0.171121
G01 X108.334907 Y267.288967 Z-0.125000
G00 Z5.000000

(End cutting path id: path4297)


(Start cutting path id: path4297)
(Change tool to Default tool)

G00 Z5.000000
G00 X109.040462 Y267.400569

G01 Z-0.125000 F100.0(Penetrate)
G02 X109.704189 Y268.245333 Z-0.125000 I1.001366 J-0.103643 F400.000000
G02 X110.082591 Y268.141819 Z-0.125000 I0.114997 J-0.323018
G02 X110.083108 Y267.797825 Z-0.125000 I-0.206770 J-0.172308
G02 X109.040462 Y267.400569 Z-0.125000 I-0.872263 J0.722455
G01 X109.040462 Y267.400569 Z-0.125000
G00 Z5.000000

(End cutting path id: path4297)


(Start cutting path id: path4297)
(Change tool to Default tool)

G00 Z5.000000
G00 X108.687684 Y268.685380

G01 Z-0.125000 F100.0(Penetrate)
G02 X108.529508 Y269.116551 Z-0.125000 I0.787714 J0.533574 F400.000000
G01 X108.579092 Y269.138088 Z-0.125000
G02 X108.807132 Y268.780611 Z-0.125000 I-1.119748 J-0.965777
G02 X108.687684 Y268.685380 Z-0.125000 I-0.071837 J-0.032422
G01 X108.687684 Y268.685380 Z-0.125000
G00 Z5.000000

(End cutting path id: path4297)


(Start cutting path id: path4297)
(Change tool to Default tool)

G00 Z5.000000
G00 X107.982129 Y269.934802

G01 Z-0.125000 F100.0(Penetrate)
G02 X108.232511 Y270.028532 Z-0.125000 I0.185381 J-0.113920 F400.000000
G02 X108.301386 Y269.934802 Z-0.125000 I-0.029340 J-0.093731
G02 X108.232511 Y269.841071 Z-0.125000 I-0.098215 J0.000000
G02 X107.982129 Y269.934802 Z-0.125000 I-0.065001 J0.207651
G01 X107.982129 Y269.934802 Z-0.125000
G00 Z5.000000

(End cutting path id: path4297)


(Start cutting path id: path4297)
(Change tool to Default tool)

G00 Z5.000000
G00 X107.276573 Y269.405635

G01 Z-0.125000 F100.0(Penetrate)
G02 X106.846947 Y270.137921 Z-0.125000 I0.805662 J0.964848 F400.000000
G02 X106.962241 Y270.225242 Z-0.125000 I0.079394 J0.014947
G02 X107.473025 Y269.801590 Z-0.125000 I-0.641434 J-1.293103
G02 X107.276573 Y269.405635 Z-0.125000 I-0.197253 J-0.148845
G01 X107.276573 Y269.405635 Z-0.125000
G00 Z5.000000

(End cutting path id: path4297)


(Start cutting path id: path4297)
(Change tool to Default tool)

G00 Z5.000000
G00 X107.497059 Y271.080593

G01 Z-0.125000 F100.0(Penetrate)
G02 X107.678193 Y272.813651 Z-0.125000 I2.861900 J0.576879 F400.000000
G02 X107.930978 Y272.825430 Z-0.125000 I0.129265 J-0.055750
G02 X108.257014 Y271.665423 Z-0.125000 I-2.355914 J-1.287985
G02 X107.497059 Y271.080593 Z-0.125000 I-0.583578 J-0.027847
G01 X107.497059 Y271.080593 Z-0.125000
G00 Z5.000000

(End cutting path id: path4297)


(Start cutting path id: path4297)
(Change tool to Default tool)

G00 Z5.000000
G00 X106.571018 Y270.993135

G01 Z-0.125000 F100.0(Penetrate)
G02 X106.821399 Y271.086865 Z-0.125000 I0.185381 J-0.113920 F400.000000
G02 X106.890275 Y270.993135 Z-0.125000 I-0.029340 J-0.093731
G02 X106.821399 Y270.899404 Z-0.125000 I-0.098215 J0.000000
G02 X106.571018 Y270.993135 Z-0.125000 I-0.065001 J0.207651
G01 X106.571018 Y270.993135 Z-0.125000
G00 Z5.000000

(End cutting path id: path4297)


(Start cutting path id: path4297)
(Change tool to Default tool)

G00 Z5.000000
G00 X104.454351 Y270.993135

G01 Z-0.125000 F100.0(Penetrate)
G02 X106.186679 Y272.826687 Z-0.125000 I5.013148 J-3.001268 F400.000000
G02 X106.413909 Y272.727710 Z-0.125000 I0.082326 J-0.121321
G02 X106.266193 Y272.158758 Z-0.125000 I-0.733758 J-0.113148
G02 X104.454351 Y270.993135 Z-0.125000 I-2.563605 J1.993888
G01 X104.454351 Y270.993135 Z-0.125000
G00 Z5.000000

(End cutting path id: path4297)


(Start cutting path id: path4297)
(Change tool to Default tool)

G00 Z5.000000
G00 X104.101573 Y269.934802

G01 Z-0.125000 F100.0(Penetrate)
G02 X104.636761 Y270.066663 Z-0.125000 I0.389457 J-0.428678 F400.000000
G02 X104.738724 Y269.934802 Z-0.125000 I-0.034282 J-0.131861
G02 X104.636761 Y269.802941 Z-0.125000 I-0.136244 J0.000000
G02 X104.101573 Y269.934802 Z-0.125000 I-0.145731 J0.560539
G01 X104.101573 Y269.934802 Z-0.125000
G00 Z5.000000

(End cutting path id: path4297)


(Start cutting path id: path4297)
(Change tool to Default tool)

G00 Z5.000000
G00 X103.043240 Y269.934802

G01 Z-0.125000 F100.0(Penetrate)
G02 X103.293622 Y270.028532 Z-0.125000 I0.185381 J-0.113920 F400.000000
G02 X103.362497 Y269.934802 Z-0.125000 I-0.029340 J-0.093731
G02 X103.293622 Y269.841071 Z-0.125000 I-0.098215 J0.000000
G02 X103.043240 Y269.934802 Z-0.125000 I-0.065001 J0.207651
G01 X103.043240 Y269.934802 Z-0.125000
G00 Z5.000000

(End cutting path id: path4297)


(Start cutting path id: path4297)
(Change tool to Default tool)

G00 Z5.000000
G00 X103.043240 Y268.685380

G01 Z-0.125000 F100.0(Penetrate)
G02 X102.885064 Y269.116551 Z-0.125000 I0.787714 J0.533574 F400.000000
G01 X102.934647 Y269.138088 Z-0.125000
G02 X103.162688 Y268.780611 Z-0.125000 I-1.119748 J-0.965777
G02 X103.043240 Y268.685380 Z-0.125000 I-0.071837 J-0.032422
G01 X103.043240 Y268.685380 Z-0.125000
G00 Z5.000000

(End cutting path id: path4297)


(Start cutting path id: path4297)
(Change tool to Default tool)

G00 Z5.000000
G00 X104.807129 Y267.288967

G01 Z-0.125000 F100.0(Penetrate)
G02 X105.167845 Y267.406899 Z-0.125000 I0.228839 J-0.089322 F400.000000
G02 X105.329691 Y267.161793 Z-0.125000 I-0.193126 J-0.303511
G02 X105.237448 Y267.050780 Z-0.125000 I-0.094259 J-0.015509
G02 X104.807129 Y267.288967 Z-0.125000 I-0.010320 J0.489165
G01 X104.807129 Y267.288967 Z-0.125000
G00 Z5.000000

(End cutting path id: path4297)


(Start cutting path id: path4297)
(Change tool to Default tool)

G00 Z5.000000
G00 X103.748795 Y265.978649

G01 Z-0.125000 F100.0(Penetrate)
G02 X104.121628 Y266.411973 Z-0.125000 I0.680332 J-0.208303 F400.000000
G02 X104.240374 Y266.366792 Z-0.125000 I0.037888 J-0.079058
G02 X104.216990 Y266.166969 Z-0.125000 I-0.188955 J-0.079167
G02 X103.748795 Y265.978649 Z-0.125000 I-0.384745 J0.280374
G01 X103.748795 Y265.978649 Z-0.125000
G00 Z5.000000

(End cutting path id: path4297)


(Start cutting path id: path4297)
(Change tool to Default tool)

G00 Z5.000000
G00 X103.043240 Y266.407022

G01 Z-0.125000 F100.0(Penetrate)
G02 X103.293622 Y266.500753 Z-0.125000 I0.185381 J-0.113920 F400.000000
G02 X103.362497 Y266.407022 Z-0.125000 I-0.029340 J-0.093731
G02 X103.293622 Y266.313292 Z-0.125000 I-0.098216 J0.000000
G02 X103.043240 Y266.407022 Z-0.125000 I-0.065001 J0.207651
G01 X103.043240 Y266.407022 Z-0.125000
G00 Z5.000000

(End cutting path id: path4297)


(Start cutting path id: path4297)
(Change tool to Default tool)

G00 Z5.000000
G00 X103.043240 Y264.995911

G01 Z-0.125000 F100.0(Penetrate)
G02 X103.420323 Y265.176553 Z-0.125000 I0.290436 J-0.122380 F400.000000
G02 X103.532561 Y265.014446 Z-0.125000 I-0.042751 J-0.149509
G02 X103.388384 Y264.820990 Z-0.125000 I-0.226591 J0.018419
G02 X103.043240 Y264.995911 Z-0.125000 I-0.094184 J0.242132
G01 X103.043240 Y264.995911 Z-0.125000
G00 Z5.000000

(End cutting path id: path4297)


(Start cutting path id: path4297)
(Change tool to Default tool)

G00 Z5.000000
G00 X102.337684 Y264.290356

G01 Z-0.125000 F100.0(Penetrate)
G02 X102.588066 Y264.384086 Z-0.125000 I0.185381 J-0.113920 F400.000000
G02 X102.656941 Y264.290356 Z-0.125000 I-0.029340 J-0.093731
G02 X102.588066 Y264.196625 Z-0.125000 I-0.098216 J0.000000
G02 X102.337684 Y264.290356 Z-0.125000 I-0.065001 J0.207651
G01 X102.337684 Y264.290356 Z-0.125000
G00 Z5.000000

(End cutting path id: path4297)


(Start cutting path id: path4297)
(Change tool to Default tool)

G00 Z5.000000
G00 X101.483917 Y265.453193

G01 Z-0.125000 F100.0(Penetrate)
G02 X102.847794 Y267.386323 Z-0.125000 I4.583567 J-1.786143 F400.000000
G02 X103.084701 Y267.268492 Z-0.125000 I0.093841 J-0.108402
G02 X102.697581 Y265.787843 Z-0.125000 I-4.044774 J0.266589
G02 X101.483917 Y265.453193 Z-0.125000 I-0.752024 J0.359237
G01 X101.483917 Y265.453193 Z-0.125000
G00 Z5.000000

(End cutting path id: path4297)


(Start cutting path id: path4297)
(Change tool to Default tool)

G00 Z5.000000
G00 X103.748795 Y263.408417

G01 Z-0.125000 F100.0(Penetrate)
G02 X103.725084 Y263.863986 Z-0.125000 I0.443513 J0.251485 F400.000000
G02 X103.835293 Y263.883716 Z-0.125000 I0.061695 J-0.026948
G02 X103.980589 Y263.580913 Z-0.125000 I-0.386164 J-0.371556
G02 X103.748795 Y263.408417 Z-0.125000 I-0.164267 J-0.021250
G01 X103.748795 Y263.408417 Z-0.125000
G00 Z5.000000

(End cutting path id: path4297)


(Start cutting path id: path4297)
(Change tool to Default tool)

G00 Z5.000000
G00 X103.748795 Y261.997306

G01 Z-0.125000 F100.0(Penetrate)
G02 X103.959332 Y262.122651 Z-0.125000 I0.157734 J-0.025451 F400.000000
G02 X104.048249 Y261.997306 Z-0.125000 I-0.043891 J-0.125345
G02 X103.959332 Y261.871960 Z-0.125000 I-0.132808 J0.000000
G02 X103.748795 Y261.997306 Z-0.125000 I-0.052803 J0.150797
G01 X103.748795 Y261.997306 Z-0.125000
G00 Z5.000000

(End cutting path id: path4297)


(Start cutting path id: path4297)
(Change tool to Default tool)

G00 Z5.000000
G00 X103.748795 Y260.409806

G01 Z-0.125000 F100.0(Penetrate)
G02 X103.999177 Y260.503536 Z-0.125000 I0.185381 J-0.113920 F400.000000
G02 X104.068052 Y260.409806 Z-0.125000 I-0.029340 J-0.093731
G02 X103.999177 Y260.316075 Z-0.125000 I-0.098216 J0.000000
G02 X103.748795 Y260.409806 Z-0.125000 I-0.065001 J0.207651
G01 X103.748795 Y260.409806 Z-0.125000
G00 Z5.000000

(End cutting path id: path4297)


(Start cutting path id: path4297)
(Change tool to Default tool)

G00 Z5.000000
G00 X101.852615 Y260.497264

G01 Z-0.125000 F100.0(Penetrate)
G02 X102.544328 Y263.243758 Z-0.125000 I6.298812 J-0.126023 F400.000000
G02 X102.833654 Y263.259648 Z-0.125000 I0.149300 J-0.076486
G02 X103.014114 Y262.470317 Z-0.125000 I-0.963368 J-0.635544
G02 X101.852615 Y260.497264 Z-0.125000 I-2.924507 J0.393198
G01 X101.852615 Y260.497264 Z-0.125000
G00 Z5.000000

(End cutting path id: path4297)


(Start cutting path id: path4297)
(Change tool to Default tool)

G00 Z5.000000
G00 X100.221018 Y260.370868

G01 Z-0.125000 F100.0(Penetrate)
G02 X100.999912 Y261.506599 Z-0.125000 I2.415770 J-0.821805 F400.000000
G02 X101.169761 Y261.456427 Z-0.125000 I0.068231 J-0.081597
G02 X101.129885 Y261.022557 Z-0.125000 I-0.545342 J-0.168647
G02 X100.221018 Y260.370868 Z-0.125000 I-1.103100 J0.578808
G01 X100.221018 Y260.370868 Z-0.125000
G00 Z5.000000

(End cutting path id: path4297)


(Start cutting path id: path4297)
(Change tool to Default tool)

G00 Z5.000000
G00 X99.515462 Y261.291750

G01 Z-0.125000 F100.0(Penetrate)
G02 X100.584727 Y262.760013 Z-0.125000 I83.739456 J-59.859910 F400.000000
G03 X99.868240 Y263.584806 Z-0.125000 I-0.449292 J0.333304
G02 X101.231089 Y264.303850 Z-0.125000 I1.326263 J-0.862680
G02 X101.575580 Y263.895333 Z-0.125000 I-0.008245 J-0.356461
G02 X100.925081 Y261.927390 Z-0.125000 I-5.965336 J0.880345
G02 X99.515462 Y261.291750 Z-0.125000 I-1.118394 J0.599362
G01 X99.515462 Y261.291750 Z-0.125000
G00 Z5.000000

(End cutting path id: path4297)


(Start cutting path id: path4297)
(Change tool to Default tool)

G00 Z5.000000
G00 X97.046018 Y261.468139

G01 Z-0.125000 F100.0(Penetrate)
G02 X97.835551 Y263.282438 Z-0.125000 I12.732393 J-4.461847 F400.000000
G02 X97.961548 Y263.332322 Z-0.125000 I0.092019 J-0.048357
G02 X98.070251 Y263.175592 Z-0.125000 I-0.052810 J-0.152688
G02 X97.972719 Y262.116882 Z-0.125000 I-7.955377 J0.199028
G02 X97.607788 Y261.302765 Z-0.125000 I-1.696259 J0.271506
G02 X97.046018 Y261.468139 Z-0.125000 I-0.246140 J0.200713
G01 X97.046018 Y261.468139 Z-0.125000
G00 Z5.000000

(End cutting path id: path4297)


(Start cutting path id: path4297)
(Change tool to Default tool)

G00 Z5.000000
G00 X95.634907 Y260.334210

G01 Z-0.125000 F100.0(Penetrate)
G02 X96.112533 Y260.833550 Z-0.125000 I0.720691 J-0.211254 F400.000000
G02 X96.270981 Y260.745859 Z-0.125000 I0.039530 J-0.115566
G02 X96.196138 Y260.421409 Z-0.125000 I-0.367366 J-0.086115
G02 X95.634907 Y260.334210 Z-0.125000 I-0.329044 J0.268090
G01 X95.634907 Y260.334210 Z-0.125000
G00 Z5.000000

(End cutting path id: path4297)


(Start cutting path id: path4297)
(Change tool to Default tool)

G00 Z5.000000
G00 X93.871018 Y260.762584

G01 Z-0.125000 F100.0(Penetrate)
G02 X94.836475 Y262.684528 Z-0.125000 I4.348553 J-0.980962 F400.000000
G02 X95.252157 Y262.804892 Z-0.125000 I0.299740 J-0.257196
G02 X95.516953 Y262.452577 Z-0.125000 I-0.110051 J-0.358380
G02 X95.054440 Y261.034426 Z-0.125000 I-2.291715 J-0.037082
G01 X94.254151 Y260.730021 Z-0.125000
G01 X93.871018 Y260.762584 Z-0.125000
G01 X93.871018 Y260.762584 Z-0.125000
G00 Z5.000000

(End cutting path id: path4297)


(Start cutting path id: path4297)
(Change tool to Default tool)

G00 Z5.000000
G00 X93.518240 Y260.057022

G01 Z-0.125000 F100.0(Penetrate)
G02 X93.768622 Y260.150753 Z-0.125000 I0.185381 J-0.113920 F400.000000
G02 X93.837497 Y260.057022 Z-0.125000 I-0.029340 J-0.093731
G02 X93.768622 Y259.963292 Z-0.125000 I-0.098216 J0.000000
G02 X93.518240 Y260.057022 Z-0.125000 I-0.065001 J0.207651
G01 X93.518240 Y260.057022 Z-0.125000
G00 Z5.000000

(End cutting path id: path4297)


(Start cutting path id: path4297)
(Change tool to Default tool)

G00 Z5.000000
G00 X91.754351 Y258.822300

G01 Z-0.125000 F100.0(Penetrate)
G02 X93.235664 Y261.492799 Z-0.125000 I8.653746 J-3.054104 F400.000000
G02 X93.466126 Y261.485940 Z-0.125000 I0.112657 J-0.089916
G02 X93.497647 Y261.104741 Z-0.125000 I-0.308352 J-0.217400
G02 X91.754351 Y258.822300 Z-0.125000 I-6.411218 J3.089824
G01 X91.754351 Y258.822300 Z-0.125000
G00 Z5.000000

(End cutting path id: path4297)


(Start cutting path id: path4297)
(Change tool to Default tool)

G00 Z5.000000
G00 X91.754351 Y257.940356

G01 Z-0.125000 F100.0(Penetrate)
G02 X92.004733 Y258.034086 Z-0.125000 I0.185381 J-0.113920 F400.000000
G02 X92.073608 Y257.940356 Z-0.125000 I-0.029340 J-0.093731
G02 X92.004733 Y257.846625 Z-0.125000 I-0.098216 J0.000000
G02 X91.754351 Y257.940356 Z-0.125000 I-0.065001 J0.207651
G01 X91.754351 Y257.940356 Z-0.125000
G00 Z5.000000

(End cutting path id: path4297)


(Start cutting path id: path4297)
(Change tool to Default tool)

G00 Z5.000000
G00 X92.107129 Y257.019473

G01 Z-0.125000 F100.0(Penetrate)
G02 X93.336452 Y259.054367 Z-0.125000 I5.030027 J-1.649971 F400.000000
G02 X93.737367 Y259.220275 Z-0.125000 I0.392101 J-0.380151
G02 X93.825883 Y259.060904 Z-0.125000 I-0.001698 J-0.105210
G02 X92.107129 Y257.019473 Z-0.125000 I-7.220431 J4.334886
G01 X92.107129 Y257.019473 Z-0.125000
G00 Z5.000000

(End cutting path id: path4297)


(Start cutting path id: path4297)
(Change tool to Default tool)

G00 Z5.000000
G00 X92.812684 Y255.647300

G01 Z-0.125000 F100.0(Penetrate)
G03 X93.783213 Y257.677788 Z-0.125000 I-31.795544 J16.444756 F400.000000
G02 X94.362373 Y258.868851 Z-0.125000 I15.889731 J-6.990122
G02 X94.458020 Y258.837456 Z-0.125000 I0.045071 J-0.024084
G02 X94.029641 Y256.847521 Z-0.125000 I-14.725303 J2.128887
G03 X93.717055 Y256.089526 Z-0.125000 I1.055270 J-0.878628
G02 X92.812684 Y255.647300 Z-0.125000 I-0.585559 J0.051641
G01 X92.812684 Y255.647300 Z-0.125000
G00 Z5.000000

(End cutting path id: path4297)


(Start cutting path id: path4297)
(Change tool to Default tool)

G00 Z5.000000
G00 X92.107129 Y255.294522

G01 Z-0.125000 F100.0(Penetrate)
G02 X92.336976 Y255.409040 Z-0.125000 I0.171654 J-0.056604 F400.000000
G02 X92.418990 Y255.294522 Z-0.125000 I-0.038944 J-0.114517
G02 X92.336976 Y255.180005 Z-0.125000 I-0.120958 J0.000000
G02 X92.107129 Y255.294522 Z-0.125000 I-0.058194 J0.171121
G01 X92.107129 Y255.294522 Z-0.125000
G00 Z5.000000

(End cutting path id: path4297)


(Start cutting path id: path4297)
(Change tool to Default tool)

G00 Z5.000000
G00 X91.048795 Y255.823689

G01 Z-0.125000 F100.0(Penetrate)
G02 X91.299177 Y255.917420 Z-0.125000 I0.185381 J-0.113920 F400.000000
G02 X91.368052 Y255.823689 Z-0.125000 I-0.029340 J-0.093731
G02 X91.299177 Y255.729958 Z-0.125000 I-0.098216 J0.000000
G02 X91.048795 Y255.823689 Z-0.125000 I-0.065001 J0.207651
G01 X91.048795 Y255.823689 Z-0.125000
G00 Z5.000000

(End cutting path id: path4297)


(Start cutting path id: path4297)
(Change tool to Default tool)

G00 Z5.000000
G00 X90.343240 Y256.352856

G01 Z-0.125000 F100.0(Penetrate)
G02 X90.963378 Y257.768234 Z-0.125000 I2.738393 J-0.356264 F400.000000
G02 X91.173194 Y257.755294 Z-0.125000 I0.100142 J-0.083756
G02 X91.231302 Y257.320168 Z-0.125000 I-0.432381 J-0.279185
G02 X90.343240 Y256.352856 Z-0.125000 I-1.485167 J0.472182
G01 X90.343240 Y256.352856 Z-0.125000
G00 Z5.000000

(End cutting path id: path4297)


(Start cutting path id: path4297)
(Change tool to Default tool)

G00 Z5.000000
G00 X89.505393 Y255.205591

G01 Z-0.125000 F100.0(Penetrate)
G02 X89.468109 Y255.773530 Z-0.125000 I0.750409 J0.334456 F400.000000
G02 X89.567775 Y255.788878 Z-0.125000 I0.053455 J-0.015845
G02 X89.742499 Y255.341076 Z-0.125000 I-0.905789 J-0.611409
G02 X89.505393 Y255.205591 Z-0.125000 I-0.144739 J-0.021916
G01 X89.505393 Y255.205591 Z-0.125000
G00 Z5.000000

(End cutting path id: path4297)


(Start cutting path id: path4297)
(Change tool to Default tool)

G00 Z5.000000
G00 X87.873795 Y254.765356

G01 Z-0.125000 F100.0(Penetrate)
G02 X88.159630 Y255.965860 Z-0.125000 I5.898719 J-0.770180 F400.000000
G01 X88.249618 Y255.974900 Z-0.125000
G02 X88.357854 Y255.658109 Z-0.125000 I-0.693895 J-0.413966
G02 X88.438094 Y254.637027 Z-0.125000 I-12.068993 J-1.462115
G02 X88.430149 Y253.607901 Z-0.125000 I-11.689570 J-0.424347
G02 X88.344422 Y253.363319 Z-0.125000 I-0.459657 J0.023797
G01 X88.260768 Y253.374629 Z-0.125000
G02 X87.873795 Y254.765356 Z-0.125000 I8.230028 J3.039225
G01 X87.873795 Y254.765356 Z-0.125000
G00 Z5.000000

(End cutting path id: path4297)


(Start cutting path id: path4297)
(Change tool to Default tool)

G00 Z5.000000
G00 X86.462684 Y254.941745

G01 Z-0.125000 F100.0(Penetrate)
G02 X86.892703 Y255.815652 Z-0.125000 I1.644917 J-0.266652 F400.000000
G02 X87.025234 Y255.780823 Z-0.125000 I0.056823 J-0.053346
G02 X87.009534 Y255.248108 Z-0.125000 I-0.972784 J-0.237919
G02 X86.462684 Y254.941745 Z-0.125000 I-0.434161 J0.133728
G01 X86.462684 Y254.941745 Z-0.125000
G00 Z5.000000

(End cutting path id: path4297)


(Start cutting path id: path4297)
(Change tool to Default tool)

G00 Z5.000000
G00 X86.109906 Y253.883411

G01 Z-0.125000 F100.0(Penetrate)
G02 X86.339754 Y253.997929 Z-0.125000 I0.171654 J-0.056604 F400.000000
G02 X86.421768 Y253.883411 Z-0.125000 I-0.038944 J-0.114517
G02 X86.339754 Y253.768894 Z-0.125000 I-0.120958 J0.000000
G02 X86.109906 Y253.883411 Z-0.125000 I-0.058194 J0.171121
G01 X86.109906 Y253.883411 Z-0.125000
G00 Z5.000000

(End cutting path id: path4297)


(Start cutting path id: path4297)
(Change tool to Default tool)

G00 Z5.000000
G00 X83.640462 Y253.354244

G01 Z-0.125000 F100.0(Penetrate)
G02 X83.890844 Y253.447975 Z-0.125000 I0.185381 J-0.113920 F400.000000
G02 X83.959719 Y253.354244 Z-0.125000 I-0.029340 J-0.093731
G02 X83.890844 Y253.260514 Z-0.125000 I-0.098216 J-0.000000
G02 X83.640462 Y253.354244 Z-0.125000 I-0.065001 J0.207651
G01 X83.640462 Y253.354244 Z-0.125000
G00 Z5.000000

(End cutting path id: path4297)


(Start cutting path id: path4297)
(Change tool to Default tool)

G00 Z5.000000
G00 X82.229351 Y254.059800

G01 Z-0.125000 F100.0(Penetrate)
G03 X82.448412 Y258.150328 Z-0.125000 I-3.479654 J2.237477 F400.000000
G03 X81.804144 Y258.239638 Z-0.125000 I-0.352828 J-0.176767
G02 X83.096669 Y260.564762 Z-0.125000 I8.610650 J-3.264803
G02 X83.497050 Y260.668037 Z-0.125000 I0.265900 J-0.203107
G02 X83.875230 Y260.211827 Z-0.125000 I-0.265546 J-0.604980
G02 X84.099118 Y258.419997 Z-0.125000 I-8.571122 J-1.980857
G02 X83.660021 Y254.571777 Z-0.125000 I-14.374727 J-0.308948
G02 X82.229351 Y254.059800 Z-0.125000 I-0.887615 J0.225430
G01 X82.229351 Y254.059800 Z-0.125000
G00 Z5.000000

(End cutting path id: path4297)


(Start cutting path id: path4297)
(Change tool to Default tool)

G00 Z5.000000
G00 X81.523795 Y255.470911

G01 Z-0.125000 F100.0(Penetrate)
G02 X81.774177 Y255.564642 Z-0.125000 I0.185381 J-0.113920 F400.000000
G02 X81.843052 Y255.470911 Z-0.125000 I-0.029340 J-0.093731
G02 X81.774177 Y255.377181 Z-0.125000 I-0.098216 J0.000000
G02 X81.523795 Y255.470911 Z-0.125000 I-0.065001 J0.207651
G01 X81.523795 Y255.470911 Z-0.125000
G00 Z5.000000

(End cutting path id: path4297)


(Start cutting path id: path4297)
(Change tool to Default tool)

G00 Z5.000000
G00 X81.876573 Y256.137529

G01 Z-0.125000 F100.0(Penetrate)
G02 X82.550077 Y257.068222 Z-0.125000 I1.621521 J-0.464387 F400.000000
G02 X82.738526 Y257.003929 Z-0.125000 I0.070032 J-0.103057
G02 X82.695986 Y256.559717 Z-0.125000 I-0.529739 J-0.173412
G02 X81.876573 Y256.137529 Z-0.125000 I-0.726535 J0.403830
G01 X81.876573 Y256.137529 Z-0.125000
G00 Z5.000000

(End cutting path id: path4297)


(Start cutting path id: path4297)
(Change tool to Default tool)

G00 Z5.000000
G00 X80.465462 Y252.648689

G01 Z-0.125000 F100.0(Penetrate)
G02 X80.715844 Y252.742420 Z-0.125000 I0.185381 J-0.113920 F400.000000
G02 X80.784719 Y252.648689 Z-0.125000 I-0.029340 J-0.093731
G02 X80.715844 Y252.554958 Z-0.125000 I-0.098216 J0.000000
G02 X80.465462 Y252.648689 Z-0.125000 I-0.065001 J0.207651
G01 X80.465462 Y252.648689 Z-0.125000
G00 Z5.000000

(End cutting path id: path4297)


(Start cutting path id: path4297)
(Change tool to Default tool)

G00 Z5.000000
G00 X82.229351 Y252.295922

G01 Z-0.125000 F100.0(Penetrate)
G03 X81.978969 Y252.389653 Z-0.125000 I-0.185381 J-0.113920 F400.000000
G03 X81.910094 Y252.295922 Z-0.125000 I0.029340 J-0.093731
G03 X81.978969 Y252.202192 Z-0.125000 I0.098216 J0.000000
G03 X82.229351 Y252.295922 Z-0.125000 I0.065001 J0.207651
G01 X82.229351 Y252.295922 Z-0.125000
G00 Z5.000000

(End cutting path id: path4297)


(Start cutting path id: path4297)
(Change tool to Default tool)

G00 Z5.000000
G00 X82.229351 Y249.297311

G01 Z-0.125000 F100.0(Penetrate)
G02 X82.727547 Y250.712581 Z-0.125000 I2.799225 J-0.190048 F400.000000
G02 X82.919130 Y250.711438 Z-0.125000 I0.095398 J-0.066555
G02 X82.999997 Y250.278900 Z-0.125000 I-0.453912 J-0.308692
G02 X82.229351 Y249.297311 Z-0.125000 I-1.433221 J0.331912
G01 X82.229351 Y249.297311 Z-0.125000
G00 Z5.000000

(End cutting path id: path4297)


(Start cutting path id: path4297)
(Change tool to Default tool)

G00 Z5.000000
G00 X81.876573 Y248.415367

G01 Z-0.125000 F100.0(Penetrate)
G02 X82.126955 Y248.509097 Z-0.125000 I0.185381 J-0.113920 F400.000000
G02 X82.195830 Y248.415367 Z-0.125000 I-0.029340 J-0.093731
G02 X82.126955 Y248.321636 Z-0.125000 I-0.098216 J0.000000
G02 X81.876573 Y248.415367 Z-0.125000 I-0.065001 J0.207651
G01 X81.876573 Y248.415367 Z-0.125000
G00 Z5.000000

(End cutting path id: path4297)


(Start cutting path id: path4297)
(Change tool to Default tool)

G00 Z5.000000
G00 X81.171018 Y246.399493

G01 Z-0.125000 F100.0(Penetrate)
G02 X81.678545 Y247.182140 Z-0.125000 I1.758177 J-0.584252 F400.000000
G02 X81.778542 Y247.132664 Z-0.125000 I0.040394 J-0.044149
G02 X81.590410 Y246.425454 Z-0.125000 I-2.143515 J0.191590
G02 X81.171018 Y246.399493 Z-0.125000 I-0.216664 J0.099591
G01 X81.171018 Y246.399493 Z-0.125000
G00 Z5.000000

(End cutting path id: path4297)


(Start cutting path id: path4297)
(Change tool to Default tool)

G00 Z5.000000
G00 X79.759906 Y245.593145

G01 Z-0.125000 F100.0(Penetrate)
G02 X80.010288 Y245.686875 Z-0.125000 I0.185381 J-0.113920 F400.000000
G02 X80.079163 Y245.593145 Z-0.125000 I-0.029340 J-0.093731
G02 X80.010288 Y245.499414 Z-0.125000 I-0.098216 J0.000000
G02 X79.759906 Y245.593145 Z-0.125000 I-0.065001 J0.207651
G01 X79.759906 Y245.593145 Z-0.125000
G00 Z5.000000

(End cutting path id: path4297)


(Start cutting path id: path4297)
(Change tool to Default tool)

G00 Z5.000000
G00 X79.054351 Y246.298700

G01 Z-0.125000 F100.0(Penetrate)
G02 X80.246979 Y247.783327 Z-0.125000 I5.131558 J-2.900930 F400.000000
G02 X80.472982 Y247.851575 Z-0.125000 I0.185762 J-0.206825
G02 X80.513486 Y247.750680 Z-0.125000 I-0.009104 J-0.062232
G02 X79.054351 Y246.298700 Z-0.125000 I-6.469037 J5.041764
G01 X79.054351 Y246.298700 Z-0.125000
G00 Z5.000000

(End cutting path id: path4297)


(Start cutting path id: path4297)
(Change tool to Default tool)

G00 Z5.000000
G00 X78.701573 Y248.062589

G01 Z-0.125000 F100.0(Penetrate)
G02 X78.919059 Y248.184452 Z-0.125000 I0.162800 J-0.035543 F400.000000
G02 X79.005730 Y248.062589 Z-0.125000 I-0.042338 J-0.121863
G02 X78.919059 Y247.940726 Z-0.125000 I-0.129008 J0.000000
G02 X78.701573 Y248.062589 Z-0.125000 I-0.054686 J0.157406
G01 X78.701573 Y248.062589 Z-0.125000
G00 Z5.000000

(End cutting path id: path4297)


(Start cutting path id: path4297)
(Change tool to Default tool)

G00 Z5.000000
G00 X77.996018 Y248.062589

G01 Z-0.125000 F100.0(Penetrate)
G02 X78.246399 Y248.156320 Z-0.125000 I0.185381 J-0.113920 F400.000000
G02 X78.315274 Y248.062589 Z-0.125000 I-0.029340 J-0.093731
G02 X78.246399 Y247.968858 Z-0.125000 I-0.098216 J0.000000
G02 X77.996018 Y248.062589 Z-0.125000 I-0.065001 J0.207651
G01 X77.996018 Y248.062589 Z-0.125000
G00 Z5.000000

(End cutting path id: path4297)


(Start cutting path id: path4297)
(Change tool to Default tool)

G00 Z5.000000
G00 X77.996018 Y248.768145

G01 Z-0.125000 F100.0(Penetrate)
G02 X78.246399 Y248.861875 Z-0.125000 I0.185381 J-0.113920 F400.000000
G02 X78.315274 Y248.768145 Z-0.125000 I-0.029340 J-0.093731
G02 X78.246399 Y248.674414 Z-0.125000 I-0.098216 J0.000000
G02 X77.996018 Y248.768145 Z-0.125000 I-0.065001 J0.207651
G01 X77.996018 Y248.768145 Z-0.125000
G00 Z5.000000

(End cutting path id: path4297)


(Start cutting path id: path4297)
(Change tool to Default tool)

G00 Z5.000000
G00 X77.290462 Y249.120922

G01 Z-0.125000 F100.0(Penetrate)
G02 X78.122408 Y250.872339 Z-0.125000 I3.934896 J-0.795827 F400.000000
G02 X78.357092 Y250.887615 Z-0.125000 I0.124491 J-0.102196
G02 X78.425620 Y250.579110 Z-0.125000 I-0.191796 J-0.204467
G02 X77.290462 Y249.120922 Z-0.125000 I-3.090964 J1.235290
G01 X77.290462 Y249.120922 Z-0.125000
G00 Z5.000000

(End cutting path id: path4297)


(Start cutting path id: path4297)
(Change tool to Default tool)

G00 Z5.000000
G00 X76.937684 Y247.533422

G01 Z-0.125000 F100.0(Penetrate)
G02 X77.167531 Y247.647940 Z-0.125000 I0.171654 J-0.056604 F400.000000
G02 X77.249545 Y247.533422 Z-0.125000 I-0.038944 J-0.114517
G02 X77.167531 Y247.418905 Z-0.125000 I-0.120958 J0.000000
G02 X76.937684 Y247.533422 Z-0.125000 I-0.058194 J0.171121
G01 X76.937684 Y247.533422 Z-0.125000
G00 Z5.000000

(End cutting path id: path4297)


(Start cutting path id: path4297)
(Change tool to Default tool)

G00 Z5.000000
G00 X76.434821 Y246.757986

G01 Z-0.125000 F100.0(Penetrate)
G02 X76.560357 Y246.923593 Z-0.125000 I0.119448 J0.039838 F400.000000
G02 X76.708963 Y246.838632 Z-0.125000 I-0.009120 J-0.188396
G02 X76.688018 Y246.735543 Z-0.125000 I-0.062485 J-0.040977
G02 X76.434821 Y246.757986 Z-0.125000 I-0.112662 J0.168456
G01 X76.434821 Y246.757986 Z-0.125000
G00 Z5.000000

(End cutting path id: path4297)


(Start cutting path id: path4297)
(Change tool to Default tool)

G00 Z5.000000
G00 X75.173795 Y247.533422

G01 Z-0.125000 F100.0(Penetrate)
G02 X75.572818 Y247.788060 Z-0.125000 I0.416742 J-0.213086 F400.000000
G02 X75.672663 Y247.687885 Z-0.125000 I0.003645 J-0.096212
G02 X75.550058 Y247.459818 Z-0.125000 I-0.296114 J0.012197
G02 X75.173795 Y247.533422 Z-0.125000 I-0.153697 J0.212830
G01 X75.173795 Y247.533422 Z-0.125000
G00 Z5.000000

(End cutting path id: path4297)


(Start cutting path id: path4297)
(Change tool to Default tool)

G00 Z5.000000
G00 X75.173795 Y248.768145

G01 Z-0.125000 F100.0(Penetrate)
G02 X75.424177 Y248.861875 Z-0.125000 I0.185381 J-0.113920 F400.000000
G02 X75.493052 Y248.768145 Z-0.125000 I-0.029340 J-0.093731
G02 X75.424177 Y248.674414 Z-0.125000 I-0.098216 J0.000000
G02 X75.173795 Y248.768145 Z-0.125000 I-0.065001 J0.207651
G01 X75.173795 Y248.768145 Z-0.125000
G00 Z5.000000

(End cutting path id: path4297)


(Start cutting path id: path4297)
(Change tool to Default tool)

G00 Z5.000000
G00 X74.468240 Y249.826467

G01 Z-0.125000 F100.0(Penetrate)
G02 X74.718621 Y249.920197 Z-0.125000 I0.185381 J-0.113920 F400.000000
G02 X74.787497 Y249.826467 Z-0.125000 I-0.029340 J-0.093731
G02 X74.718621 Y249.732736 Z-0.125000 I-0.098216 J0.000000
G02 X74.468240 Y249.826467 Z-0.125000 I-0.065001 J0.207651
G01 X74.468240 Y249.826467 Z-0.125000
G00 Z5.000000

(End cutting path id: path4297)


(Start cutting path id: path4297)
(Change tool to Default tool)

G00 Z5.000000
G00 X75.173795 Y250.355633

G01 Z-0.125000 F100.0(Penetrate)
G02 X75.574719 Y250.612477 Z-0.125000 I0.332389 J-0.077511 F400.000000
G02 X75.722270 Y250.422611 Z-0.125000 I-0.037125 J-0.181117
G02 X75.549681 Y250.158765 Z-0.125000 I-0.310456 J0.014708
G02 X75.173795 Y250.355633 Z-0.125000 I-0.116362 J0.235105
G01 X75.173795 Y250.355633 Z-0.125000
G00 Z5.000000

(End cutting path id: path4297)


(Start cutting path id: path4297)
(Change tool to Default tool)

G00 Z5.000000
G00 X73.983170 Y250.619480

G01 Z-0.125000 F100.0(Penetrate)
G02 X74.109387 Y250.918971 Z-0.125000 I0.215309 J0.085602 F400.000000
G02 X74.279660 Y250.879845 Z-0.125000 I0.057766 J-0.138681
G02 X74.296955 Y250.707117 Z-0.125000 I-0.111157 J-0.098360
G02 X73.983170 Y250.619480 Z-0.125000 I-0.201753 J0.116806
G01 X73.983170 Y250.619480 Z-0.125000
G00 Z5.000000

(End cutting path id: path4297)


(Start cutting path id: path4297)
(Change tool to Default tool)

G00 Z5.000000
G00 X73.057129 Y250.884800

G01 Z-0.125000 F100.0(Penetrate)
G02 X73.307510 Y250.978531 Z-0.125000 I0.185381 J-0.113920 F400.000000
G02 X73.376385 Y250.884800 Z-0.125000 I-0.029340 J-0.093731
G02 X73.307510 Y250.791069 Z-0.125000 I-0.098216 J0.000000
G02 X73.057129 Y250.884800 Z-0.125000 I-0.065001 J0.207651
G01 X73.057129 Y250.884800 Z-0.125000
G00 Z5.000000

(End cutting path id: path4297)


(Start cutting path id: path4297)
(Change tool to Default tool)

G00 Z5.000000
G00 X73.409906 Y251.943133

G01 Z-0.125000 F100.0(Penetrate)
G02 X73.660288 Y252.036864 Z-0.125000 I0.185381 J-0.113920 F400.000000
G02 X73.729163 Y251.943133 Z-0.125000 I-0.029340 J-0.093731
G02 X73.660288 Y251.849403 Z-0.125000 I-0.098216 J0.000000
G02 X73.409906 Y251.943133 Z-0.125000 I-0.065001 J0.207651
G01 X73.409906 Y251.943133 Z-0.125000
G00 Z5.000000

(End cutting path id: path4297)


(Start cutting path id: path4297)
(Change tool to Default tool)

G00 Z5.000000
G00 X74.115462 Y252.295911

G01 Z-0.125000 F100.0(Penetrate)
G02 X74.332948 Y252.417774 Z-0.125000 I0.162800 J-0.035543 F400.000000
G02 X74.419618 Y252.295911 Z-0.125000 I-0.042338 J-0.121863
G02 X74.332948 Y252.174048 Z-0.125000 I-0.129008 J0.000000
G02 X74.115462 Y252.295911 Z-0.125000 I-0.054686 J0.157406
G01 X74.115462 Y252.295911 Z-0.125000
G00 Z5.000000

(End cutting path id: path4297)


(Start cutting path id: path4297)
(Change tool to Default tool)

G00 Z5.000000
G00 X75.173795 Y251.943133

G01 Z-0.125000 F100.0(Penetrate)
G02 X75.952414 Y252.444763 Z-0.125000 I0.924627 J-0.580094 F400.000000
G02 X76.143202 Y252.315454 Z-0.125000 I0.023120 J-0.171290
G02 X76.046005 Y252.050712 Z-0.125000 I-0.243253 J-0.060906
G02 X75.173795 Y251.943133 Z-0.125000 I-0.534796 J0.746365
G01 X75.173795 Y251.943133 Z-0.125000
G00 Z5.000000

(End cutting path id: path4297)


(Start cutting path id: path4297)
(Change tool to Default tool)

G00 Z5.000000
G00 X76.584906 Y251.413967

G01 Z-0.125000 F100.0(Penetrate)
G02 X77.163534 Y253.261522 Z-0.125000 I6.182162 J-0.921776 F400.000000
G02 X79.188654 Y256.971872 Z-0.125000 I46.670927 J-23.065307
G02 X80.132839 Y258.400162 Z-0.125000 I16.734390 J-10.036201
G02 X80.394532 Y258.580079 Z-0.125000 I0.384748 J-0.279347
G02 X80.496298 Y258.487061 Z-0.125000 I0.021171 J-0.079015
G02 X80.002386 Y256.587617 Z-0.125000 I-11.751891 J2.041900
G03 X78.007827 Y253.383892 Z-0.125000 I1.301648 J-3.033118
G02 X76.584906 Y251.413967 Z-0.125000 I-1.936319 J-0.100221
G01 X76.584906 Y251.413967 Z-0.125000
G00 Z5.000000

(End cutting path id: path4297)


(Start cutting path id: path4297)
(Change tool to Default tool)

G00 Z5.000000
G00 X77.996018 Y251.943133

G01 Z-0.125000 F100.0(Penetrate)
G02 X78.246399 Y252.036864 Z-0.125000 I0.185381 J-0.113920 F400.000000
G02 X78.315274 Y251.943133 Z-0.125000 I-0.029340 J-0.093731
G02 X78.246399 Y251.849403 Z-0.125000 I-0.098216 J0.000000
G02 X77.996018 Y251.943133 Z-0.125000 I-0.065001 J0.207651
G01 X77.996018 Y251.943133 Z-0.125000
G00 Z5.000000

(End cutting path id: path4297)


(Start cutting path id: path4297)
(Change tool to Default tool)

G00 Z5.000000
G00 X78.701573 Y251.943133

G01 Z-0.125000 F100.0(Penetrate)
G02 X80.611636 Y254.471236 Z-0.125000 I9.607202 J-5.272940 F400.000000
G02 X80.787307 Y254.392780 Z-0.125000 I0.072527 J-0.073506
G02 X80.542292 Y253.601591 Z-0.125000 I-1.656689 J0.079510
G02 X78.701573 Y251.943133 Z-0.125000 I-3.753166 J2.314897
G01 X78.701573 Y251.943133 Z-0.125000
G00 Z5.000000

(End cutting path id: path4297)


(Start cutting path id: path4297)
(Change tool to Default tool)

G00 Z5.000000
G00 X78.348795 Y252.962529

G01 Z-0.125000 F100.0(Penetrate)
G02 X79.527914 Y254.904735 Z-0.125000 I11.616628 J-5.723460 F400.000000
G02 X80.242398 Y255.733901 Z-0.125000 I5.676864 J-4.169285
G02 X80.327918 Y255.676171 Z-0.125000 I0.037052 J-0.037321
G02 X79.407129 Y253.963588 Z-0.125000 I-9.467120 J3.986274
G03 X79.011405 Y253.380147 Z-0.125000 I0.114531 J-0.503603
G02 X78.348795 Y252.962529 Z-0.125000 I-0.421357 J-0.065929
G01 X78.348795 Y252.962529 Z-0.125000
G00 Z5.000000

(End cutting path id: path4297)


(Start cutting path id: path4297)
(Change tool to Default tool)

G00 Z5.000000
G00 X79.054351 Y250.884800

G01 Z-0.125000 F100.0(Penetrate)
G02 X79.304733 Y250.978531 Z-0.125000 I0.185381 J-0.113920 F400.000000
G02 X79.373608 Y250.884800 Z-0.125000 I-0.029340 J-0.093731
G02 X79.304733 Y250.791069 Z-0.125000 I-0.098216 J0.000000
G02 X79.054351 Y250.884800 Z-0.125000 I-0.065001 J0.207651
G01 X79.054351 Y250.884800 Z-0.125000
G00 Z5.000000

(End cutting path id: path4297)


(Start cutting path id: path4297)
(Change tool to Default tool)

G00 Z5.000000
G00 X79.759906 Y249.473700

G01 Z-0.125000 F100.0(Penetrate)
G02 X81.644207 Y252.054839 Z-0.125000 I2.362333 J0.253798 F400.000000
G01 X81.641363 Y252.069024 Z-0.125000
G03 X81.216613 Y251.880565 Z-0.125000 I-0.119888 J-0.302678
G03 X80.712968 Y250.494586 Z-0.125000 I69.610745 J-26.080049
G02 X80.226622 Y249.490320 Z-0.125000 I-4.693228 J1.652940
G02 X79.759906 Y249.473700 Z-0.125000 I-0.239030 J0.150979
G01 X79.759906 Y249.473700 Z-0.125000
G00 Z5.000000

(End cutting path id: path4297)


(Start cutting path id: path4297)
(Change tool to Default tool)

G00 Z5.000000
G00 X84.698795 Y249.120922

G01 Z-0.125000 F100.0(Penetrate)
G02 X85.129805 Y250.029976 Z-0.125000 I1.332615 J-0.075129 F400.000000
G02 X85.324887 Y249.994390 Z-0.125000 I0.084051 J-0.091749
G02 X85.358547 Y249.532501 Z-0.125000 I-0.536245 J-0.271250
G02 X84.698795 Y249.120922 Z-0.125000 I-0.579103 J0.193716
G01 X84.698795 Y249.120922 Z-0.125000
G00 Z5.000000

(End cutting path id: path4297)


(Start cutting path id: path4297)
(Change tool to Default tool)

G00 Z5.000000
G00 X85.051573 Y248.238978

G01 Z-0.125000 F100.0(Penetrate)
G02 X85.281420 Y248.353495 Z-0.125000 I0.171654 J-0.056604 F400.000000
G02 X85.363434 Y248.238978 Z-0.125000 I-0.038944 J-0.114517
G02 X85.281420 Y248.124461 Z-0.125000 I-0.120958 J0.000000
G02 X85.051573 Y248.238978 Z-0.125000 I-0.058194 J0.171121
G01 X85.051573 Y248.238978 Z-0.125000
G00 Z5.000000

(End cutting path id: path4297)


(Start cutting path id: path4297)
(Change tool to Default tool)

G00 Z5.000000
G00 X84.698795 Y247.357034

G01 Z-0.125000 F100.0(Penetrate)
G02 X84.949177 Y247.450764 Z-0.125000 I0.185381 J-0.113920 F400.000000
G02 X85.018052 Y247.357034 Z-0.125000 I-0.029340 J-0.093731
G02 X84.949177 Y247.263303 Z-0.125000 I-0.098216 J0.000000
G02 X84.698795 Y247.357034 Z-0.125000 I-0.065001 J0.207651
G01 X84.698795 Y247.357034 Z-0.125000
G00 Z5.000000

(End cutting path id: path4297)


(Start cutting path id: path4297)
(Change tool to Default tool)

G00 Z5.000000
G00 X85.404351 Y246.298700

G01 Z-0.125000 F100.0(Penetrate)
G02 X86.055669 Y247.479311 Z-0.125000 I2.152584 J-0.417570 F400.000000
G02 X86.334810 Y247.548608 Z-0.125000 I0.201396 J-0.214397
G02 X86.400362 Y247.394431 Z-0.125000 I-0.028234 J-0.103028
G02 X85.404351 Y246.298700 Z-0.125000 I-2.751651 J1.500681
G01 X85.404351 Y246.298700 Z-0.125000
G00 Z5.000000

(End cutting path id: path4297)


(Start cutting path id: path4297)
(Change tool to Default tool)

G00 Z5.000000
G00 X87.168240 Y247.533422

G01 Z-0.125000 F100.0(Penetrate)
G02 X87.398087 Y247.647940 Z-0.125000 I0.171654 J-0.056604 F400.000000
G02 X87.480101 Y247.533422 Z-0.125000 I-0.038944 J-0.114517
G02 X87.398087 Y247.418905 Z-0.125000 I-0.120958 J0.000000
G02 X87.168240 Y247.533422 Z-0.125000 I-0.058194 J0.171121
G01 X87.168240 Y247.533422 Z-0.125000
G00 Z5.000000

(End cutting path id: path4297)


(Start cutting path id: path4297)
(Change tool to Default tool)

G00 Z5.000000
G00 X86.815462 Y248.415367

G01 Z-0.125000 F100.0(Penetrate)
G03 X87.888818 Y250.132027 Z-0.125000 I-10.835339 J7.968781 F400.000000
G02 X89.013732 Y252.095794 Z-0.125000 I27.264962 J-14.314233
G02 X89.333468 Y252.117533 Z-0.125000 I0.167707 J-0.104435
G02 X89.544884 Y251.248697 Z-0.125000 I-0.784419 J-0.651014
G03 X88.398600 Y249.576780 Z-0.125000 I4.549004 J-4.347755
G02 X86.815462 Y248.415367 Z-0.125000 I-1.857990 J0.872946
G01 X86.815462 Y248.415367 Z-0.125000
G00 Z5.000000

(End cutting path id: path4297)


(Start cutting path id: path4297)
(Change tool to Default tool)

G00 Z5.000000
G00 X85.757129 Y249.297311

G01 Z-0.125000 F100.0(Penetrate)
G02 X86.187147 Y250.171219 Z-0.125000 I1.644917 J-0.266652 F400.000000
G02 X86.319678 Y250.136390 Z-0.125000 I0.056823 J-0.053346
G02 X86.303978 Y249.603675 Z-0.125000 I-0.972784 J-0.237919
G02 X85.757129 Y249.297311 Z-0.125000 I-0.434161 J0.133728
G01 X85.757129 Y249.297311 Z-0.125000
G00 Z5.000000

(End cutting path id: path4297)


(Start cutting path id: path4297)
(Change tool to Default tool)

G00 Z5.000000
G00 X85.404351 Y250.884800

G01 Z-0.125000 F100.0(Penetrate)
G02 X86.813117 Y253.249792 Z-0.125000 I6.370768 J-2.192828 F400.000000
G02 X87.077162 Y253.231263 Z-0.125000 I0.124638 J-0.114486
G02 X87.105513 Y252.804415 Z-0.125000 I-0.344691 J-0.237259
G02 X85.404351 Y250.884800 Z-0.125000 I-4.533565 J2.304051
G01 X85.404351 Y250.884800 Z-0.125000
G00 Z5.000000

(End cutting path id: path4297)


(Start cutting path id: path4297)
(Change tool to Default tool)

G00 Z5.000000
G00 X87.168240 Y250.884800

G01 Z-0.125000 F100.0(Penetrate)
G02 X87.703427 Y251.016661 Z-0.125000 I0.389457 J-0.428676 F400.000000
G02 X87.805390 Y250.884800 Z-0.125000 I-0.034282 J-0.131861
G02 X87.703427 Y250.752939 Z-0.125000 I-0.136245 J0.000000
G02 X87.168240 Y250.884800 Z-0.125000 I-0.145731 J0.560538
G01 X87.168240 Y250.884800 Z-0.125000
G00 Z5.000000

(End cutting path id: path4297)


(Start cutting path id: path4297)
(Change tool to Default tool)

G00 Z5.000000
G00 X88.226573 Y248.729206

G01 Z-0.125000 F100.0(Penetrate)
G02 X89.364790 Y250.187214 Z-0.125000 I4.214087 J-2.116506 F400.000000
G02 X89.683218 Y250.310273 Z-0.125000 I0.332175 J-0.386025
G02 X89.734750 Y250.208034 Z-0.125000 I0.001708 J-0.063246
G02 X88.226573 Y248.729206 Z-0.125000 I-6.358346 J4.976066
G01 X88.226573 Y248.729206 Z-0.125000
G00 Z5.000000

(End cutting path id: path4297)


(Start cutting path id: path4297)
(Change tool to Default tool)

G00 Z5.000000
G00 X88.932129 Y248.415367

G01 Z-0.125000 F100.0(Penetrate)
G02 X89.182510 Y248.509097 Z-0.125000 I0.185381 J-0.113920 F400.000000
G02 X89.251386 Y248.415367 Z-0.125000 I-0.029340 J-0.093731
G02 X89.182510 Y248.321636 Z-0.125000 I-0.098216 J0.000000
G02 X88.932129 Y248.415367 Z-0.125000 I-0.065001 J0.207651
G01 X88.932129 Y248.415367 Z-0.125000
G00 Z5.000000

(End cutting path id: path4297)


(Start cutting path id: path4297)
(Change tool to Default tool)

G00 Z5.000000
G00 X88.076487 Y247.816319

G01 Z-0.125000 F100.0(Penetrate)
G02 X88.202024 Y247.981926 Z-0.125000 I0.119448 J0.039838 F400.000000
G02 X88.350630 Y247.896965 Z-0.125000 I-0.009120 J-0.188396
G02 X88.329685 Y247.793876 Z-0.125000 I-0.062485 J-0.040977
G02 X88.076487 Y247.816319 Z-0.125000 I-0.112662 J0.168456
G01 X88.076487 Y247.816319 Z-0.125000
G00 Z5.000000

(End cutting path id: path4297)


(Start cutting path id: path4297)
(Change tool to Default tool)

G00 Z5.000000
G00 X89.637684 Y249.258373

G01 Z-0.125000 F100.0(Penetrate)
G03 X90.595940 Y250.918125 Z-0.125000 I-1.830392 J2.163274 F400.000000
G03 X90.946000 Y253.068497 Z-0.125000 I-62.105748 J11.213901
G02 X91.158269 Y253.158781 Z-0.125000 I0.133580 J-0.019385
G02 X91.568389 Y252.509116 Z-0.125000 I-0.595836 J-0.830421
G02 X92.716150 Y254.482799 Z-0.125000 I22.884518 J-11.987525
G02 X92.816201 Y254.525024 Z-0.125000 I0.080852 J-0.051930
G02 X92.870140 Y254.433853 Z-0.125000 I-0.014270 J-0.069983
G02 X92.395134 Y253.147113 Z-0.125000 I-12.492886 J3.880760
G02 X90.892276 Y250.046870 Z-0.125000 I-34.952934 J15.029214
G02 X89.637684 Y249.258373 Z-0.125000 I-1.327143 J0.719292
G01 X89.637684 Y249.258373 Z-0.125000
G00 Z5.000000

(End cutting path id: path4297)


(Start cutting path id: path4297)
(Change tool to Default tool)

G00 Z5.000000
G00 X90.696018 Y249.120922

G01 Z-0.125000 F100.0(Penetrate)
G02 X90.946399 Y249.214653 Z-0.125000 I0.185381 J-0.113920 F400.000000
G02 X91.015274 Y249.120922 Z-0.125000 I-0.029340 J-0.093731
G02 X90.946399 Y249.027192 Z-0.125000 I-0.098216 J0.000000
G02 X90.696018 Y249.120922 Z-0.125000 I-0.065001 J0.207651
G01 X90.696018 Y249.120922 Z-0.125000
G00 Z5.000000

(End cutting path id: path4297)


(Start cutting path id: path4297)
(Change tool to Default tool)

G00 Z5.000000
G00 X91.754351 Y249.473689

G01 Z-0.125000 F100.0(Penetrate)
G02 X92.213208 Y250.168322 Z-0.125000 I1.056936 J-0.199314 F400.000000
G02 X92.389373 Y250.134368 Z-0.125000 I0.070923 J-0.106008
G02 X92.400238 Y249.883307 Z-0.125000 I-0.196088 J-0.134252
G02 X91.754351 Y249.473689 Z-0.125000 I-0.705297 J0.398089
G01 X91.754351 Y249.473689 Z-0.125000
G00 Z5.000000

(End cutting path id: path4297)


(Start cutting path id: path4297)
(Change tool to Default tool)

G00 Z5.000000
G00 X92.812684 Y248.591756

G01 Z-0.125000 F100.0(Penetrate)
G02 X93.042531 Y248.706273 Z-0.125000 I0.171654 J-0.056604 F400.000000
G02 X93.124545 Y248.591756 Z-0.125000 I-0.038944 J-0.114517
G02 X93.042531 Y248.477238 Z-0.125000 I-0.120958 J0.000000
G02 X92.812684 Y248.591756 Z-0.125000 I-0.058194 J0.171121
G01 X92.812684 Y248.591756 Z-0.125000
G00 Z5.000000

(End cutting path id: path4297)


(Start cutting path id: path4297)
(Change tool to Default tool)

G00 Z5.000000
G00 X93.165462 Y249.473689

G01 Z-0.125000 F100.0(Penetrate)
G02 X93.415844 Y249.567420 Z-0.125000 I0.185381 J-0.113920 F400.000000
