%
(Header)
(Generated by gcodetools from Inkscape.)
(Using default header. To add your own header create file "header" in the output dir.)
M3
(Header end.)
G21 (All units in mm)

(Start cutting path id: path4739)
(Change tool to Default tool)

G00 Z5.000000
G00 X129.806218 Y177.910518

G01 Z-0.125000 F100.0(Penetrate)
G02 X130.521424 Y177.533276 Z-0.125000 I-0.839166 J-2.457556 F400.000000
G02 X131.085929 Y176.954343 Z-0.125000 I-1.554390 J-2.080338
G02 X131.390792 Y176.385310 Z-0.125000 I-2.118930 J-1.501410
G02 X131.545878 Y175.758661 Z-0.125000 I-2.423723 J-0.932351
G01 X131.545878 Y174.216356 Z-0.125000
G01 X130.710464 Y172.674048 Z-0.125000
G01 X129.489472 Y171.710107 Z-0.125000
G01 X127.882902 Y171.196005 Z-0.125000
G00 Z5.000000

(End cutting path id: path4739)


(Start cutting path id: path4735)
(Change tool to Default tool)

G00 Z5.000000
G00 X125.955019 Y171.388794

G01 Z-0.125000 F100.0(Penetrate)
G01 X124.091399 Y172.738313 Z-0.125000 F400.000000
G01 X122.998931 Y174.601931 Z-0.125000
G01 X122.998931 Y176.272765 Z-0.125000
G01 X123.834348 Y178.072121 Z-0.125000
G00 Z5.000000

(End cutting path id: path4735)


(Start cutting path id: path4729)
(Change tool to Default tool)

G00 Z5.000000
G00 X115.737240 Y174.537669

G01 Z-0.125000 F100.0(Penetrate)
G02 X116.791418 Y175.285525 Z-0.125000 I45.403742 J-62.884170 F400.000000
G02 X117.857911 Y176.015712 Z-0.125000 I44.350359 J-63.633168
G02 X119.198456 Y176.897219 Z-0.125000 I43.280803 J-64.358855
G02 X120.556946 Y177.750808 Z-0.125000 I41.943564 J-65.245506
G01 X123.898610 Y178.586223 Z-0.125000
G01 X126.726172 Y178.650488 Z-0.125000
G01 X129.939311 Y178.393434 Z-0.125000
G01 X132.381296 Y177.172442 Z-0.125000
G01 X134.630491 Y175.373086 Z-0.125000
G01 X136.943951 Y173.895043 Z-0.125000
G01 X135.530170 Y172.802575 Z-0.125000
G01 X130.903253 Y171.067481 Z-0.125000
G01 X126.918961 Y170.617642 Z-0.125000
G01 X122.034989 Y171.710107 Z-0.125000
G01 X118.564802 Y172.866837 Z-0.125000
G01 X115.737240 Y174.537669 Z-0.125000
G01 X115.737240 Y174.537669 Z-0.125000
G00 Z5.000000

(End cutting path id: path4729)


(Start cutting path id: path4705)
(Change tool to Default tool)

G00 Z5.000000
G00 X112.692779 Y168.675645

G01 Z-0.125000 F100.0(Penetrate)
G02 X113.560893 Y168.240436 Z-0.125000 I0.170089 J-0.744143 F400.000000
G02 X115.297323 Y162.994890 Z-0.125000 I-26.087438 J-11.545887
G01 X115.297323 Y162.994890 Z-0.125000
G02 X115.580906 Y162.731354 Z-0.125000 I-29.149738 J-31.651488
G02 X115.868332 Y162.459463 Z-0.125000 I-31.054662 J-33.116965
G02 X117.343073 Y160.988294 Z-0.125000 I-32.397005 J-33.950392
G02 X118.433935 Y159.802186 Z-0.125000 I-27.933408 J-26.785020
G02 X117.584076 Y156.107704 Z-0.125000 I-17.143766 J1.998671
G02 X117.055079 Y155.770503 Z-0.125000 I-0.478555 J0.167209
G02 X116.540233 Y156.247882 Z-0.125000 I0.057874 J0.578734
G02 X116.403273 Y159.009322 Z-0.125000 I10.866648 J1.923071
G02 X115.065974 Y159.976719 Z-0.125000 I26.392417 J37.892065
G02 X113.550311 Y161.168548 Z-0.125000 I26.046300 J34.683043
G02 X113.267703 Y161.403315 Z-0.125000 I25.324759 J30.772914
G02 X112.996433 Y161.633021 Z-0.125000 I23.695393 J28.258016
G01 X112.996433 Y161.633021 Z-0.125000
G02 X112.131766 Y167.937647 Z-0.125000 I34.427389 J7.933254
G02 X112.692779 Y168.675645 Z-0.125000 I0.722081 J0.033322
G01 X112.692779 Y168.675645 Z-0.125000
G00 Z5.000000

(End cutting path id: path4705)


(Start cutting path id: path4699)
(Change tool to Default tool)

G00 Z5.000000
G00 X99.242350 Y172.856183

G01 Z-0.125000 F100.0(Penetrate)
G02 X99.656758 Y171.947606 Z-0.125000 I-0.335696 J-0.701909 F400.000000
G02 X97.132945 Y165.211697 Z-0.125000 I-38.732450 J10.671526
G02 X96.763085 Y164.460673 Z-0.125000 I-39.808555 J19.138091
G02 X96.403214 Y163.763601 Z-0.125000 I-36.921334 J18.619599
G01 X96.403214 Y163.763601 Z-0.125000
G02 X92.275139 Y159.769808 Z-0.125000 I-24.645028 J21.343332
G02 X91.426561 Y159.769279 Z-0.125000 I-0.424616 J0.524374
G02 X91.242081 Y160.614264 Z-0.125000 I0.434047 J0.537394
G02 X94.083935 Y165.226604 Z-0.125000 I26.771676 J-13.313479
G01 X94.083935 Y165.226607 Z-0.125000
G02 X94.392068 Y165.926363 Z-0.125000 I36.344166 J-15.586221
G02 X94.731982 Y166.659320 Z-0.125000 I37.669698 J-17.024289
G02 X98.262195 Y172.607256 Z-0.125000 I34.128759 J-16.234472
G02 X99.242350 Y172.856183 Z-0.125000 I0.639411 J-0.463541
G01 X99.242350 Y172.856183 Z-0.125000
G00 Z5.000000

(End cutting path id: path4699)


(Start cutting path id: path4717)
(Change tool to Default tool)

G00 Z5.000000
G00 X88.650485 Y174.184225

G01 Z-0.125000 F100.0(Penetrate)
G01 X89.582295 Y175.180297 Z-0.125000 F400.000000
G01 X89.839346 Y176.176369 Z-0.125000
G01 X89.871477 Y177.558019 Z-0.125000
G01 X89.775081 Y178.232779 Z-0.125000
G00 Z5.000000

(End cutting path id: path4717)


(Start cutting path id: path4713)
(Change tool to Default tool)

G00 Z5.000000
G00 X82.057091 Y180.014651

G01 Z-0.125000 F100.0(Penetrate)
G01 X80.838757 Y178.884032 Z-0.125000 F400.000000
G01 X80.456981 Y177.558019 Z-0.125000
G01 X80.617639 Y175.951450 Z-0.125000
G01 X81.324529 Y174.666196 Z-0.125000
G01 X82.513391 Y173.541596 Z-0.125000
G00 Z5.000000

(End cutting path id: path4713)


(Start cutting path id: path4199)
(Change tool to Default tool)

G00 Z5.000000
G00 X93.062423 Y187.760711

G01 Z-0.125000 F100.0(Penetrate)
G02 X92.309943 Y187.414790 Z-0.125000 I-0.573778 J0.256742 F400.000000
G03 X83.068567 Y189.069206 Z-0.125000 I-12.034666 J-40.586393
G01 X83.068567 Y189.069206 Z-0.125000
G03 X80.728389 Y189.171955 Z-0.125000 I-2.845666 J-38.111092
G03 X78.109025 Y189.113002 Z-0.125000 I-0.485049 J-36.668708
G03 X75.204471 Y188.826906 Z-0.125000 I2.126375 J-36.474879
G03 X72.667033 Y188.385416 Z-0.125000 I5.196118 J-37.377033
G02 X64.582151 Y184.323762 Z-0.125000 I-47.464095 J84.401674
G02 X63.883075 Y184.542221 Z-0.125000 I-0.225423 J0.506402
G02 X64.010032 Y185.251971 Z-0.125000 I0.465474 J0.282968
G02 X71.667560 Y190.771255 Z-0.125000 I63.721638 J-80.336528
G02 X74.458867 Y191.434347 Z-0.125000 I7.936042 J-27.200400
G02 X77.742080 Y191.852197 Z-0.125000 I5.368746 J-29.076721
G02 X80.711000 Y191.912250 Z-0.125000 I2.080109 J-29.418000
G02 X83.334584 Y191.710411 Z-0.125000 I-0.850495 J-28.207272
G01 X83.334587 Y191.710411 Z-0.125000
G02 X92.881132 Y188.342866 Z-0.125000 I-3.238374 J-24.395732
G02 X93.062423 Y187.760711 Z-0.125000 I-0.239476 J-0.393882
G01 X93.062423 Y187.760711 Z-0.125000
G00 Z5.000000

(End cutting path id: path4199)


(Start cutting path id: path4205)
(Change tool to Default tool)

G00 Z5.000000
G00 X115.782743 Y185.216035

G01 Z-0.125000 F100.0(Penetrate)
G02 X115.980911 Y185.916795 Z-0.125000 I0.496424 J0.238016 F400.000000
G02 X123.903913 Y190.493746 Z-0.125000 I50.935402 J-79.026435
G02 X126.587616 Y190.578824 Z-0.125000 I6.354725 J-158.083347
G02 X129.686595 Y190.624623 Z-0.125000 I4.266670 J-183.832285
G02 X130.630335 Y190.628186 Z-0.125000 I1.157457 J-181.586352
G02 X131.543640 Y190.626881 Z-0.125000 I0.206223 J-175.221258
G02 X134.764761 Y189.676810 Z-0.125000 I-47.470363 J-166.879024
G02 X137.374594 Y188.848630 Z-0.125000 I-37.093112 J-121.417264
G02 X142.802483 Y184.200359 Z-0.125000 I-42.080863 J-54.632026
G02 X142.865363 Y183.580182 Z-0.125000 I-0.329520 J-0.346686
G02 X142.248300 Y183.419365 Z-0.125000 I-0.402620 J0.280614
G02 X136.359802 Y186.672809 Z-0.125000 I27.982323 J57.601578
G02 X133.971327 Y187.195413 Z-0.125000 I21.646631 J104.651821
G02 X131.178529 Y187.872697 Z-0.125000 I29.191095 J126.466921
G02 X130.379100 Y187.870466 Z-0.125000 I-0.773786 J134.025524
G02 X129.556254 Y187.872979 Z-0.125000 I0.027492 J143.691854
G02 X126.865443 Y187.915380 Z-0.125000 I0.861223 J140.058369
G02 X124.471930 Y187.998128 Z-0.125000 I3.302848 J130.193404
G02 X116.469057 Y184.923008 Z-0.125000 I-34.795298 J78.602216
G02 X115.782743 Y185.215911 Z-0.125000 I-0.176294 J0.537436
G01 X115.782743 Y185.216035 Z-0.125000
G00 Z5.000000

(End cutting path id: path4205)


(Start cutting path id: path4255)
(Change tool to Default tool)

G00 Z5.000000
G00 X106.290613 Y154.102110

G01 Z-0.125000 F100.0(Penetrate)
G02 X106.059038 Y154.675909 Z-0.125000 I0.278855 J0.446170 F400.000000
G02 X107.093408 Y157.092700 Z-0.125000 I8.034509 J-2.008969
G02 X108.321652 Y157.183961 Z-0.125000 I2.314181 J-22.834783
G02 X109.974271 Y157.217750 Z-0.125000 I1.454469 J-30.706419
G02 X111.266645 Y157.179456 Z-0.125000 I-0.179915 J-27.898699
G02 X112.328374 Y157.091738 Z-0.125000 I-0.948696 J-17.952348
G02 X114.358145 Y155.066357 Z-0.125000 I-6.193807 J-8.237010
G02 X114.387721 Y154.359161 Z-0.125000 I-0.496434 J-0.374978
G02 X113.690479 Y154.042040 Z-0.125000 I-0.590308 J0.372829
G02 X111.563100 Y154.711199 Z-0.125000 I1.135454 J7.326058
G02 X110.818595 Y154.730458 Z-0.125000 I-0.143931 J8.836146
G02 X110.009771 Y154.815034 Z-0.125000 I0.763992 J11.215979
G02 X108.994419 Y154.997684 Z-0.125000 I1.918477 J13.578314
G02 X108.058326 Y155.224338 Z-0.125000 I4.694875 J21.436472
G02 X107.028828 Y154.123356 Z-0.125000 I-3.191964 J1.952897
G02 X106.290613 Y154.102110 Z-0.125000 I-0.385064 J0.543795
G01 X106.290613 Y154.102110 Z-0.125000
G00 Z5.000000

(End cutting path id: path4255)


(Start cutting path id: path4249)
(Change tool to Default tool)

G00 Z5.000000
G00 X101.792219 Y153.845059

G01 Z-0.125000 F100.0(Penetrate)
G02 X101.118127 Y154.134012 Z-0.125000 I-0.131411 J0.624199 F400.000000
G02 X100.620238 Y155.557936 Z-0.125000 I2.980258 J1.841085
G02 X99.589632 Y155.484602 Z-0.125000 I-2.954420 J34.241672
G02 X98.477463 Y155.458504 Z-0.125000 I-0.956931 J17.068763
G02 X97.497145 Y155.504654 Z-0.125000 I0.117508 J12.931133
G02 X96.620754 Y155.621591 Z-0.125000 I0.787902 J9.247463
G02 X94.591618 Y155.160866 Z-0.125000 I-2.532603 J6.455396
G02 X93.952162 Y155.515891 Z-0.125000 I-0.048487 J0.666060
G02 X94.033784 Y156.176103 Z-0.125000 I0.515660 J0.271401
G02 X96.167539 Y157.980698 Z-0.125000 I7.549779 J-6.763089
G02 X97.390156 Y157.878204 Z-0.125000 I-0.885531 J-17.906496
G02 X98.932208 Y157.657325 Z-0.125000 I-3.752547 J-31.691483
G02 X100.671485 Y157.321554 Z-0.125000 I-6.115293 J-36.349478
G02 X101.935997 Y157.016150 Z-0.125000 I-6.231462 J-28.571647
G02 X102.190583 Y154.303801 Z-0.125000 I-8.253767 J-2.142833
G02 X101.792219 Y153.845059 Z-0.125000 I-0.502014 J0.033603
G01 X101.792219 Y153.845059 Z-0.125000
G00 Z5.000000

(End cutting path id: path4249)


(Start cutting path id: path4225)
(Change tool to Default tool)

G00 Z5.000000
G00 X86.369156 Y142.663338

G01 Z-0.125000 F100.0(Penetrate)
G02 X86.438272 Y142.676011 Z-0.125000 I0.043739 J-0.043739 F400.000000
G02 X86.785843 Y142.445564 Z-0.125000 I-0.527967 J-1.173641
G02 X86.678502 Y141.910078 Z-0.125000 I-3.661106 J0.455382
G02 X86.229467 Y140.523978 Z-0.125000 I-16.966917 J4.730751
G03 X87.598934 Y140.665646 Z-0.125000 I-2.857206 J34.309745
G03 X89.417599 Y140.930962 Z-0.125000 I-5.178865 J41.865521
G02 X90.949454 Y141.874923 Z-0.125000 I164.519744 J-265.267003
G02 X92.833890 Y143.023002 Z-0.125000 I262.963014 J-429.502079
G02 X95.739770 Y143.885904 Z-0.125000 I94.802312 J-313.928788
G02 X99.357883 Y144.927630 Z-0.125000 I142.681178 J-488.755090
G02 X101.546513 Y144.374539 Z-0.125000 I-216.765965 J-862.369463
G02 X103.955089 Y143.759470 Z-0.125000 I-249.803269 J-983.238145
G02 X105.070400 Y143.918822 Z-0.125000 I186.696507 J-1302.714272
G02 X106.222874 Y144.082439 Z-0.125000 I178.402650 J-1252.475657
G02 X109.012565 Y144.082180 Z-0.125000 I1.321254 J-791.083617
G02 X112.012474 Y144.071940 Z-0.125000 I-1.788343 J-963.424174
G03 X114.657258 Y142.732355 Z-0.125000 I150.163546 J293.191745
G03 X117.466317 Y141.341751 Z-0.125000 I150.578895 J300.641096
G03 X119.216861 Y139.982381 Z-0.125000 I395.131708 J507.028508
G03 X121.017525 Y138.596279 Z-0.125000 I276.758236 J357.669729
G02 X120.764644 Y138.186161 Z-0.125000 I-4427.388064 J2730.007987
G02 X120.510419 Y137.773971 Z-0.125000 I-2857.066483 J1761.715231
G02 X119.273559 Y135.771459 Z-0.125000 I-1775.692755 J1095.380976
G02 X118.066177 Y133.824367 Z-0.125000 I-811.555820 J501.893702
G02 X115.582430 Y131.866734 Z-0.125000 I-920.903013 J1165.841476
G02 X113.223758 Y130.015267 Z-0.125000 I-1004.873234 J1277.728123
G02 X110.466816 Y129.694582 Z-0.125000 I-113.397445 J962.869395
G02 X107.879016 Y129.401592 Z-0.125000 I-91.277582 J794.624647
G02 X103.765162 Y129.619505 Z-0.125000 I48.793888 J960.092231
G02 X100.169972 Y129.826096 Z-0.125000 I42.412237 J769.460660
G02 X95.756917 Y131.452999 Z-0.125000 I216.023244 J592.772566
G02 X92.377165 Y132.731876 Z-0.125000 I131.051324 J351.441308
G02 X89.478790 Y135.047477 Z-0.125000 I159.393079 J202.479645
G02 X87.656250 Y136.559859 Z-0.125000 I65.565431 J80.865884
G02 X85.450896 Y139.340002 Z-0.125000 I33.142386 J28.555039
G02 X85.469476 Y139.578720 Z-0.125000 I0.148798 J0.108501
G02 X85.710925 Y139.597765 Z-0.125000 I0.131877 J-0.131877
G02 X88.423722 Y137.456561 Z-0.125000 I-25.254291 J-34.785012
G02 X90.360792 Y136.227776 Z-0.125000 I-54.673272 J-88.328699
G02 X93.213699 Y134.344161 Z-0.125000 I-129.289840 J-198.923618
G02 X96.491460 Y133.367503 Z-0.125000 I-101.445670 J-346.450217
G02 X100.586905 Y132.108924 Z-0.125000 I-162.455245 J-535.925836
G02 X103.975698 Y132.075014 Z-0.125000 I-5.472067 J-716.181816
G02 X107.786825 Y132.019322 Z-0.125000 I-10.527670 J-850.861464
G02 X109.944165 Y132.225724 Z-0.125000 I52.496868 J-537.325510
G02 X112.210021 Y132.433855 Z-0.125000 I59.643574 J-636.881596
G02 X114.114828 Y134.093712 Z-0.125000 I829.951538 J-950.507107
G02 X116.107340 Y135.822184 Z-0.125000 I702.730555 J-808.066627
G02 X117.420677 Y136.815681 Z-0.125000 I255.429555 J-336.296130
G02 X118.770279 Y137.830957 Z-0.125000 I705.644726 J-936.605431
G02 X119.048340 Y138.039790 Z-0.125000 I1615.226727 J-2148.382929
G02 X119.325219 Y138.247701 Z-0.125000 I6593.626467 J-8814.233818
G02 X117.733613 Y138.540902 Z-0.125000 I26.578041 J148.742194
G02 X116.193091 Y138.843892 Z-0.125000 I21.936648 J115.602206
G02 X113.711657 Y140.191185 Z-0.125000 I84.752319 J159.055044
G02 X111.364898 Y141.511773 Z-0.125000 I89.081461 J161.048177
G02 X108.787793 Y141.501545 Z-0.125000 I-4.084005 J704.347125
G02 X106.358352 Y141.501274 Z-0.125000 I-1.281432 J598.969845
G02 X105.022423 Y141.403061 Z-0.125000 I-104.532272 J1412.749602
G02 X103.742169 Y141.310142 Z-0.125000 I-101.560504 J1390.450802
G02 X101.445838 Y142.039164 Z-0.125000 I303.038613 J958.516175
G02 X99.342587 Y142.712496 Z-0.125000 I274.487424 J861.023351
G02 X96.191004 Y141.919977 Z-0.125000 I-99.261106 J388.065590
G02 X93.528129 Y141.275460 Z-0.125000 I-68.034259 J275.265889
G02 X91.417564 Y140.284409 Z-0.125000 I-200.569905 J424.395358
G02 X89.746992 Y139.511735 Z-0.125000 I-117.725097 J252.337109
G03 X87.247643 Y139.944390 Z-0.125000 I-24.240168 J-132.594268
G03 X85.737689 Y140.175767 Z-0.125000 I-12.383791 J-75.773484
G02 X86.206503 Y141.728981 Z-0.125000 I21.413932 J-5.616107
G02 X86.466570 Y142.366999 Z-0.125000 I5.694668 J-1.949233
G02 X86.348535 Y142.577479 Z-0.125000 I0.467817 J0.400685
G02 X86.369156 Y142.663327 Z-0.125000 I0.080374 J0.026094
G01 X86.369156 Y142.663338 Z-0.125000
G00 Z5.000000

(End cutting path id: path4225)


(Start cutting path id: path4243)
(Change tool to Default tool)

G00 Z5.000000
G00 X57.579438 Y159.885758

G01 Z-0.125000 F100.0(Penetrate)
G02 X57.877698 Y159.676914 Z-0.125000 I0.038435 J-0.262511 F400.000000
G03 X60.420459 Y147.562835 Z-0.125000 I1888.679063 J390.112259
G03 X61.842269 Y140.993996 Z-0.125000 I623.151189 J131.441294
G03 X63.982682 Y131.818803 Z-0.125000 I427.892423 J94.982628
G02 X67.258965 Y127.547354 Z-0.125000 I-1798.832719 J-1383.131181
G02 X70.932760 Y122.734803 Z-0.125000 I-2165.539133 J-1656.933372
G01 X70.932763 Y122.734800 Z-0.125000
G02 X75.251362 Y119.642609 Z-0.125000 I-1750.326265 J-2449.092886
G02 X79.911062 Y116.293778 Z-0.125000 I-1910.083234 J-2662.683700
G02 X85.503794 Y113.084635 Z-0.125000 I-1490.102972 J-2603.354330
G02 X91.461356 Y109.649640 Z-0.125000 I-1701.425040 J-2957.789334
G02 X94.405690 Y109.167504 Z-0.125000 I-565.622878 J-3463.403488
G02 X97.413750 Y108.672302 Z-0.125000 I-579.378406 J-3528.767056
G02 X100.458489 Y108.168376 Z-0.125000 I-582.909391 J-3531.410967
G02 X103.437027 Y107.672775 Z-0.125000 I-576.005357 J-3470.963315
G02 X110.022708 Y108.999104 Z-0.125000 I685.590253 J-3387.179738
G02 X116.211131 Y110.232821 Z-0.125000 I628.577958 J-3136.857572
G02 X122.334401 Y113.941391 Z-0.125000 I1521.988197 J-2506.066230
G02 X127.884432 Y117.283540 Z-0.125000 I1269.630217 J-2102.090911
G01 X127.884434 Y117.283542 Z-0.125000
G02 X131.931543 Y121.310202 Z-0.125000 I1589.605335 J-1593.631128
G02 X135.522494 Y124.863904 Z-0.125000 I1259.881160 J-1269.495338
G02 X138.286886 Y128.576935 Z-0.125000 I1490.135613 J-1106.536768
G02 X140.673814 Y131.765048 Z-0.125000 I1107.920206 J-827.008192
G02 X143.022504 Y138.755193 Z-0.125000 I858.107997 J-284.434791
G02 X144.546406 Y143.132956 Z-0.125000 I324.834550 J-110.620927
G01 X144.546406 Y143.132959 Z-0.125000
G02 X144.935720 Y149.063034 Z-0.125000 I125.303292 J-5.248447
G02 X145.105324 Y149.218139 Z-0.125000 I0.169604 J-0.015178
G02 X145.272678 Y149.064898 Z-0.125000 I0.000000 J-0.168004
G02 X145.664243 Y142.964873 Z-0.125000 I-127.453363 J-11.243889
G01 X145.664243 Y142.964870 Z-0.125000
G02 X144.442374 Y138.424559 Z-0.125000 I-326.865849 J85.530128
G02 X142.339399 Y130.941134 Z-0.125000 I-912.176013 J252.300362
G02 X139.994759 Y127.505749 Z-0.125000 I-1163.897214 J791.839020
G02 X137.208681 Y123.447420 Z-0.125000 I-1619.614359 J1108.893320
G02 X133.578691 Y119.660066 Z-0.125000 I-1361.110575 J1300.923662
G02 X129.423683 Y115.347673 Z-0.125000 I-1749.076036 J1681.083847
G01 X129.423677 Y115.347670 Z-0.125000
G02 X123.644886 Y111.746460 Z-0.125000 I-1416.850910 J2267.155244
G02 X117.191229 Y107.746477 Z-0.125000 I-1724.195049 J2774.647200
G02 X110.573300 Y106.369217 Z-0.125000 I-746.043380 J3568.254548
G02 X103.489075 Y104.908454 Z-0.125000 I-810.361459 J3912.079267
G02 X100.266342 Y105.435742 Z-0.125000 I661.966218 J4055.988599
G02 X96.969860 Y105.977791 Z-0.125000 I678.397449 J4135.977740
G02 X93.713983 Y106.515816 Z-0.125000 I681.768574 J4135.845584
G02 X90.530796 Y107.044402 Z-0.125000 I671.016959 J4050.787575
G02 X84.274666 Y110.645556 Z-0.125000 I1871.401559 J3258.340020
G02 X78.432395 Y114.023969 Z-0.125000 I1640.329160 J2843.352943
G02 X73.599322 Y117.627697 Z-0.125000 I2128.272395 J2859.335620
G02 X69.160063 Y120.949604 Z-0.125000 I1921.266075 J2572.128219
G01 X69.160060 Y120.949606 Z-0.125000
G02 X65.319402 Y126.247973 Z-0.125000 I2465.338111 J1791.105338
G02 X61.972334 Y130.887379 Z-0.125000 I1963.810418 J1420.304651
G02 X60.015819 Y140.492464 Z-0.125000 I286.185351 J63.296554
G02 X58.851230 Y147.274731 Z-0.125000 I238.691653 J44.477068
G02 X57.388523 Y159.645571 Z-0.125000 I173.545715 J26.791653
G02 X57.579438 Y159.885758 Z-0.125000 I0.223387 J0.018407
G01 X57.579438 Y159.885758 Z-0.125000
G00 Z5.000000

(End cutting path id: path4243)


(Start cutting path id: path4237)
(Change tool to Default tool)

G00 Z5.000000
G00 X45.240987 Y184.434135

G01 Z-0.125000 F100.0(Penetrate)
G02 X45.337609 Y184.029080 Z-0.125000 I-0.186769 J-0.258604 F400.000000
G02 X42.724254 Y179.493488 Z-0.125000 I-50.849844 J26.278401
G01 X42.724251 Y179.493488 Z-0.125000
G02 X42.607062 Y176.397674 Z-0.125000 I-170.808688 J4.915678
G02 X42.382406 Y172.255589 Z-0.125000 I-284.470858 J13.351783
G02 X42.983212 Y168.876008 Z-0.125000 I-296.847202 J-54.515303
G02 X43.626343 Y165.008988 Z-0.125000 I-354.623595 J-60.965053
G02 X44.163302 Y163.707211 Z-0.125000 I-353.102712 J-146.409844
G02 X44.712470 Y162.361693 Z-0.125000 I-359.799462 J-147.635597
G02 X45.495592 Y160.417560 Z-0.125000 I-357.843490 J-145.273906
G02 X46.231511 Y158.561526 Z-0.125000 I-339.592897 J-135.722701
G02 X48.595358 Y154.086611 Z-0.125000 I-340.704507 J-182.836881
G02 X50.476935 Y150.412983 Z-0.125000 I-300.458279 J-156.208897
G02 X53.160576 Y149.005080 Z-0.125000 I-99.389350 J-192.710251
G02 X55.179344 Y147.903799 Z-0.125000 I-58.470342 J-109.583482
G02 X58.819245 Y148.636322 Z-0.125000 I8.091016 J-30.794611
G02 X59.121743 Y148.446986 Z-0.125000 I0.038743 J-0.274417
G02 X58.992740 Y148.136163 Z-0.125000 I-0.246988 J-0.079673
G02 X55.095558 Y146.419665 Z-0.125000 I-16.969636 J33.245936
G02 X52.693173 Y147.325909 Z-0.125000 I40.447286 J110.860103
G02 X49.001827 Y148.794450 Z-0.125000 I102.507379 J263.037769
G02 X46.668820 Y152.528601 Z-0.125000 I296.230038 J187.673200
G02 X43.736362 Y157.354224 Z-0.125000 I393.488370 J242.420746
G02 X42.923418 Y159.333471 Z-0.125000 I387.279008 J160.225205
G02 X42.078439 Y161.420815 Z-0.125000 I412.724568 J168.290003
G02 X41.498897 Y162.870209 Z-0.125000 I416.100946 J167.219084
G02 X40.943454 Y164.273416 Z-0.125000 I406.608114 J161.762551
G02 X40.347947 Y168.528160 Z-0.125000 I423.610746 J61.458900
G02 X39.873931 Y172.192828 Z-0.125000 I338.593285 J45.659259
G02 X40.551516 Y176.886010 Z-0.125000 I331.418318 J-45.453509
G02 X41.074397 Y180.120941 Z-0.125000 I165.698444 J-25.123088
G01 X41.074397 Y180.120941 Z-0.125000
G02 X44.840701 Y184.398461 Z-0.125000 I48.746789 J-39.124108
G02 X45.240987 Y184.434135 Z-0.125000 I0.220712 J-0.212965
G01 X45.240987 Y184.434135 Z-0.125000
G00 Z5.000000

(End cutting path id: path4237)


(Start cutting path id: path4231)
(Change tool to Default tool)

G00 Z5.000000
G00 X162.713321 Y175.180297

G01 Z-0.125000 F100.0(Penetrate)
G02 X163.088953 Y175.126183 Z-0.125000 I0.156187 J-0.246612 F400.000000
G02 X165.947743 Y171.444039 Z-0.125000 I-29.272206 J-25.677572
G01 X165.947743 Y171.444039 Z-0.125000
G02 X165.127250 Y167.326800 Z-0.125000 I-153.838500 J28.516919
G02 X163.582735 Y160.418438 Z-0.125000 I-352.058952 J75.083630
G02 X162.289011 Y157.890037 Z-0.125000 I-276.304958 J139.783552
G02 X160.848594 Y155.137134 Z-0.125000 I-304.440917 J157.541133
G02 X159.825045 Y153.217079 Z-0.125000 I-303.573115 J160.596895
G02 X158.847475 Y151.410983 Z-0.125000 I-284.568305 J152.858172
G02 X155.214348 Y147.211517 Z-0.125000 I-244.183348 J207.581533
G02 X152.458805 Y144.146498 Z-0.125000 I-148.769150 J130.976721
G02 X149.202606 Y142.787342 Z-0.125000 I-96.650278 J226.969872
G02 X147.313967 Y142.043694 Z-0.125000 I-29.188634 J71.360118
G02 X144.926567 Y143.423516 Z-0.125000 I7.432656 J15.615432
G02 X144.848273 Y143.691542 Z-0.125000 I0.125653 J0.182153
G02 X145.116691 Y143.838805 Z-0.125000 I0.227057 J-0.095604
G02 X147.266548 Y143.282983 Z-0.125000 I-2.213345 J-12.996572
G02 X148.853518 Y144.339907 Z-0.125000 I66.008200 J-97.391274
G02 X151.118498 Y145.807099 Z-0.125000 I159.538859 J-243.806479
G02 X153.459314 Y148.949038 Z-0.125000 I153.140341 J-111.650110
G02 X156.554177 Y152.937472 Z-0.125000 I216.805962 J-165.037660
G02 X157.445434 Y154.661403 Z-0.125000 I257.466163 J-132.015393
G02 X158.398304 Y156.474569 Z-0.125000 I270.327127 J-140.907651
G02 X159.779296 Y159.051063 Z-0.125000 I268.719227 J-142.374189
G02 X161.072752 Y161.409490 Z-0.125000 I245.790406 J-133.267459
G02 X163.000318 Y167.315945 Z-0.125000 I292.790109 J-92.284035
G02 X164.362868 Y171.205025 Z-0.125000 I170.982263 J-57.720847
G01 X164.362865 Y171.205025 Z-0.125000
G02 X162.591675 Y174.793969 Z-0.125000 I27.872794 J15.987106
G02 X162.713321 Y175.180297 Z-0.125000 I0.289609 J0.121125
G01 X162.713321 Y175.180297 Z-0.125000
G00 Z5.000000

(End cutting path id: path4231)


(Start cutting path id: path4721)
(Change tool to Default tool)

G00 Z5.000000
G00 X71.887086 Y176.400553

G01 Z-0.125000 F100.0(Penetrate)
G01 X76.067627 Y179.217873 Z-0.125000 F400.000000
G01 X82.338433 Y181.035497 Z-0.125000
G01 X86.428092 Y180.853734 Z-0.125000
G01 X91.153918 Y178.399939 Z-0.125000
G01 X93.425950 Y175.582622 Z-0.125000
G01 X93.062426 Y174.582926 Z-0.125000
G01 X90.335987 Y173.674114 Z-0.125000
G01 X86.700736 Y172.765302 Z-0.125000
G01 X82.065789 Y172.947064 Z-0.125000
G02 X80.153920 Y173.665287 Z-0.125000 I76.689068 J207.045701
G02 X78.248776 Y174.401163 Z-0.125000 I78.608295 J206.346794
G02 X75.560631 Y175.474166 Z-0.125000 I80.515123 J205.614567
G02 X72.886782 Y176.582315 Z-0.125000 I83.187958 J204.503927
G01 X72.250614 Y176.491434 Z-0.125000
G00 Z5.000000

(End cutting path id: path4721)


(Start cutting path id: path4519)
(Change tool to Default tool)

G00 Z5.000000
G00 X57.322387 Y160.656913

G01 Z-0.125000 F100.0(Penetrate)
G02 X56.722696 Y161.038685 Z-0.125000 I-0.087425 J0.524558 F400.000000
G02 X54.254821 Y171.515151 Z-0.125000 I128.070729 J35.697722
G02 X55.018072 Y174.688392 Z-0.125000 I200.031003 J-46.434537
G02 X55.963693 Y178.363817 Z-0.125000 I235.170944 J-58.545890
G02 X56.938489 Y181.922480 Z-0.125000 I231.205156 J-61.419294
G02 X57.839571 Y185.017720 Z-0.125000 I188.870971 J-53.305089
G01 X57.839571 Y185.017720 Z-0.125000
G02 X58.171889 Y188.486172 Z-0.125000 I197.562312 J-17.178653
G02 X58.465698 Y191.023245 Z-0.125000 I115.600746 J-12.101713
G02 X61.758832 Y195.044350 Z-0.125000 I38.071389 J-27.820016
G02 X62.206356 Y195.101754 Z-0.125000 I0.257708 J-0.235944
G02 X62.345062 Y194.652200 Z-0.125000 I-0.199024 J-0.307583
G02 X60.291890 Y190.440524 Z-0.125000 I-38.826943 J16.321655
G02 X60.367576 Y187.910487 Z-0.125000 I-124.493235 J-4.990356
G02 X60.403915 Y184.621700 Z-0.125000 I-189.008465 J-3.733042
G01 X60.403915 Y184.621700 Z-0.125000
G02 X59.650929 Y181.573554 Z-0.125000 I-181.039603 J43.105292
G02 X58.727244 Y178.080430 Z-0.125000 I-221.696423 J56.754363
G02 X57.720216 Y174.502202 Z-0.125000 I-226.105347 J61.702492
G02 X56.791237 Y171.390961 Z-0.125000 I-197.510695 J57.280038
G02 X57.775714 Y161.223055 Z-0.125000 I-122.705235 J-17.012187
G02 X57.322387 Y160.656913 Z-0.125000 I-0.542678 J-0.030029
G01 X57.322387 Y160.656913 Z-0.125000
G00 Z5.000000

(End cutting path id: path4519)


(Start cutting path id: path4387)
(Change tool to Default tool)

G00 Z5.000000
G00 X56.808283 Y158.729030

G01 Z-0.125000 F100.0(Penetrate)
G02 X57.095225 Y158.355876 Z-0.125000 I-0.091889 J-0.367561 F400.000000
G02 X56.643617 Y156.045057 Z-0.125000 I-6.639501 J0.098033
G01 X56.643617 Y156.045057 Z-0.125000
G02 X55.100623 Y156.175703 Z-0.125000 I27.175340 J330.133080
G02 X52.494889 Y156.444388 Z-0.125000 I7.122362 J81.843072
G01 X52.494886 Y156.444388 Z-0.125000
G02 X52.051629 Y156.769976 Z-0.125000 I25.287264 J34.890687
G02 X51.592469 Y157.115854 Z-0.125000 I30.179324 J40.541399
G02 X50.525505 Y157.949799 Z-0.125000 I33.827131 J44.378515
G02 X49.611678 Y158.696408 Z-0.125000 I38.959214 J48.617459
G01 X49.611678 Y158.696408 Z-0.125000
G02 X50.156419 Y163.143602 Z-0.125000 I20.475252 J-0.251072
G02 X50.767584 Y163.612999 Z-0.125000 I0.593247 J-0.139848
G02 X51.422910 Y163.061929 Z-0.125000 I-0.020279 J-0.689303
G02 X51.666437 Y159.789856 Z-0.125000 I-12.637040 J-2.585621
G01 X51.666437 Y159.789856 Z-0.125000
G02 X52.362834 Y159.523731 Z-0.125000 I-16.582547 J-44.437543
G02 X53.075917 Y159.229185 Z-0.125000 I-7.461564 J-19.074536
G02 X53.378067 Y159.094093 Z-0.125000 I-6.680419 J-15.347123
G02 X53.667203 Y158.957261 Z-0.125000 I-5.707791 J-12.434834
G01 X53.667203 Y158.957261 Z-0.125000
G02 X54.862066 Y158.067802 Z-0.125000 I-41.690411 J-57.252473
G03 X55.944745 Y157.300184 Z-0.125000 I11.930637 J15.680130
G01 X55.944745 Y157.300184 Z-0.125000
G02 X56.271325 Y158.506346 Z-0.125000 I2.299560 J0.024666
G02 X56.808283 Y158.729030 Z-0.125000 I0.418616 J-0.250684
G01 X56.808283 Y158.729030 Z-0.125000
G00 Z5.000000

(End cutting path id: path4387)


(Start cutting path id: path4531)
(Change tool to Default tool)

G00 Z5.000000
G00 X47.297394 Y182.249202

G01 Z-0.125000 F100.0(Penetrate)
G02 X46.590593 Y182.972695 Z-0.125000 I0.039228 J0.745317 F400.000000
G02 X46.809288 Y198.189203 Z-0.125000 I174.434330 J5.102814
G02 X46.942572 Y200.287909 Z-0.125000 I193.101114 J-11.209865
G02 X47.085696 Y202.213331 Z-0.125000 I180.400210 J-12.441809
G01 X47.085696 Y202.213331 Z-0.125000
G02 X54.197311 Y211.196440 Z-0.125000 I104.250668 J-75.225058
G02 X55.008927 Y211.295970 Z-0.125000 I0.460909 J-0.399554
G02 X55.196519 Y210.478566 Z-0.125000 I-0.360453 J-0.512951
G02 X49.565507 Y201.356835 Z-0.125000 I-101.935788 J56.627909
G01 X49.565504 Y201.356832 Z-0.125000
G02 X49.508324 Y199.474400 Z-0.125000 I-174.232537 J4.350333
G02 X49.424666 Y197.453292 Z-0.125000 I-180.526260 J6.460028
G02 X48.088795 Y182.903746 Z-0.125000 I-163.703867 J7.694432
G02 X47.297394 Y182.249202 Z-0.125000 I-0.751531 J0.102958
G01 X47.297394 Y182.249202 Z-0.125000
G00 Z5.000000

(End cutting path id: path4531)


(Start cutting path id: path4525)
(Change tool to Default tool)

G00 Z5.000000
G00 X60.921102 Y210.267767

G01 Z-0.125000 F100.0(Penetrate)
G02 X61.238696 Y209.478998 Z-0.125000 I-0.268266 J-0.566339 F400.000000
G02 X55.290342 Y195.279743 Z-0.125000 I-212.590658 J80.712937
G01 X55.290342 Y195.279743 Z-0.125000
G02 X55.186430 Y193.112238 Z-0.125000 I-168.830531 J7.007654
G02 X55.045661 Y190.809064 Z-0.125000 I-171.481449 J9.324964
G02 X54.660922 Y186.112703 Z-0.125000 I-168.150670 J11.411450
G02 X54.223189 Y182.130096 Z-0.125000 I-145.017318 J13.923635
G02 X52.216109 Y170.809393 Z-0.125000 I-114.238253 J14.415362
G02 X51.667264 Y170.424853 Z-0.125000 I-0.487450 J0.111779
G02 X51.213238 Y170.949415 Z-0.125000 I0.063556 J0.513778
G02 X51.681854 Y182.368308 Z-0.125000 I283.077635 J-5.898070
G02 X51.962078 Y186.485453 Z-0.125000 I606.639514 J-39.221410
G02 X52.318748 Y191.353702 Z-0.125000 I1366.314839 J-97.655159
G02 X52.499073 Y193.731687 Z-0.125000 I1544.495316 J-115.924813
G02 X52.671114 Y195.951969 Z-0.125000 I1268.282849 J-97.157348
G01 X52.671117 Y195.951971 Z-0.125000
G02 X60.120015 Y210.016428 Z-0.125000 I214.713522 J-104.713018
G02 X60.921110 Y210.267767 Z-0.125000 I0.536424 J-0.307409
G01 X60.921102 Y210.267767 Z-0.125000
G00 Z5.000000

(End cutting path id: path4525)


(Start cutting path id: path4537)
(Change tool to Default tool)

G00 Z5.000000
G00 X52.438416 Y226.719034

G01 Z-0.125000 F100.0(Penetrate)
G02 X52.718744 Y225.817918 Z-0.125000 I-0.352168 J-0.603717 F400.000000
G02 X46.547205 Y214.041713 Z-0.125000 I-139.320094 J65.508027
G01 X46.547202 Y214.041710 Z-0.125000
G02 X46.574369 Y213.127977 Z-0.125000 I-198.600488 J-6.361919
G02 X46.597932 Y212.188724 Z-0.125000 I-200.632446 J-5.503174
G02 X46.637188 Y205.879214 Z-0.125000 I-190.960919 J-4.343002
G02 X46.500551 Y201.570372 Z-0.125000 I-100.704027 J1.036833
G02 X43.660080 Y197.025932 Z-0.125000 I-41.690106 J22.898179
G02 X43.184578 Y196.901110 Z-0.125000 I-0.311985 J0.220380
G02 X42.970229 Y197.363940 Z-0.125000 I0.170540 J0.360032
G02 X44.495526 Y201.999790 Z-0.125000 I41.475999 J-11.077657
G02 X44.178017 Y206.485374 Z-0.125000 I110.303661 J10.061776
G02 X43.959904 Y212.855169 Z-0.125000 I197.240164 J9.942483
G02 X43.944963 Y213.802526 Z-0.125000 I202.773136 J3.671882
G02 X43.934758 Y214.719456 Z-0.125000 I198.811392 J2.671097
G01 X43.934758 Y214.719456 Z-0.125000
G02 X51.535104 Y226.522419 Z-0.125000 I144.294861 J-84.568016
G02 X52.438402 Y226.719034 Z-0.125000 I0.558797 J-0.393957
G01 X52.438416 Y226.719034 Z-0.125000
G00 Z5.000000

(End cutting path id: path4537)


(Start cutting path id: path4543)
(Change tool to Default tool)

G00 Z5.000000
G00 X54.237775 Y239.828637

G01 Z-0.125000 F100.0(Penetrate)
G02 X54.433488 Y238.819190 Z-0.125000 I-0.469066 J-0.614639 F400.000000
G02 X48.604822 Y230.254505 Z-0.125000 I-72.307830 J42.943148
G02 X48.319524 Y229.888165 Z-0.125000 I-73.900992 J57.258307
G02 X48.037609 Y229.529820 Z-0.125000 I-73.654098 J57.654709
G01 X48.037609 Y229.529818 Z-0.125000
G02 X46.053402 Y220.304222 Z-0.125000 I-75.724320 J11.460332
G02 X45.240987 Y219.778656 Z-0.125000 I-0.703958 J0.197478
G02 X44.635702 Y220.502433 Z-0.125000 I0.105479 J0.703195
G02 X45.528975 Y230.591574 Z-0.125000 I85.332248 J-2.471035
G01 X45.528975 Y230.591574 Z-0.125000
G02 X45.814494 Y230.976753 Z-0.125000 I82.547831 J-60.891188
G02 X46.108617 Y231.369667 Z-0.125000 I83.280551 J-62.034842
G02 X53.234221 Y239.750872 Z-0.125000 I73.727651 J-55.462740
G02 X54.237775 Y239.828637 Z-0.125000 I0.545295 J-0.522713
G01 X54.237775 Y239.828637 Z-0.125000
G00 Z5.000000

(End cutting path id: path4543)


(Start cutting path id: path4555)
(Change tool to Default tool)

G00 Z5.000000
G00 X66.343330 Y239.199513

G01 Z-0.125000 F100.0(Penetrate)
G02 X66.330409 Y238.151381 Z-0.125000 I-0.587391 J-0.516904 F400.000000
G02 X58.592610 Y230.701923 Z-0.125000 I-67.936597 J62.822788
G02 X58.504232 Y230.626298 Z-0.125000 I-71.217052 J83.137689
G02 X58.416117 Y230.551064 Z-0.125000 I-68.040052 J79.599945
G02 X56.131135 Y220.299985 Z-0.125000 I-89.181086 J14.498402
G02 X55.255815 Y219.750919 Z-0.125000 I-0.742526 J0.211484
G02 X54.638966 Y220.541047 Z-0.125000 I0.128543 J0.736203
G02 X56.094286 Y231.852854 Z-0.125000 I102.102611 J-7.386488
G02 X56.186558 Y231.936358 Z-0.125000 I82.547253 J-91.121542
G02 X56.279418 Y232.020226 Z-0.125000 I84.358484 J-93.310516
G02 X65.331697 Y239.314637 Z-0.125000 I69.871152 J-77.445180
G02 X66.343330 Y239.199513 Z-0.125000 I0.442245 J-0.616185
G01 X66.343330 Y239.199513 Z-0.125000
G00 Z5.000000

(End cutting path id: path4555)


(Start cutting path id: path4561)
(Change tool to Default tool)

G00 Z5.000000
G00 X65.616280 Y230.474909

G01 Z-0.125000 F100.0(Penetrate)
G02 X66.061386 Y229.570724 Z-0.125000 I-0.300128 J-0.709394 F400.000000
G02 X63.196036 Y221.170328 Z-0.125000 I-58.821313 J15.374894
G02 X61.844045 Y218.198334 Z-0.125000 I-59.748385 J25.386646
G02 X60.697192 Y215.997544 Z-0.125000 I-39.429405 J19.147830
G02 X59.572508 Y212.757030 Z-0.125000 I-19.883446 J5.085514
G02 X59.072828 Y212.480418 Z-0.125000 I-0.432726 J0.192064
G02 X58.684580 Y212.876415 Z-0.125000 I0.064511 J0.451572
G02 X58.539039 Y216.597317 Z-0.125000 I22.279763 J2.734762
G02 X59.313110 Y218.933994 Z-0.125000 I40.488851 J-12.116187
G02 X60.536001 Y222.050980 Z-0.125000 I63.289996 J-23.032274
G02 X64.665934 Y230.166391 Z-0.125000 I58.320519 J-24.570744
G02 X65.616280 Y230.474909 Z-0.125000 I0.653145 J-0.393958
G01 X65.616280 Y230.474909 Z-0.125000
G00 Z5.000000

(End cutting path id: path4561)


(Start cutting path id: path4417)
(Change tool to Default tool)

G00 Z5.000000
G00 X87.654410 Y234.173516

G01 Z-0.125000 F100.0(Penetrate)
G02 X87.796700 Y233.177198 Z-0.125000 I-0.463663 J-0.574538 F400.000000
G02 X77.059440 Y218.892154 Z-0.125000 I-201.102368 J139.979451
G02 X77.019194 Y218.742961 Z-0.125000 I-358.575630 J96.651775
G02 X76.978725 Y218.593261 Z-0.125000 I-234.557823 J63.327551
G02 X71.591240 Y201.230017 Z-0.125000 I-240.281516 J65.037362
G02 X70.689041 Y200.756878 Z-0.125000 I-0.704830 J0.247254
G02 X70.160638 Y201.614093 Z-0.125000 I0.194974 J0.711652
G02 X74.515402 Y219.844044 Z-0.125000 I255.890236 J-51.491857
G02 X74.558086 Y219.997873 Z-0.125000 I258.846407 J-71.742489
G02 X74.600687 Y220.151057 Z-0.125000 I276.062695 J-76.689625
G02 X86.662505 Y234.102443 Z-0.125000 I200.566632 J-161.212213
G02 X87.654410 Y234.173516 Z-0.125000 I0.534057 J-0.496260
G01 X87.654410 Y234.173516 Z-0.125000
G00 Z5.000000

(End cutting path id: path4417)


(Start cutting path id: path4423)
(Change tool to Default tool)

G00 Z5.000000
G00 X93.052483 Y230.574799

G01 Z-0.125000 F100.0(Penetrate)
G02 X93.727307 Y230.080599 Z-0.125000 I0.063395 J-0.621266 F400.000000
G02 X95.656344 Y218.306771 Z-0.125000 I-137.460043 J-28.566555
G01 X95.656344 Y218.306771 Z-0.125000
G02 X96.382386 Y216.560294 Z-0.125000 I-172.350203 J-72.673237
G02 X97.140867 Y214.683343 Z-0.125000 I-191.592865 J-78.514883
G02 X98.403120 Y211.437101 Z-0.125000 I-194.796187 J-77.612122
G02 X99.441396 Y208.630063 Z-0.125000 I-169.349792 J-64.235166
G02 X97.497181 Y198.847574 Z-0.125000 I-111.502532 J17.076054
G02 X96.908248 Y198.443418 Z-0.125000 I-0.520752 J0.127664
G02 X96.426877 Y198.996167 Z-0.125000 I0.070136 J0.547059
G02 X96.945614 Y208.306754 Z-0.125000 I102.865928 J-1.061411
G02 X95.746666 Y211.017276 Z-0.125000 I164.734518 J74.487633
G02 X94.430879 Y214.131130 Z-0.125000 I183.374169 J79.321361
G02 X93.690272 Y215.951961 Z-0.125000 I180.300904 J74.396813
G02 X93.019135 Y217.651824 Z-0.125000 I162.053888 J64.964217
G01 X93.019135 Y217.651826 Z-0.125000
G02 X92.498563 Y229.961231 Z-0.125000 I146.681800 J12.368981
G02 X93.052483 Y230.574799 Z-0.125000 I0.616503 J0.000250
G01 X93.052483 Y230.574799 Z-0.125000
G00 Z5.000000

(End cutting path id: path4423)


(Start cutting path id: path4435)
(Change tool to Default tool)

G00 Z5.000000
G00 X96.651197 Y237.515180

G01 Z-0.125000 F100.0(Penetrate)
G02 X97.548836 Y237.048275 Z-0.125000 I0.199776 J-0.712246 F400.000000
G02 X103.627084 Y217.733682 Z-0.125000 I-287.916265 J-101.220136
G02 X103.725621 Y217.379221 Z-0.125000 I-311.824937 J-86.875481
G02 X103.822980 Y217.027449 Z-0.125000 I-309.794660 J-85.930508
G01 X103.822983 Y217.027447 Z-0.125000
G02 X108.372462 Y210.221993 Z-0.125000 I-243.764403 J-167.881081
G02 X111.313940 Y205.502098 Z-0.125000 I-128.646869 J-83.450329
G01 X111.313943 Y205.502098 Z-0.125000
G02 X114.950353 Y200.707626 Z-0.125000 I-53.928425 J-44.678778
G02 X114.901823 Y200.242776 Z-0.125000 I-0.294707 J-0.204191
G02 X114.439698 Y200.221560 Z-0.125000 I-0.243380 J0.257695
G02 X109.749972 Y204.237291 Z-0.125000 I44.269397 J56.445810
G01 X109.749972 Y204.237291 Z-0.125000
G02 X106.300188 Y208.796516 Z-0.125000 I124.881170 J98.077366
G02 X101.303763 Y215.846536 Z-0.125000 I264.570062 J192.799161
G01 X101.303763 Y215.846536 Z-0.125000
G02 X101.201973 Y216.204776 Z-0.125000 I326.560005 J92.982043
G02 X101.099697 Y216.566247 Z-0.125000 I324.546904 J92.023942
G02 X96.131980 Y236.656509 Z-0.125000 I303.921905 J85.810056
G02 X96.651197 Y237.515180 Z-0.125000 I0.717259 J0.152605
G01 X96.651197 Y237.515180 Z-0.125000
G00 Z5.000000

(End cutting path id: path4435)


(Start cutting path id: path4441)
(Change tool to Default tool)

G00 Z5.000000
G00 X107.961445 Y233.916463

G01 Z-0.125000 F100.0(Penetrate)
G02 X108.802948 Y233.562618 Z-0.125000 I0.227405 J-0.636732 F400.000000
G02 X114.451661 Y219.885836 Z-0.125000 I-168.025097 J-77.401746
G01 X114.451661 Y219.885833 Z-0.125000
G02 X114.625113 Y218.946322 Z-0.125000 I-194.668311 J-36.425308
G02 X114.799342 Y217.976707 Z-0.125000 I-205.318179 J-37.393827
G02 X116.092579 Y209.768228 Z-0.125000 I-213.487843 J-37.840901
G02 X116.662768 Y204.764160 Z-0.125000 I-105.514003 J-14.557314
G02 X118.781527 Y202.195069 Z-0.125000 I-17.677404 J-16.736992
G02 X118.757591 Y201.785081 Z-0.125000 I-0.265728 J-0.190179
G02 X118.375654 Y201.729109 Z-0.125000 I-0.225052 J0.204594
G02 X115.197290 Y203.947025 Z-0.125000 I14.862930 J24.685513
G02 X113.961443 Y208.660180 Z-0.125000 I90.688149 J26.298134
G02 X112.132003 Y217.170310 Z-0.125000 I224.365509 J52.684010
G02 X111.937573 Y218.178045 Z-0.125000 I222.027372 J43.360076
G02 X111.753272 Y219.157378 Z-0.125000 I211.642032 J40.335985
G01 X111.753272 Y219.157378 Z-0.125000
G02 X107.531769 Y233.105261 Z-0.125000 I170.672672 J59.269027
G02 X107.961445 Y233.916463 Z-0.125000 I0.658453 J0.170628
G01 X107.961445 Y233.916463 Z-0.125000
G00 Z5.000000

(End cutting path id: path4441)


(Start cutting path id: path4591)
(Change tool to Default tool)

G00 Z5.000000
G00 X110.148103 Y245.197675

G01 Z-0.125000 F100.0(Penetrate)
G02 X110.186204 Y244.132794 Z-0.125000 I-0.566905 J-0.553406 F400.000000
G02 X103.702802 Y237.354804 Z-0.125000 I-58.396365 J49.368521
G02 X103.728533 Y237.222957 Z-0.125000 I-93.766904 J-18.367946
G02 X103.754200 Y237.090472 Z-0.125000 I-98.966638 J-19.242100
G02 X105.005035 Y227.508303 Z-0.125000 I-77.937318 J-15.046489
G02 X104.331703 Y226.657896 Z-0.125000 I-0.803652 J-0.055455
G02 X103.460967 Y227.225623 Z-0.125000 I-0.124657 J0.760408
G02 X101.365697 Y237.840701 Z-0.125000 I90.589486 J23.395447
G02 X101.345356 Y237.988886 Z-0.125000 I103.290970 J14.254145
G02 X101.325350 Y238.136018 Z-0.125000 I131.291290 J17.926325
G02 X109.131214 Y245.256721 Z-0.125000 I65.131650 J-63.559848
G02 X110.148103 Y245.197675 Z-0.125000 I0.476075 J-0.586983
G01 X110.148103 Y245.197675 Z-0.125000
G00 Z5.000000

(End cutting path id: path4591)


(Start cutting path id: path4585)
(Change tool to Default tool)

G00 Z5.000000
G00 X106.149327 Y247.924114

G01 Z-0.125000 F100.0(Penetrate)
G02 X106.130887 Y246.916263 Z-0.125000 I-0.681924 J-0.491618 F400.000000
G02 X103.066653 Y243.962134 Z-0.125000 I-11.829449 J9.204070
G02 X99.295568 Y241.988472 Z-0.125000 I-8.765231 J12.158221
G02 X98.333538 Y242.289474 Z-0.125000 I-0.280108 J0.792618
G02 X98.351977 Y243.297325 Z-0.125000 I0.681924 J0.491618
G02 X101.416212 Y246.251453 Z-0.125000 I11.829449 J-9.204070
G02 X105.187297 Y248.225116 Z-0.125000 I8.765231 J-12.158221
G02 X106.149327 Y247.924114 Z-0.125000 I0.280108 J-0.792618
G01 X106.149327 Y247.924114 Z-0.125000
G00 Z5.000000

(End cutting path id: path4585)


(Start cutting path id: path4567)
(Change tool to Default tool)

G00 Z5.000000
G00 X107.603429 Y254.831091

G01 Z-0.125000 F100.0(Penetrate)
G02 X107.302281 Y254.026304 Z-0.125000 I-0.597595 J-0.235120 F400.000000
G02 X97.303489 Y249.397303 Z-0.125000 I-55.010279 J105.710608
G01 X97.303489 Y249.397300 Z-0.125000
G03 X96.326748 Y248.114255 Z-0.125000 I1982.928866 J-1510.552687
G03 X95.292156 Y246.752895 Z-0.125000 I1362.152695 J-1036.268144
G03 X91.697370 Y242.013407 Z-0.125000 I5296.161014 J-4020.741940
G02 X89.199924 Y238.799172 Z-0.125000 I-134.066819 J101.591979
G02 X86.104632 Y235.262390 Z-0.125000 I-44.441922 J35.771466
G02 X85.610159 Y235.200735 Z-0.125000 I-0.284847 J0.270804
G02 X85.458027 Y235.657887 Z-0.125000 I0.202593 J0.321309
G02 X87.473271 Y239.963379 Z-0.125000 I30.835421 J-11.808563
G02 X89.758052 Y243.650267 Z-0.125000 I50.728600 J-28.885351
G02 X93.494702 Y248.797809 Z-0.125000 I73.405681 J-49.355881
G02 X94.638219 Y250.229474 Z-0.125000 I71.434775 J-55.884690
G02 X95.728333 Y251.540281 Z-0.125000 I68.335350 J-55.721484
G01 X95.728333 Y251.540281 Z-0.125000
G02 X106.851407 Y255.204898 Z-0.125000 I46.336432 J-121.930176
G02 X107.603429 Y254.831091 Z-0.125000 I0.169107 J-0.603151
G01 X107.603429 Y254.831091 Z-0.125000
G00 Z5.000000

(End cutting path id: path4567)


(Start cutting path id: path4693)
(Change tool to Default tool)

G00 Z5.000000
G00 X109.421053 Y257.739292

G01 Z-0.125000 F100.0(Penetrate)
G02 X108.838366 Y256.921975 Z-0.125000 I-0.800401 J-0.045738 F400.000000
G02 X103.139867 Y255.966953 Z-0.125000 I-7.214013 J25.566503
G02 X97.369675 Y256.266622 Z-0.125000 I-1.515512 J26.521487
G02 X96.697676 Y257.012242 Z-0.125000 I0.128404 J0.791358
G02 X97.280363 Y257.829559 Z-0.125000 I0.800401 J0.045738
G02 X102.978862 Y258.784581 Z-0.125000 I7.214013 J-25.566503
G02 X108.749054 Y258.484912 Z-0.125000 I1.515512 J-26.521487
G02 X109.421053 Y257.739292 Z-0.125000 I-0.128404 J-0.791358
G01 X109.421053 Y257.739292 Z-0.125000
G00 Z5.000000

(End cutting path id: path4693)


(Start cutting path id: path4579)
(Change tool to Default tool)

G00 Z5.000000
G00 X115.600980 Y258.466342

G01 Z-0.125000 F100.0(Penetrate)
G02 X116.075064 Y257.581627 Z-0.125000 I-0.334489 J-0.748619 F400.000000
G02 X114.663664 Y252.914316 Z-0.125000 I-18.995893 J3.197322
G02 X113.548167 Y250.766699 Z-0.125000 I-18.894602 J8.450557
G02 X112.643729 Y249.487128 Z-0.125000 I-8.664811 J5.165118
G02 X111.525989 Y248.645809 Z-0.125000 I-3.362859 J3.304595
G02 X111.056917 Y248.651164 Z-0.125000 I-0.229723 J0.424215
G02 X110.804620 Y249.059876 Z-0.125000 I0.249162 J0.436035
G02 X110.924205 Y250.359878 Z-0.125000 I4.475224 J0.243833
G02 X111.282466 Y251.910498 Z-0.125000 I10.461020 J-1.600253
G02 X112.123480 Y254.137589 Z-0.125000 I19.352164 J-6.035600
G02 X114.620428 Y258.229206 Z-0.125000 I17.130939 J-7.646616
G02 X115.600980 Y258.466342 Z-0.125000 I0.643846 J-0.516443
G01 X115.600980 Y258.466342 Z-0.125000
G00 Z5.000000

(End cutting path id: path4579)


(Start cutting path id: path4663)
(Change tool to Default tool)

G00 Z5.000000
G00 X112.329254 Y263.919219

G01 Z-0.125000 F100.0(Penetrate)
G02 X111.635546 Y263.173718 Z-0.125000 I-0.910517 J0.151752 F400.000000
G02 X108.825544 Y263.072595 Z-0.125000 I-1.653002 J6.840875
G02 X106.200229 Y264.079604 Z-0.125000 I1.156999 J6.942003
G02 X105.785802 Y265.009794 Z-0.125000 I0.496091 J0.778437
G02 X106.479510 Y265.755295 Z-0.125000 I0.910517 J-0.151752
G02 X109.289512 Y265.856418 Z-0.125000 I1.653002 J-6.840875
G02 X111.914827 Y264.849409 Z-0.125000 I-1.156999 J-6.942003
G02 X112.329254 Y263.919219 Z-0.125000 I-0.496091 J-0.778437
G01 X112.329254 Y263.919219 Z-0.125000
G00 Z5.000000

(End cutting path id: path4663)


(Start cutting path id: path4669)
(Change tool to Default tool)

G00 Z5.000000
G00 X101.423502 Y265.009794

G01 Z-0.125000 F100.0(Penetrate)
G02 X100.863615 Y264.158569 Z-0.125000 I-0.927024 J0.000000 F400.000000
G02 X98.151776 Y263.598683 Z-0.125000 I-2.711840 J6.287523
G02 X95.439936 Y264.158569 Z-0.125000 I0.000000 J6.847410
G02 X94.880050 Y265.009794 Z-0.125000 I0.367137 J0.851224
G02 X95.439936 Y265.861018 Z-0.125000 I0.927024 J0.000000
G02 X98.151776 Y266.420905 Z-0.125000 I2.711840 J-6.287523
G02 X100.863615 Y265.861018 Z-0.125000 I0.000000 J-6.847410
G02 X101.423502 Y265.009794 Z-0.125000 I-0.367137 J-0.851224
G01 X101.423502 Y265.009794 Z-0.125000
G00 Z5.000000

(End cutting path id: path4669)


(Start cutting path id: path4573)
(Change tool to Default tool)

G00 Z5.000000
G00 X94.698287 Y255.194616

G01 Z-0.125000 F100.0(Penetrate)
G02 X94.826881 Y254.195547 Z-0.125000 I-0.503954 J-0.572676 F400.000000
G02 X88.662265 Y246.219971 Z-0.125000 I-64.443929 J43.440869
G02 X88.245549 Y245.751184 Z-0.125000 I-62.750444 J55.360660
G02 X87.837112 Y245.298555 Z-0.125000 I-61.160158 J54.778335
G01 X87.837112 Y245.298555 Z-0.125000
G02 X82.880418 Y237.928991 Z-0.125000 I-59.791935 J34.863753
G02 X81.974908 Y237.745411 Z-0.125000 I-0.558584 J0.430213
G02 X81.669753 Y238.606621 Z-0.125000 I0.342546 J0.606044
G02 X85.564360 Y246.914424 Z-0.125000 I67.708641 J-26.674293
G01 X85.564360 Y246.914424 Z-0.125000
G02 X85.969857 Y247.386715 Z-0.125000 I64.955194 J-55.358722
G02 X86.391940 Y247.871115 Z-0.125000 I66.365200 J-57.401297
G02 X93.699921 Y255.194200 Z-0.125000 I60.838636 J-53.405162
G02 X94.698287 Y255.194616 Z-0.125000 I0.499419 J-0.566569
G01 X94.698287 Y255.194616 Z-0.125000
G00 Z5.000000

(End cutting path id: path4573)


(Start cutting path id: path4687)
(Change tool to Default tool)

G00 Z5.000000
G00 X88.154835 Y255.739903

G01 Z-0.125000 F100.0(Penetrate)
G02 X87.873825 Y255.061964 Z-0.125000 I-0.526448 J-0.178993 F400.000000
G02 X79.640938 Y251.484700 Z-0.125000 I-41.935179 J85.249206
G02 X77.482124 Y249.955190 Z-0.125000 I-84.333124 J116.742992
G02 X74.998583 Y248.262727 Z-0.125000 I-94.879208 J136.558509
G02 X62.594281 Y240.775114 Z-0.125000 I-87.423906 J130.811652
G02 X61.617505 Y241.017137 Z-0.125000 I-0.355834 J0.655983
G02 X61.769239 Y242.005192 Z-0.125000 I0.616504 J0.411003
G02 X73.672528 Y250.728948 Z-0.125000 I101.585212 J-126.127092
G02 X76.235035 Y252.400352 Z-0.125000 I94.958182 J-142.784763
G02 X78.492480 Y253.815178 Z-0.125000 I78.112913 J-122.125759
G02 X87.527042 Y256.100177 Z-0.125000 I28.995581 J-95.641221
G02 X88.154835 Y255.739903 Z-0.125000 I0.109367 J-0.536538
G01 X88.154835 Y255.739903 Z-0.125000
G00 Z5.000000

(End cutting path id: path4687)


(Start cutting path id: path4675)
(Change tool to Default tool)

G00 Z5.000000
G00 X89.245409 Y263.919219

G01 Z-0.125000 F100.0(Penetrate)
G02 X89.092848 Y262.929033 Z-0.125000 I-0.669711 J-0.403662 F400.000000
G02 X83.339523 Y258.711889 Z-0.125000 I-26.217149 J29.734168
G02 X76.923559 Y255.594116 Z-0.125000 I-20.463807 J33.951312
G02 X75.976746 Y255.921665 Z-0.125000 I-0.277103 J0.731211
G02 X76.129307 Y256.911852 Z-0.125000 I0.669711 J0.403662
G02 X81.882632 Y261.128995 Z-0.125000 I26.217149 J-29.734168
G02 X88.298596 Y264.246769 Z-0.125000 I20.463807 J-33.951312
G02 X89.245409 Y263.919219 Z-0.125000 I0.277103 J-0.731211
G01 X89.245409 Y263.919219 Z-0.125000
G00 Z5.000000

(End cutting path id: path4675)


(Start cutting path id: path4549)
(Change tool to Default tool)

G00 Z5.000000
G00 X83.429010 Y247.560589

G01 Z-0.125000 F100.0(Penetrate)
G02 X83.395171 Y246.815632 Z-0.125000 I-0.426269 J-0.353884 F400.000000
G02 X74.834364 Y238.846097 Z-0.125000 I-110.529396 J110.147007
G02 X73.835203 Y235.651714 Z-0.125000 I-250.101759 J76.475067
G02 X72.658913 Y232.058165 Z-0.125000 I-264.960998 J84.741376
G02 X71.665401 Y229.146978 Z-0.125000 I-253.987787 J85.054282
G02 X70.732343 Y226.515588 Z-0.125000 I-214.962001 J74.741743
G01 X70.732343 Y226.515588 Z-0.125000
G02 X67.901646 Y213.633159 Z-0.125000 I-182.741045 J33.402050
G02 X67.252142 Y213.207467 Z-0.125000 I-0.558409 J0.143659
G02 X66.771321 Y213.810843 Z-0.125000 I0.090457 J0.565351
G02 X68.134245 Y227.163726 Z-0.125000 I189.978988 J-12.645088
G01 X68.134245 Y227.163729 Z-0.125000
G02 X69.074526 Y229.996257 Z-0.125000 I246.329035 J-80.198667
G02 X70.153200 Y233.128938 Z-0.125000 I293.801535 J-99.412431
G02 X71.525099 Y236.966594 Z-0.125000 I301.912063 J-105.764542
G02 X72.756824 Y240.279978 Z-0.125000 I267.146694 J-97.424133
G02 X82.706965 Y247.660996 Z-0.125000 I105.602334 J-131.962261
G02 X83.429010 Y247.560589 Z-0.125000 I0.306012 J-0.445790
G01 X83.429010 Y247.560589 Z-0.125000
G00 Z5.000000

(End cutting path id: path4549)


(Start cutting path id: path4681)
(Change tool to Default tool)

G00 Z5.000000
G00 X69.251531 Y254.649328

G01 Z-0.125000 F100.0(Penetrate)
G02 X69.441977 Y253.663034 Z-0.125000 I-0.527519 J-0.613393 F400.000000
G02 X66.413519 Y249.185165 Z-0.125000 I-20.792840 J10.799512
G02 X62.439429 Y245.520538 Z-0.125000 I-17.764413 J15.277388
G02 X61.435740 Y245.561200 Z-0.125000 I-0.476171 J0.654055
G02 X61.245294 Y246.547494 Z-0.125000 I0.527519 J0.613393
G02 X64.273752 Y251.025364 Z-0.125000 I20.792840 J-10.799512
G02 X68.247842 Y254.689991 Z-0.125000 I17.764413 J-15.277388
G02 X69.251531 Y254.649328 Z-0.125000 I0.476171 J-0.654055
G01 X69.251531 Y254.649328 Z-0.125000
G00 Z5.000000

(End cutting path id: path4681)


(Start cutting path id: path4429)
(Change tool to Default tool)

G00 Z5.000000
G00 X93.309534 Y217.208145

G01 Z-0.125000 F100.0(Penetrate)
G02 X93.787697 Y216.325398 Z-0.125000 I-0.312510 J-0.740158 F400.000000
G02 X92.167536 Y210.875614 Z-0.125000 I-25.358680 J4.573143
G02 X89.391685 Y205.913786 Z-0.125000 I-23.738467 J10.022896
G02 X88.425565 Y205.640847 Z-0.125000 I-0.653609 J0.467220
G02 X87.947401 Y206.523594 Z-0.125000 I0.312510 J0.740158
G02 X89.567563 Y211.973377 Z-0.125000 I25.358680 J-4.573143
G02 X92.343413 Y216.935205 Z-0.125000 I23.738467 J-10.022896
G02 X93.309534 Y217.208145 Z-0.125000 I0.653609 J-0.467220
G01 X93.309534 Y217.208145 Z-0.125000
G00 Z5.000000

(End cutting path id: path4429)


(Start cutting path id: path4411)
(Change tool to Default tool)

G00 Z5.000000
G00 X79.942880 Y197.672265

G01 Z-0.125000 F100.0(Penetrate)
G02 X79.489542 Y198.562018 Z-0.125000 I0.254847 J0.690214 F400.000000
G02 X84.788347 Y214.869358 Z-0.125000 I208.802036 J-58.832286
G02 X91.358551 Y230.707254 Z-0.125000 I203.502423 J-75.139350
G02 X92.281330 Y231.088904 Z-0.125000 I0.667931 J-0.308566
G02 X92.734668 Y230.199151 Z-0.125000 I-0.254847 J-0.690214
G02 X87.435863 Y213.891811 Z-0.125000 I-208.802036 J58.832286
G02 X80.865659 Y198.053915 Z-0.125000 I-203.502423 J75.139350
G02 X79.942880 Y197.672265 Z-0.125000 I-0.667931 J0.308566
G01 X79.942880 Y197.672265 Z-0.125000
G00 Z5.000000

(End cutting path id: path4411)


(Start cutting path id: path4459)
(Change tool to Default tool)

G00 Z5.000000
G00 X122.356305 Y213.095329

G01 Z-0.125000 F100.0(Penetrate)
G02 X123.054330 Y212.538177 Z-0.125000 I0.022898 J-0.687146 F400.000000
G02 X123.835638 Y205.847529 Z-0.125000 I-44.751968 J-8.616903
G01 X123.835638 Y205.847526 Z-0.125000
G02 X124.457511 Y205.146719 Z-0.125000 I-52.187000 J-46.935294
G02 X125.100151 Y204.402185 Z-0.125000 I-52.551413 J-46.009078
G02 X130.232043 Y197.414191 Z-0.125000 I-46.148309 J-39.269117
G02 X130.067835 Y196.387008 Z-0.125000 I-0.667265 J-0.420046
G02 X129.057182 Y196.418312 Z-0.125000 I-0.487585 J0.588464
G02 X122.658212 Y203.309965 Z-0.125000 I46.949903 J50.010042
G02 X121.997598 Y204.138525 Z-0.125000 I61.977613 J50.092675
G02 X121.391074 Y204.920065 Z-0.125000 I60.060909 J47.237089
G01 X121.391074 Y204.920065 Z-0.125000
G02 X121.727509 Y212.515307 Z-0.125000 I54.559130 J1.388345
G02 X122.356305 Y213.095329 Z-0.125000 I0.650613 J-0.074476
G01 X122.356305 Y213.095329 Z-0.125000
G00 Z5.000000

(End cutting path id: path4459)


(Start cutting path id: path4471)
(Change tool to Default tool)

G00 Z5.000000
G00 X129.553734 Y206.926104

G01 Z-0.125000 F100.0(Penetrate)
G02 X130.518849 Y206.651489 Z-0.125000 I0.312600 J-0.734613 F400.000000
G02 X133.422684 Y201.437931 Z-0.125000 I-23.079907 J-16.270455
G02 X135.166055 Y195.730557 Z-0.125000 I-25.983823 J-11.056954
G02 X134.694756 Y194.844704 Z-0.125000 I-0.783899 J-0.151242
G02 X133.729640 Y195.119318 Z-0.125000 I-0.312600 J0.734613
G02 X130.825805 Y200.332876 Z-0.125000 I23.079907 J16.270455
G02 X129.082434 Y206.040250 Z-0.125000 I25.983823 J11.056954
G02 X129.553734 Y206.926104 Z-0.125000 I0.783899 J0.151242
G01 X129.553734 Y206.926104 Z-0.125000
G00 Z5.000000

(End cutting path id: path4471)


(Start cutting path id: path4477)
(Change tool to Default tool)

G00 Z5.000000
G00 X136.237061 Y201.528031

G01 Z-0.125000 F100.0(Penetrate)
G02 X135.573733 Y202.274321 Z-0.125000 I0.112997 J0.768375 F400.000000
G02 X136.010778 Y209.602744 Z-0.125000 I41.746872 J1.187589
G02 X136.089755 Y210.114199 Z-0.125000 I45.414132 J-6.750917
G02 X136.171478 Y210.606634 Z-0.125000 I43.900497 J-7.032549
G01 X136.171478 Y210.606634 Z-0.125000
G02 X138.982480 Y216.389241 Z-0.125000 I34.706384 J-13.296696
G02 X139.835775 Y216.694043 Z-0.125000 I0.611816 J-0.365978
G02 X140.307831 Y215.905035 Z-0.125000 I-0.245801 J-0.682778
G02 X138.873160 Y209.928903 Z-0.125000 I-34.318992 J5.078576
G01 X138.873157 Y209.928900 Z-0.125000
G02 X138.811590 Y209.446908 Z-0.125000 I-41.951828 J5.113839
G02 X138.742328 Y208.950390 Z-0.125000 I-42.807315 J5.718334
G02 X137.097766 Y202.056237 Z-0.125000 I-39.119699 J5.688560
G02 X136.237061 Y201.528031 Z-0.125000 I-0.746184 J0.250540
G01 X136.237061 Y201.528031 Z-0.125000
G00 Z5.000000

(End cutting path id: path4477)


(Start cutting path id: path4489)
(Change tool to Default tool)

G00 Z5.000000
G00 X139.578724 Y202.813285

G01 Z-0.125000 F100.0(Penetrate)
G02 X140.108218 Y202.457075 Z-0.125000 I0.064327 J-0.476023 F400.000000
G02 X141.984166 Y193.710591 Z-0.125000 I-106.158895 J-27.343410
G02 X144.286075 Y190.346969 Z-0.125000 I-174.574369 J-121.940148
G02 X147.009901 Y186.199918 Z-0.125000 I-218.526107 J-146.498259
G02 X147.102901 Y185.934478 Z-0.125000 I-266.399906 J-93.485817
G02 X147.196289 Y185.667082 Z-0.125000 I-269.984222 J-94.441627
G02 X149.444352 Y178.942691 Z-0.125000 I-260.183032 J-90.721017
G02 X150.927602 Y174.045436 Z-0.125000 I-155.445037 J-49.753474
G02 X151.479005 Y166.981184 Z-0.125000 I-81.747174 J-9.934450
G02 X151.146023 Y166.569088 Z-0.125000 I-0.404056 J-0.014092
G02 X150.686223 Y166.842702 Z-0.125000 I-0.071855 J0.402395
G02 X148.793935 Y173.487596 Z-0.125000 I76.126891 J25.270794
G02 X146.963721 Y178.115079 Z-0.125000 I145.080123 J60.056230
G02 X144.662670 Y184.470861 Z-0.125000 I235.611524 J88.895390
G02 X144.573913 Y184.727122 Z-0.125000 I245.190460 J85.065678
G02 X144.485999 Y184.981813 Z-0.125000 I243.241268 J84.104899
G02 X141.820124 Y189.345906 Z-0.125000 I234.484336 J146.234696
G02 X139.743796 Y192.894201 Z-0.125000 I182.240816 J109.022101
G02 X139.172668 Y202.339109 Z-0.125000 I116.979238 J11.813389
G02 X139.578724 Y202.813285 Z-0.125000 I0.468858 J0.009447
G01 X139.578724 Y202.813285 Z-0.125000
G00 Z5.000000

(End cutting path id: path4489)


(Start cutting path id: path4495)
(Change tool to Default tool)

G00 Z5.000000
G00 X146.776156 Y209.496615

G01 Z-0.125000 F100.0(Penetrate)
G02 X147.344296 Y208.888744 Z-0.125000 I-0.052650 J-0.618648 F400.000000
G02 X147.047417 Y197.640871 Z-0.125000 I-128.625405 J-2.232874
G01 X147.047417 Y197.640871 Z-0.125000
G02 X147.918769 Y195.853438 Z-0.125000 I-170.042937 J-84.000056
G02 X148.835599 Y193.920070 Z-0.125000 I-174.055685 J-83.723687
G02 X150.057741 Y191.250604 Z-0.125000 I-167.747494 J-78.413080
G02 X151.100698 Y188.869032 Z-0.125000 I-137.252510 J-61.525854
G01 X151.100698 Y188.869029 Z-0.125000
G02 X153.092130 Y178.758664 Z-0.125000 I-115.805415 J-28.061430
G02 X152.688330 Y178.136383 Z-0.125000 I-0.551801 J-0.084089
G02 X152.017722 Y178.466747 Z-0.125000 I-0.149273 J0.542807
G02 X148.620839 Y187.967823 Z-0.125000 I107.212370 J43.689000
G01 X148.620839 Y187.967823 Z-0.125000
G02 X147.445777 Y190.438065 Z-0.125000 I149.472510 J72.616765
G02 X146.165560 Y193.242610 Z-0.125000 I185.110598 J86.193654
G02 X145.259681 Y195.296712 Z-0.125000 I192.274133 J86.021477
G02 X144.448483 Y197.189558 Z-0.125000 I183.692624 J79.843599
G01 X144.448483 Y197.189561 Z-0.125000
G02 X146.128900 Y209.003531 Z-0.125000 I139.503271 J-13.816429
G02 X146.776156 Y209.496615 Z-0.125000 I0.595860 J-0.110810
G01 X146.776156 Y209.496615 Z-0.125000
G00 Z5.000000

(End cutting path id: path4495)


(Start cutting path id: path4501)
(Change tool to Default tool)

G00 Z5.000000
G00 X154.230635 Y219.007504

G01 Z-0.125000 F100.0(Penetrate)
G02 X154.889798 Y218.224962 Z-0.125000 I-0.090637 J-0.745235 F400.000000
G02 X153.361027 Y200.770670 Z-0.125000 I-232.454002 J11.565875
G02 X153.320961 Y200.453510 Z-0.125000 I-269.698162 J33.909375
G02 X153.280814 Y200.138831 Z-0.125000 I-244.099214 J30.982423
G01 X153.280816 Y200.138828 Z-0.125000
G02 X155.257973 Y194.442374 Z-0.125000 I-223.183758 J-80.655204
G02 X156.599318 Y190.189366 Z-0.125000 I-133.413718 J-44.415016
G01 X156.599318 Y190.189366 Z-0.125000
G02 X156.410355 Y183.143529 Z-0.125000 I-78.587538 J-1.417805
G02 X156.029994 Y182.763304 Z-0.125000 I-0.409621 J0.029406
G02 X155.591353 Y183.090478 Z-0.125000 I-0.029832 J0.417633
G02 X154.432461 Y189.732096 Z-0.125000 I73.141050 J16.184259
G01 X154.432461 Y189.732098 Z-0.125000
G02 X152.706543 Y194.022423 Z-0.125000 I139.352567 J58.551273
G02 X150.553537 Y199.832614 Z-0.125000 I235.018122 J90.391573
G01 X150.553537 Y199.832614 Z-0.125000
G02 X150.591230 Y200.157949 Z-0.125000 I286.552043 J-33.035616
G02 X150.629652 Y200.486137 Z-0.125000 I262.169013 J-30.526200
G02 X153.414423 Y218.413187 Z-0.125000 I243.952350 J-28.715505
G02 X154.230635 Y219.007504 Z-0.125000 I0.726835 J-0.140572
G01 X154.230635 Y219.007504 Z-0.125000
G00 Z5.000000

(End cutting path id: path4501)


(Start cutting path id: path4507)
(Change tool to Default tool)

G00 Z5.000000
G00 X160.142810 Y211.553021

G01 Z-0.125000 F100.0(Penetrate)
G02 X160.681476 Y211.074018 Z-0.125000 I0.000000 J-0.542382 F400.000000
G02 X161.348872 Y201.848319 Z-0.125000 I-102.323870 J-12.039204
G02 X162.981316 Y199.072163 Z-0.125000 I-146.022375 J-87.732549
G02 X164.808643 Y195.836071 Z-0.125000 I-199.424226 J-114.743042
G02 X165.709181 Y194.195957 Z-0.125000 I-213.570226 J-118.332257
G02 X166.538146 Y192.659330 Z-0.125000 I-214.583097 J-116.753262
G01 X166.538146 Y192.659330 Z-0.125000
G02 X161.958206 Y180.296467 Z-0.125000 I-152.892842 J49.610830
G02 X161.171013 Y179.935742 Z-0.125000 I-0.589035 J0.246133
G02 X160.732806 Y180.716463 Z-0.125000 I0.205236 J0.628536
G02 X164.029518 Y192.403154 Z-0.125000 I138.417232 J-32.737944
G01 X164.029518 Y192.403157 Z-0.125000
G02 X163.143041 Y193.868286 Z-0.125000 I205.442147 J125.303477
G02 X162.218041 Y195.423129 Z-0.125000 I199.213824 J119.568048
G02 X160.421325 Y198.529285 Z-0.125000 I184.755187 J108.941965
G02 X158.936747 Y201.207742 Z-0.125000 I134.043648 J76.046493
G02 X159.619124 Y211.085307 Z-0.125000 I112.971848 J-2.842136
G02 X160.142810 Y211.553021 Z-0.125000 I0.523686 J-0.059321
G01 X160.142810 Y211.553021 Z-0.125000
G00 Z5.000000

(End cutting path id: path4507)


(Start cutting path id: path4627)
(Change tool to Default tool)

G00 Z5.000000
G00 X164.495106 Y219.932682

G01 Z-0.125000 F100.0(Penetrate)
G02 X165.319478 Y219.350506 Z-0.125000 I0.017017 J-0.850656 F400.000000
G02 X165.996816 Y215.416835 Z-0.125000 I-12.629358 J-4.199797
G02 X165.477303 Y211.459230 Z-0.125000 I-13.306675 J-0.266141
G02 X164.676868 Y210.844556 Z-0.125000 I-0.817449 J0.235985
G02 X163.852496 Y211.426732 Z-0.125000 I-0.017017 J0.850656
G02 X163.175158 Y215.360402 Z-0.125000 I12.629358 J4.199797
G02 X163.694671 Y219.318007 Z-0.125000 I13.306675 J0.266141
G02 X164.495106 Y219.932682 Z-0.125000 I0.817449 J-0.235985
G01 X164.495106 Y219.932682 Z-0.125000
G00 Z5.000000

(End cutting path id: path4627)


(Start cutting path id: path4621)
(Change tool to Default tool)

G00 Z5.000000
G00 X162.313954 Y230.656672

G01 Z-0.125000 F100.0(Penetrate)
G02 X163.305910 Y230.919776 Z-0.125000 I0.710842 J-0.678531 F400.000000
G02 X165.287679 Y229.768899 Z-0.125000 I-1.401809 J-4.695571
G02 X166.529436 Y227.842773 Z-0.125000 I-3.383571 J-3.544698
G02 X166.312730 Y226.839658 Z-0.125000 I-0.927549 J-0.324583
G02 X165.320773 Y226.576555 Z-0.125000 I-0.710842 J0.678531
G02 X163.339005 Y227.727431 Z-0.125000 I1.401809 J4.695571
G02 X162.097248 Y229.653557 Z-0.125000 I3.383571 J3.544698
G02 X162.313954 Y230.656672 Z-0.125000 I0.927549 J0.324583
G01 X162.313954 Y230.656672 Z-0.125000
G00 Z5.000000

(End cutting path id: path4621)


(Start cutting path id: path4615)
(Change tool to Default tool)

G00 Z5.000000
G00 X155.770502 Y229.747860

G01 Z-0.125000 F100.0(Penetrate)
G02 X156.774342 Y229.836291 Z-0.125000 I0.560697 J-0.622997 F400.000000
G02 X160.091098 Y227.056591 Z-0.125000 I-8.172204 J-13.119765
G02 X162.507273 Y223.466370 Z-0.125000 I-11.488897 J-10.340024
G02 X162.313954 Y222.477358 Z-0.125000 I-0.754016 J-0.366015
G02 X161.310114 Y222.388927 Z-0.125000 I-0.560697 J0.622997
G02 X157.993357 Y225.168626 Z-0.125000 I8.172204 J13.119765
G02 X155.577183 Y228.758848 Z-0.125000 I11.488897 J10.340024
G02 X155.770502 Y229.747860 Z-0.125000 I0.754016 J0.366015
G01 X155.770502 Y229.747860 Z-0.125000
G00 Z5.000000

(End cutting path id: path4615)


(Start cutting path id: path4609)
(Change tool to Default tool)

G00 Z5.000000
G00 X151.408201 Y239.017751

G01 Z-0.125000 F100.0(Penetrate)
G02 X152.338343 Y239.403963 Z-0.125000 I0.719530 J-0.419725 F400.000000
G02 X156.481521 Y237.691961 Z-0.125000 I-4.172866 J-15.968066
G02 X160.011147 Y234.928161 Z-0.125000 I-8.316008 J-14.256031
G02 X160.132805 Y233.928398 Z-0.125000 I-0.597874 J-0.580037
G02 X159.202663 Y233.542185 Z-0.125000 I-0.719530 J0.419725
G02 X155.059485 Y235.254187 Z-0.125000 I4.172866 J15.968066
G02 X151.529860 Y238.017988 Z-0.125000 I8.316008 J14.256031
G02 X151.408201 Y239.017751 Z-0.125000 I0.597874 J0.580037
G01 X151.408201 Y239.017751 Z-0.125000
G00 Z5.000000

(End cutting path id: path4609)


(Start cutting path id: path4633)
(Change tool to Default tool)

G00 Z5.000000
G00 X144.319462 Y234.473685

G01 Z-0.125000 F100.0(Penetrate)
G02 X145.332731 Y234.605231 Z-0.125000 I0.581454 J-0.510545 F400.000000
G02 X151.707789 Y229.563340 Z-0.125000 I-29.438842 J-43.774319
G02 X152.338096 Y228.972869 Z-0.125000 I-45.020733 J-48.689651
G02 X152.920407 Y228.413344 Z-0.125000 I-45.169876 J-47.592212
G01 X152.920407 Y228.413344 Z-0.125000
G02 X152.098610 Y221.737659 Z-0.125000 I-42.000550 J1.781969
G02 X151.408201 Y221.205018 Z-0.125000 I-0.654352 J0.134397
G02 X150.732963 Y221.845233 Z-0.125000 I0.038760 J0.717077
G02 X150.623045 Y227.447119 Z-0.125000 I31.830369 J3.426583
G01 X150.623045 Y227.447122 Z-0.125000
G02 X150.042036 Y227.908751 Z-0.125000 I36.048825 J45.967660
G02 X149.444372 Y228.396794 Z-0.125000 I34.447552 J42.794935
G02 X144.316526 Y233.406771 Z-0.125000 I27.925547 J33.711785
G02 X144.319462 Y234.473685 Z-0.125000 I0.612400 J0.531776
G01 X144.319462 Y234.473685 Z-0.125000
G00 Z5.000000

(End cutting path id: path4633)


(Start cutting path id: path4639)
(Change tool to Default tool)

G00 Z5.000000
G00 X143.228888 Y229.020810

G01 Z-0.125000 F100.0(Penetrate)
G02 X144.225132 Y228.808021 Z-0.125000 I0.377300 J-0.672064 F400.000000
G02 X148.868340 Y221.487695 Z-0.125000 I-47.640230 J-35.350445
G02 X149.622288 Y220.042394 Z-0.125000 I-63.569092 J-34.080415
G02 X150.253805 Y218.763669 Z-0.125000 I-58.921689 J-29.894670
G01 X150.253805 Y218.763666 Z-0.125000
G02 X147.759012 Y213.294892 Z-0.125000 I-35.380225 J12.836623
G02 X147.045901 Y213.025705 Z-0.125000 I-0.515728 J0.287076
G02 X146.628983 Y213.727626 Z-0.125000 I0.213460 J0.601567
G02 X147.836770 Y218.557020 Z-0.125000 I28.228050 J-4.493847
G01 X147.836770 Y218.557020 Z-0.125000
G02 X147.103569 Y219.707704 Z-0.125000 I53.730207 J35.045085
G02 X146.332694 Y220.979994 Z-0.125000 I52.907878 J32.926343
G02 X142.877119 Y228.026691 Z-0.125000 I44.008745 J25.951733
G02 X143.228888 Y229.020810 Z-0.125000 I0.743598 J0.296175
G01 X143.228888 Y229.020810 Z-0.125000
G00 Z5.000000

(End cutting path id: path4639)


(Start cutting path id: path4483)
(Change tool to Default tool)

G00 Z5.000000
G00 X135.208857 Y235.458770

G01 Z-0.125000 F100.0(Penetrate)
G02 X136.120520 Y235.039942 Z-0.125000 I0.219099 J-0.724709 F400.000000
G02 X139.853942 Y224.954764 Z-0.125000 I-80.217554 J-35.429279
G02 X139.863833 Y224.921996 Z-0.125000 I-38.821657 J-11.736706
G02 X139.873697 Y224.889266 Z-0.125000 I-598.483672 J-180.403382
G02 X142.291170 Y218.470273 Z-0.125000 I-67.186078 J-28.967837
G02 X143.029834 Y215.402405 Z-0.125000 I-19.508588 J-6.320024
G02 X143.093753 Y214.105885 Z-0.125000 I-5.799914 J-0.935776
G02 X142.920396 Y213.866481 Z-0.125000 I-0.275381 J0.016941
G02 X142.629088 Y213.921344 Z-0.125000 I-0.102376 J0.257230
G02 X141.782756 Y214.901066 Z-0.125000 I4.127199 J4.420694
G02 X140.171076 Y217.618815 Z-0.125000 I18.848095 J13.014053
G02 X137.227362 Y223.921881 Z-0.125000 I105.997182 J53.342679
G02 X137.217305 Y223.955038 Z-0.125000 I27.521200 J8.365402
G03 X137.207239 Y223.988260 Z-0.125000 I-52.155837 J-15.784931
G02 X134.685096 Y234.609146 Z-0.125000 I85.931957 J26.016180
G02 X135.208866 Y235.458770 Z-0.125000 I0.741609 J0.129076
G01 X135.208857 Y235.458770 Z-0.125000
G00 Z5.000000

(End cutting path id: path4483)


(Start cutting path id: path4447)
(Change tool to Default tool)

G00 Z5.000000
G00 X127.240273 Y234.944669

G01 Z-0.125000 F100.0(Penetrate)
G02 X127.661137 Y234.037646 Z-0.125000 I-0.306075 J-0.693173 F400.000000
G02 X124.161274 Y224.478209 Z-0.125000 I-75.347877 J22.165667
G02 X119.454377 Y215.451748 Z-0.125000 I-71.847987 J31.725076
G02 X118.500537 Y215.151736 Z-0.125000 I-0.647764 J0.393163
G02 X118.079673 Y216.058758 Z-0.125000 I0.306075 J0.693173
G02 X121.579536 Y225.618195 Z-0.125000 I75.347877 J-22.165667
G02 X126.286434 Y234.644656 Z-0.125000 I71.847987 J-31.725076
G02 X127.240273 Y234.944669 Z-0.125000 I0.647764 J-0.393163
G01 X127.240273 Y234.944669 Z-0.125000
G00 Z5.000000

(End cutting path id: path4447)


(Start cutting path id: path4465)
(Change tool to Default tool)

G00 Z5.000000
G00 X131.610143 Y226.719034

G01 Z-0.125000 F100.0(Penetrate)
G02 X132.387959 Y226.087919 Z-0.125000 I0.012568 J-0.779377 F400.000000
G02 X133.149595 Y218.773208 Z-0.125000 I-41.252158 J-7.992343
G02 X132.624252 Y211.437737 Z-0.125000 I-42.013751 J-0.677658
G02 X131.867194 Y210.781869 Z-0.125000 I-0.769629 J0.123505
G02 X131.089378 Y211.412983 Z-0.125000 I-0.012568 J0.779377
G02 X130.327742 Y218.727694 Z-0.125000 I41.252158 J7.992343
G02 X130.853085 Y226.063165 Z-0.125000 I42.013751 J0.677658
G02 X131.610143 Y226.719034 Z-0.125000 I0.769629 J-0.123505
G01 X131.610143 Y226.719034 Z-0.125000
G00 Z5.000000

(End cutting path id: path4465)


(Start cutting path id: path4603)
(Change tool to Default tool)

G00 Z5.000000
G00 X143.410650 Y245.197675

G01 Z-0.125000 F100.0(Penetrate)
G02 X144.210055 Y245.820846 Z-0.125000 I0.784580 J-0.182135 F400.000000
G02 X150.019713 Y245.092372 Z-0.125000 I-0.507723 J-27.579713
G02 X152.094666 Y244.525538 Z-0.125000 I-6.919977 J-29.412439
G02 X153.680643 Y243.962603 Z-0.125000 I-6.457901 J-20.709673
G02 X155.949431 Y243.490944 Z-0.125000 I-0.867775 J-9.866721
G02 X156.315789 Y243.016526 Z-0.125000 I-0.170331 J-0.510198
G02 X156.022696 Y242.524823 Z-0.125000 I-0.502765 J-0.033517
G02 X153.498063 Y241.706925 Z-0.125000 I-4.775902 J10.436544
G02 X151.844768 Y241.897731 Z-0.125000 I1.524570 J20.468171
G02 X149.641998 Y242.322169 Z-0.125000 I4.977677 J31.761638
G02 X143.849978 Y244.299620 Z-0.125000 I6.599397 J28.801099
G02 X143.410650 Y245.197675 Z-0.125000 I0.332132 J0.718966
G01 X143.410650 Y245.197675 Z-0.125000
G00 Z5.000000

(End cutting path id: path4603)


(Start cutting path id: path4651)
(Change tool to Default tool)

G00 Z5.000000
G00 X143.774175 Y251.377602

G01 Z-0.125000 F100.0(Penetrate)
G02 X144.706326 Y251.837012 Z-0.125000 I0.884398 J-0.619080 F400.000000
G02 X146.401020 Y251.261290 Z-0.125000 I-0.141647 J-3.199063
G02 X147.522028 Y249.866021 Z-0.125000 I-1.836340 J-2.623343
G02 X147.409426 Y248.832926 Z-0.125000 I-0.996999 J-0.414016
G02 X146.477274 Y248.373516 Z-0.125000 I-0.884398 J0.619080
G02 X144.782580 Y248.949238 Z-0.125000 I0.141647 J3.199063
G02 X143.661572 Y250.344507 Z-0.125000 I1.836340 J2.623343
G02 X143.774175 Y251.377602 Z-0.125000 I0.996999 J0.414016
G01 X143.774175 Y251.377602 Z-0.125000
G00 Z5.000000

(End cutting path id: path4651)


(Start cutting path id: path4645)
(Change tool to Default tool)

G00 Z5.000000
G00 X128.869647 Y260.102206

G01 Z-0.125000 F100.0(Penetrate)
G02 X129.778434 Y260.591196 Z-0.125000 I0.728485 J-0.264903 F400.000000
G02 X137.635303 Y258.078566 Z-0.125000 I-12.842685 J-53.698755
G02 X137.715977 Y258.045883 Z-0.125000 I-30.441663 J-75.259185
G02 X137.796155 Y258.013296 Z-0.125000 I-27.263670 J-67.195117
G02 X138.483395 Y255.539319 Z-0.125000 I-64.772974 J-19.325570
G02 X138.934465 Y253.545636 Z-0.125000 I-33.603557 J-8.650651
G02 X139.570328 Y249.919409 Z-0.125000 I-19.954815 J-5.367967
G02 X139.230112 Y249.378216 Z-0.125000 I-0.529329 J-0.044775
G02 X138.626275 Y249.555178 Z-0.125000 I-0.185300 J0.486412
G02 X136.617556 Y252.844822 Z-0.125000 I17.539767 J12.968218
G02 X136.258662 Y254.420537 Z-0.125000 I20.801595 J5.566621
G02 X135.938241 Y256.374714 Z-0.125000 I40.729404 J7.681637
G02 X135.866254 Y256.397455 Z-0.125000 I16.552948 J52.524754
G02 X135.794088 Y256.420358 Z-0.125000 I17.663099 J55.780507
G02 X129.270873 Y259.088154 Z-0.125000 I13.317939 J41.873699
G02 X128.869647 Y260.102206 Z-0.125000 I0.371065 J0.733220
G01 X128.869647 Y260.102206 Z-0.125000
G00 Z5.000000

(End cutting path id: path4645)


(Start cutting path id: path4657)
(Change tool to Default tool)

G00 Z5.000000
G00 X124.507344 Y263.010405

G01 Z-0.125000 F100.0(Penetrate)
G02 X124.288723 Y262.004132 Z-0.125000 I-0.956943 J-0.318981 F400.000000
G02 X122.499781 Y260.853775 Z-0.125000 I-3.149743 J2.932036
G02 X120.378415 Y260.700697 Z-0.125000 I-1.360792 J4.082392
G02 X119.599756 Y261.374543 Z-0.125000 I0.178285 J0.992827
G02 X119.818376 Y262.380815 Z-0.125000 I0.956943 J0.318981
G02 X121.607318 Y263.531172 Z-0.125000 I3.149743 J-2.932036
G02 X123.728684 Y263.684250 Z-0.125000 I1.360792 J-4.082392
G02 X124.507344 Y263.010405 Z-0.125000 I-0.178285 J-0.992827
G01 X124.507344 Y263.010405 Z-0.125000
G00 Z5.000000

(End cutting path id: path4657)


(Start cutting path id: path4597)
(Change tool to Default tool)

G00 Z5.000000
G00 X124.507344 Y249.014688

G01 Z-0.125000 F100.0(Penetrate)
G02 X125.144915 Y249.796493 Z-0.125000 I0.777382 J0.016911 F400.000000
G02 X132.161684 Y250.438505 Z-0.125000 I7.083604 J-38.753795
G02 X132.747046 Y250.435867 Z-0.125000 I0.071180 J-49.149396
G02 X133.303956 Y250.426680 Z-0.125000 I-0.482920 J-46.158671
G01 X133.303956 Y250.426680 Z-0.125000
G02 X137.599404 Y246.092869 Z-0.125000 I-21.805835 J-25.908429
G02 X137.594248 Y245.197689 Z-0.125000 I-0.537771 J-0.444507
G02 X136.662114 Y245.028257 Z-0.125000 I-0.568975 J0.481439
G02 X132.432889 Y247.966250 Z-0.125000 I12.793431 J22.929053
G01 X132.432889 Y247.966250 Z-0.125000
G02 X131.925711 Y247.933790 Z-0.125000 I-2.813856 J39.987828
G02 X131.403229 Y247.907195 Z-0.125000 I-2.241346 J38.886792
G02 X125.202837 Y248.226178 Z-0.125000 I-1.436026 J32.507551
G02 X124.507344 Y249.014702 Z-0.125000 I0.119335 J0.806237
G01 X124.507344 Y249.014688 Z-0.125000
G00 Z5.000000

(End cutting path id: path4597)


(Start cutting path id: path4453)
(Change tool to Default tool)

G00 Z5.000000
G00 X120.042845 Y247.026069

G01 Z-0.125000 F100.0(Penetrate)
G02 X120.618875 Y246.207421 Z-0.125000 I-0.192525 J-0.747450 F400.000000
G02 X119.224420 Y238.191404 Z-0.125000 I-50.777982 J4.703969
G02 X116.572819 Y230.499195 Z-0.125000 I-49.383365 J12.719945
G02 X115.672978 Y230.060697 Z-0.125000 I-0.707315 J0.308951
G02 X115.096947 Y230.879345 Z-0.125000 I0.192525 J0.747450
G02 X116.491403 Y238.895362 Z-0.125000 I50.777982 J-4.703969
G02 X119.143004 Y246.587571 Z-0.125000 I49.383365 J-12.719945
G02 X120.042845 Y247.026069 Z-0.125000 I0.707315 J-0.308951
G01 X120.042845 Y247.026069 Z-0.125000
G00 Z5.000000

(End cutting path id: path4453)


(Start cutting path id: path4513)
(Change tool to Default tool)

G00 Z5.000000
G00 X164.255626 Y177.879332

G01 Z-0.125000 F100.0(Penetrate)
G02 X164.433236 Y176.891369 Z-0.125000 I-0.480979 J-0.596414 F400.000000
G02 X159.206462 Y169.376535 Z-0.125000 I-55.198971 J32.817313
G02 X159.088219 Y169.230433 Z-0.125000 I-53.577191 J43.239828
G02 X158.970620 Y169.085928 Z-0.125000 I-53.747466 J43.620084
G01 X158.970620 Y169.085928 Z-0.125000
G02 X153.655022 Y162.077420 Z-0.125000 I-51.984787 J33.907758
G02 X152.688330 Y161.942167 Z-0.125000 I-0.561710 J0.492468
G02 X152.415342 Y162.873502 Z-0.125000 I0.402326 J0.623604
G02 X156.688080 Y170.735571 Z-0.125000 I58.011734 J-26.435116
G01 X156.688080 Y170.735574 Z-0.125000
G02 X156.806036 Y170.883157 Z-0.125000 I55.917637 J-44.571310
G02 X156.925499 Y171.031814 Z-0.125000 I55.623746 J-44.577895
G02 X163.257816 Y177.843156 Z-0.125000 I51.264800 J-41.310305
G02 X164.255626 Y177.879332 Z-0.125000 I0.519742 J-0.556631
G01 X164.255626 Y177.879332 Z-0.125000
G00 Z5.000000

(End cutting path id: path4513)


(Start cutting path id: path4381)
(Change tool to Default tool)

G00 Z5.000000
G00 X148.961089 Y154.230637

G01 Z-0.125000 F100.0(Penetrate)
G02 X149.579448 Y155.115404 Z-0.125000 I0.812919 J0.090323 F400.000000
G02 X152.806014 Y155.444655 Z-0.125000 I2.794453 J-11.410509
G01 X152.806014 Y155.444655 Z-0.125000
G02 X152.786723 Y155.578134 Z-0.125000 I32.631190 J4.784237
G02 X152.767959 Y155.712193 Z-0.125000 I27.593930 J3.930499
G02 X152.747018 Y159.272185 Z-0.125000 I13.535758 J1.859681
G02 X153.588007 Y160.014284 Z-0.125000 I0.840989 J-0.105479
G02 X154.356731 Y159.336444 Z-0.125000 I0.000000 J-0.774817
G02 X154.408054 Y154.391438 Z-0.125000 I-21.358561 J-2.694446
G02 X154.389212 Y154.216174 Z-0.125000 I-36.613762 J3.847656
G02 X154.369999 Y154.044822 Z-0.125000 I-39.597173 J4.352961
G01 X154.369999 Y154.044822 Z-0.125000
G02 X149.679504 Y153.575508 Z-0.125000 I-4.319625 J19.497991
G02 X148.961089 Y154.230637 Z-0.125000 I0.013679 J0.736472
G01 X148.961089 Y154.230637 Z-0.125000
G00 Z5.000000

(End cutting path id: path4381)


(Start cutting path id: path4405)
(Change tool to Default tool)

G00 Z5.000000
G00 X120.556946 Y141.378081

G01 Z-0.125000 F100.0(Penetrate)
G02 X121.506128 Y140.912149 Z-0.125000 I0.092028 J-1.012310 F400.000000
G02 X122.143667 Y138.986259 Z-0.125000 I-3.487218 J-2.222865
G02 X122.145616 Y138.958017 Z-0.125000 I-2.376745 J-0.178167
G03 X122.147393 Y138.929840 Z-0.125000 I444.724028 J28.030025
G02 X122.628389 Y137.111518 Z-0.125000 I-4.627200 J-2.196800
G02 X122.373585 Y136.332165 Z-0.125000 I-1.075543 J-0.079690
G02 X122.165659 Y136.151296 Z-0.125000 I-0.413748 J0.265693
G02 X121.970725 Y136.108535 Z-0.125000 I-0.194934 J0.422941
G02 X121.745796 Y136.130878 Z-0.125000 I-0.000000 J1.143371
G03 X121.567864 Y136.141959 Z-0.125000 I-0.129507 J-0.645453
G02 X120.607638 Y136.680666 Z-0.125000 I0.576508 J2.152741
G02 X119.480596 Y138.171204 Z-0.125000 I3.981923 J4.182219
G02 X119.476796 Y138.204696 Z-0.125000 I51.707642 J5.883295
G02 X119.473089 Y138.238441 Z-0.125000 I5.240916 J0.592873
G02 X119.767564 Y140.763573 Z-0.125000 I5.729815 J0.611539
G02 X120.556949 Y141.378081 Z-0.125000 I0.873196 J-0.307422
G01 X120.556946 Y141.378081 Z-0.125000
G00 Z5.000000

(End cutting path id: path4405)


(Start cutting path id: path4393)
(Change tool to Default tool)

G00 Z5.000000
G00 X91.253127 Y112.845415

G01 Z-0.125000 F100.0(Penetrate)
G02 X91.965745 Y113.265491 Z-0.125000 I0.589159 J-0.184969 F400.000000
G02 X102.292969 Y110.665222 Z-0.125000 I-23.469683 J-115.020095
G01 X102.292972 Y110.665222 Z-0.125000
G02 X104.195397 Y111.361460 Z-0.125000 I62.233271 J-167.101219
G02 X106.259851 Y112.089700 Z-0.125000 I61.424263 J-170.838568
G02 X110.511779 Y113.498611 Z-0.125000 I55.807106 J-161.298847
G02 X113.967611 Y114.535485 Z-0.125000 I35.477831 J-111.967771
G02 X119.956085 Y118.120893 Z-0.125000 I39.506025 J-59.190573
G02 X120.556946 Y117.986437 Z-0.125000 I0.222305 J-0.416361
G02 X120.513158 Y117.384502 Z-0.125000 I-0.370136 J-0.275634
G02 X115.064885 Y112.440601 Z-0.125000 I-53.579625 J53.571762
G02 X111.431503 Y111.089827 Z-0.125000 I-48.017748 J123.598632
G02 X106.721298 Y109.479621 Z-0.125000 I-69.915063 J196.822583
G02 X104.418164 Y108.736865 Z-0.125000 I-68.472425 J208.376839
G02 X102.319670 Y108.085232 Z-0.125000 I-61.759985 J195.184547
G01 X102.319670 Y108.085232 Z-0.125000
G02 X91.589551 Y112.115178 Z-0.125000 I40.535042 J124.228393
G02 X91.253127 Y112.845415 Z-0.125000 I0.234941 J0.550853
G01 X91.253127 Y112.845415 Z-0.125000
G00 Z5.000000

(End cutting path id: path4393)


(Footer)
M5
G00 X0.0000 Y0.0000
M2
(Using default footer. To add your own footer create file "footer" in the output dir.)
(end)
%