%
(Header)
(Generated by gcodetools from Inkscape.)
(Using default header. To add your own header create file "header" in the output dir.)
M3
(Header end.)
G21 (All units in mm)

(Start cutting path id: path5054)
(Change tool to Default tool)

G00 Z5.000000
G00 X25.606221 Y1.255072

G01 Z-0.125000 F100.0(Penetrate)
G03 X25.242546 Y1.342001 Z-0.125000 I-0.483457 J-1.218391 F400.000000
G03 X23.580414 Y1.441000 Z-0.125000 I-2.376571 J-25.898537
G02 X21.924184 Y1.550164 Z-0.125000 I0.587954 J21.539090
G02 X21.607636 Y1.647361 Z-0.125000 I0.089642 J0.856002
G03 X21.294650 Y1.754987 Z-0.125000 I-0.489632 J-0.914986
G03 X20.678928 Y1.807776 Z-0.125000 I-0.615723 J-3.564444
G02 X20.126603 Y1.884398 Z-0.125000 I-0.000000 J2.028999
G02 X20.049971 Y1.985717 Z-0.125000 I0.028663 J0.101319
G02 X20.131036 Y2.072473 Z-0.125000 I0.086956 J0.000000
G02 X21.009528 Y2.050854 Z-0.125000 I0.322592 J-4.751054
G03 X21.924018 Y2.108470 Z-0.125000 I0.298849 J2.542863
G03 X22.687750 Y2.466595 Z-0.125000 I-0.521686 J2.105966
G03 X23.180656 Y3.001726 Z-0.125000 I-1.127369 J1.532985
G03 X23.146222 Y3.211041 Z-0.125000 I-0.137744 J0.084830
G03 X22.213589 Y3.588835 Z-0.125000 I-1.060373 J-1.277606
G03 X20.891147 Y3.385059 Z-0.125000 I-0.225874 J-2.927154
G03 X19.742591 Y2.697490 Z-0.125000 I1.602077 J-3.979293
G03 X19.715707 Y2.402841 Z-0.125000 I0.134378 J-0.160812
G02 X19.706308 Y2.259390 Z-0.125000 I-0.080452 J-0.066762
G02 X19.454207 Y2.160554 Z-0.125000 I-0.252101 J0.272098
G02 X19.222278 Y2.563700 Z-0.125000 I0.000000 J0.268287
G02 X20.182263 Y3.412661 Z-0.125000 I1.760842 J-1.023873
G03 X20.705161 Y3.691009 Z-0.125000 I-1.369952 J3.203878
G03 X20.755527 Y3.783585 Z-0.125000 I-0.059898 J0.092576
G03 X20.710742 Y3.886952 Z-0.125000 I-0.141683 J-0.000000
G03 X20.095862 Y4.401991 Z-0.125000 I-4.913825 J-5.241826
G02 X16.446088 Y7.834789 Z-0.125000 I13.249752 J17.743857
G02 X12.806840 Y13.009345 Z-0.125000 I26.941186 J22.814659
G02 X11.453386 Y15.588621 Z-0.125000 I31.567269 J18.209413
G02 X11.027643 Y16.756726 Z-0.125000 I5.998087 J2.847779
G03 X10.874474 Y17.329097 Z-0.125000 I-50.023971 J-13.080006
G03 X10.689632 Y17.991448 Z-0.125000 I-67.172719 J-18.388863
G02 X9.807556 Y21.408504 Z-0.125000 I69.404055 J19.738282
G02 X9.227714 Y24.287092 Z-0.125000 I48.660628 J11.299542
G03 X8.840038 Y25.347691 Z-0.125000 I-3.090620 J-0.528548
G03 X8.416062 Y25.667613 Z-0.125000 I-0.597977 J-0.351570
G02 X7.867523 Y25.910626 Z-0.125000 I0.462333 J1.784193
G02 X7.325575 Y26.382874 Z-0.125000 I1.451120 J2.212385
G03 X6.831131 Y26.758682 Z-0.125000 I-1.159484 J-1.012344
G03 X6.617404 Y26.722145 Z-0.125000 I-0.081062 J-0.169202
G02 X5.686429 Y26.814086 Z-0.125000 I-0.427780 J0.427781
G02 X4.025404 Y30.605785 Z-0.125000 I9.852641 J6.575805
G02 X3.880968 Y31.453167 Z-0.125000 I6.109905 J1.477433
G02 X3.822193 Y32.623005 Z-0.125000 I11.612665 J1.169838
G03 X3.738932 Y33.788443 Z-0.125000 I-8.198181 J0.000000
G03 X3.474237 Y35.045821 Z-0.125000 I-9.814303 J-1.409498
G02 X2.876883 Y38.263037 Z-0.125000 I17.780216 J4.965389
G02 X2.587796 Y44.364483 Z-0.125000 I64.039338 J6.091764
G02 X3.074048 Y52.269262 Z-0.125000 I64.655433 J-0.009849
G02 X4.007019 Y55.870962 Z-0.125000 I14.161671 J-1.746701
G03 X4.126607 Y56.230783 Z-0.125000 I-2.776712 J1.122636
G03 X4.355444 Y57.193879 Z-0.125000 I-19.741335 J5.199387
G02 X4.752291 Y58.810785 Z-0.125000 I25.736339 J-5.459463
G02 X5.069698 Y59.751518 Z-0.125000 I9.011015 J-2.516438
G03 X5.199815 Y60.107842 Z-0.125000 I-6.213016 J2.470702
G03 X5.422475 Y60.809851 Z-0.125000 I-23.909279 J7.969760
G02 X5.643335 Y61.512559 Z-0.125000 I29.397642 J-8.853565
G02 X5.769111 Y61.868184 Z-0.125000 I7.651673 J-2.506153
G03 X5.899591 Y62.222289 Z-0.125000 I-17.073469 J6.492314
G03 X6.115249 Y62.838323 Z-0.125000 I-51.476024 J18.366167
G02 X6.455367 Y63.753560 Z-0.125000 I18.445650 J-6.333925
G02 X6.979614 Y64.997165 Z-0.125000 I34.591229 J-13.849768
G03 X7.321996 Y65.839007 Z-0.125000 I-13.497392 J5.980016
G03 X7.349971 Y65.994733 Z-0.125000 I-0.419452 J0.155726
G02 X7.380059 Y66.149256 Z-0.125000 I0.411835 J-0.000000
G02 X7.689890 Y66.834502 Z-0.125000 I8.711959 J-3.526403
G03 X8.028798 Y67.513131 Z-0.125000 I-227.617165 J114.096380
G03 X9.694745 Y70.864018 Z-0.125000 I-5553.321144 J2763.012627
G02 X11.370009 Y74.210118 Z-0.125000 I540.449468 J-268.489917
G02 X11.941889 Y75.317812 Z-0.125000 I59.780881 J-30.162165
G03 X12.445043 Y76.408289 Z-0.125000 I-9.912367 J5.234958
G03 X12.421410 Y76.522904 Z-0.125000 I-0.098897 J0.039352
G03 X12.300505 Y76.568739 Z-0.125000 I-0.111359 J-0.111362
G03 X11.289556 Y76.454177 Z-0.125000 I0.591223 J-9.734992
G03 X7.226133 Y75.726904 Z-0.125000 I28.101670 J-168.724973
G03 X4.351360 Y75.125779 Z-0.125000 I16.281752 J-85.039297
G02 X2.507437 Y74.739283 Z-0.125000 I-12.645460 J55.738039
G02 X2.437516 Y74.757445 Z-0.125000 I-0.015883 J0.082526
G02 X2.453622 Y74.994011 Z-0.125000 I0.094372 J0.112406
G02 X3.116638 Y75.185546 Z-0.125000 I0.663016 J-1.051783
G03 X3.588165 Y75.251585 Z-0.125000 I-0.000000 J1.716385
G03 X3.733999 Y75.361934 Z-0.125000 I-0.069563 J0.243472
G02 X3.884232 Y75.464392 Z-0.125000 I0.190239 J-0.117574
G02 X4.704138 Y75.538323 Z-0.125000 I0.819906 J-4.509480
G03 X5.524043 Y75.612254 Z-0.125000 I0.000000 J4.583411
G03 X5.674276 Y75.714712 Z-0.125000 I-0.040006 J0.220032
G02 X5.820260 Y75.824793 Z-0.125000 I0.214425 J-0.132522
G02 X6.299516 Y75.891101 Z-0.125000 I0.479256 J-1.698802
G03 X7.187088 Y75.978158 Z-0.125000 I-0.000000 J4.568077
G03 X9.025665 Y76.431080 Z-0.125000 I-4.001158 J20.200370
G02 X9.562038 Y76.544197 Z-0.125000 I0.976538 J-3.302252
G02 X10.569068 Y76.629990 Z-0.125000 I1.496266 J-11.609961
G03 X11.518978 Y76.734108 Z-0.125000 I-0.296760 J7.092690
G03 X11.583304 Y76.810925 Z-0.125000 I-0.013703 J0.076817
G02 X11.643497 Y76.889242 Z-0.125000 I0.081046 J0.000000
G02 X12.103494 Y76.949434 Z-0.125000 I0.459998 J-1.727590
G03 X12.722213 Y77.236457 Z-0.125000 I0.000000 J0.810381
G03 X14.117735 Y79.330684 Z-0.125000 I-8.423373 J7.125125
G02 X14.762366 Y80.558919 Z-0.125000 I62.791868 J-32.172609
G02 X15.292927 Y81.517303 Z-0.125000 I38.756641 J-20.829639
G03 X15.694608 Y82.450339 Z-0.125000 I-3.964938 J2.259923
G03 X15.641322 Y82.663831 Z-0.125000 I-0.204885 J0.062258
G03 X15.410556 Y82.775154 Z-0.125000 I-0.274183 J-0.273520
G03 X13.030162 Y82.958417 Z-0.125000 I-3.769942 J-33.416591
G02 X10.795431 Y83.089149 Z-0.125000 I2.704145 J65.389916
G01 X10.789554 Y83.127987 Z-0.125000
G02 X10.972147 Y83.165213 Z-0.125000 I0.196677 J-0.498289
G02 X13.695685 Y83.204424 Z-0.125000 I3.009501 J-114.427075
G03 X16.291208 Y83.373753 Z-0.125000 I-0.051906 J20.772755
G03 X16.494215 Y83.564018 Z-0.125000 I-0.030294 J0.235757
G02 X16.597624 Y83.894384 Z-0.125000 I1.536722 J-0.299644
G02 X16.688045 Y84.004990 Z-0.125000 I0.244109 J-0.107298
G03 X16.790522 Y84.113195 Z-0.125000 I-0.218038 J0.309124
G03 X17.240903 Y84.886934 Z-0.125000 I-11.566975 J7.250909
G02 X17.681496 Y85.671178 Z-0.125000 I22.601960 J-12.182028
G02 X17.756915 Y85.768879 Z-0.125000 I0.417219 J-0.244108
G03 X17.834348 Y85.865241 Z-0.125000 I-0.403696 J0.403685
G03 X18.081854 Y86.277587 Z-0.125000 I-7.281833 J4.651285
G03 X18.017711 Y86.669149 Z-0.125000 I-0.276603 J0.155723
G03 X16.567578 Y87.641756 Z-0.125000 I-4.114467 J-4.567205
G03 X13.457731 Y88.963910 Z-0.125000 I-15.827123 J-32.908664
G03 X12.587895 Y89.120268 Z-0.125000 I-0.869837 J-2.341320
G02 X12.399273 Y89.193435 Z-0.125000 I-0.000000 J0.279713
G02 X12.383436 Y89.306983 Z-0.125000 I0.060570 J0.066326
G02 X12.695709 Y89.457175 Z-0.125000 I0.273575 J-0.169078
G02 X14.008652 Y89.109995 Z-0.125000 I-0.594405 J-4.904077
G03 X14.406202 Y88.945531 Z-0.125000 I20.017598 J47.824887
G03 X14.802402 Y88.785476 Z-0.125000 I19.362529 J47.359478
G02 X16.095389 Y88.242959 Z-0.125000 I-14.835536 J-37.169737
G02 X17.530990 Y87.583963 Z-0.125000 I-20.469168 J-46.484648
G03 X18.440766 Y87.577792 Z-0.125000 I0.461457 J0.965389
G03 X19.331324 Y88.414712 Z-0.125000 I-0.808931 J1.753052
G02 X19.773019 Y89.200346 Z-0.125000 I22.331868 J-12.038316
G02 X20.209665 Y89.914018 Z-0.125000 I18.862616 J-11.050312
G03 X20.657153 Y90.621411 Z-0.125000 I-84.548906 J53.979834
G03 X20.840117 Y90.919909 Z-0.125000 I-14.867141 J9.318147
G02 X21.052773 Y91.268085 Z-0.125000 I20.838457 J-12.488506
G02 X23.532001 Y95.245190 Z-0.125000 I2722.122767 J-1694.141473
G02 X24.570249 Y96.855755 Z-0.125000 I56.271787 J-35.135588
G02 X24.842895 Y97.215612 Z-0.125000 I3.066293 J-2.039965
G03 X25.232603 Y98.107342 Z-0.125000 I-1.258309 J1.080934
G03 X25.517026 Y103.087491 Z-0.125000 I-43.299684 J4.971102
G02 X25.917358 Y109.435843 Z-0.125000 I50.373354 J0.010216
G02 X26.727818 Y112.633739 Z-0.125000 I13.440696 J-1.704699
G02 X27.695367 Y114.224434 Z-0.125000 I4.950679 J-1.921672
G02 X28.212761 Y114.317709 Z-0.125000 I0.317592 J-0.280056
G02 X28.735574 Y113.893396 Z-0.125000 I-0.839525 J-1.568661
G02 X29.984943 Y112.207939 Z-0.125000 I-13.226508 J-11.110120
G02 X31.807984 Y109.114841 Z-0.125000 I-33.789530 J-21.999005
G02 X32.971221 Y106.582768 Z-0.125000 I-21.450863 J-11.387777
G03 X33.152749 Y106.145767 Z-0.125000 I10.767368 J4.216510
G03 X33.299716 Y105.835508 Z-0.125000 I5.570840 J2.448928
G02 X33.415071 Y105.519524 Z-0.125000 I-1.246606 J-0.634142
G02 X33.455526 Y105.168513 Z-0.125000 I-1.502599 J-0.351011
G03 X33.529352 Y104.861564 Z-0.125000 I0.675011 J0.000000
G03 X33.676012 Y104.736673 Z-0.125000 I0.223822 J0.114277
G03 X33.972873 Y104.688150 Z-0.125000 I0.308903 J0.957503
G03 X43.345114 Y104.599136 Z-0.125000 I22.694279 J1896.020401
G03 X52.722313 Y104.556446 Z-0.125000 I13.318520 J1895.608691
G03 X52.998170 Y104.600916 Z-0.125000 I0.001802 J0.866660
G03 X53.135510 Y104.726355 Z-0.125000 I-0.072389 J0.217162
G03 X53.211081 Y105.087752 Z-0.125000 I-0.826354 J0.361397
G02 X53.273407 Y105.468866 Z-0.125000 I1.196397 J-0.000000
G02 X53.387470 Y105.612629 Z-0.125000 I0.256107 J-0.086067
G03 X53.507049 Y105.753317 Z-0.125000 I-0.157751 J0.255246
G03 X53.563859 Y106.039645 Z-0.125000 I-0.693166 J0.286329
G02 X53.684378 Y106.566647 Z-0.125000 I1.212482 J-0.000000
G02 X55.284269 Y109.604383 Z-0.125000 I44.041300 J-21.255137
G02 X57.099268 Y112.442800 Z-0.125000 I29.817980 J-17.067329
G02 X58.620768 Y114.298108 Z-0.125000 I14.203559 J-10.096512
G02 X59.315399 Y114.196389 Z-0.125000 I0.311742 J-0.293791
G02 X61.025651 Y109.504053 Z-0.125000 I-19.377638 J-9.720560
G02 X61.266024 Y107.888829 Z-0.125000 I-9.210874 J-2.196236
G02 X61.428111 Y102.957282 Z-0.125000 I-86.287081 J-5.304463
G01 X61.449447 Y98.008879 Z-0.125000
G01 X63.239286 Y95.332682 Z-0.125000
G02 X64.996912 Y92.646706 Z-0.125000 I-132.924655 J-88.900190
G02 X65.029128 Y92.536624 Z-0.125000 I-0.171968 J-0.110082
G03 X65.059842 Y92.426899 Z-0.125000 I0.211352 J-0.000000
G03 X65.433482 Y91.870944 Z-0.125000 I6.243074 J3.792237
G02 X65.821904 Y91.314218 Z-0.125000 I-9.594059 J-7.107535
G02 X67.035999 Y89.428948 Z-0.125000 I-108.947868 J-71.494934
G03 X68.562813 Y87.915781 Z-0.125000 I4.048606 J2.558243
G03 X69.554474 Y87.869030 Z-0.125000 I0.537873 J0.868391
G02 X70.237060 Y88.195624 Z-0.125000 I11.950678 J-24.100501
G02 X70.938156 Y88.507318 Z-0.125000 I11.587515 J-25.119542
G03 X71.643603 Y88.809597 Z-0.125000 I-417.665262 J975.703340
G03 X72.172878 Y89.036913 Z-0.125000 I-238.099873 J555.113500
G02 X72.709930 Y89.239787 Z-0.125000 I2.522871 J-5.866316
G02 X73.187115 Y89.368767 Z-0.125000 I1.472163 J-4.499318
G03 X73.671757 Y89.474959 Z-0.125000 I-13.201526 J61.408988
G03 X74.157253 Y89.585353 Z-0.125000 I-13.801799 J61.820723
G02 X74.474024 Y89.600858 Z-0.125000 I0.201329 J-0.869576
G01 X74.495333 Y89.541256 Z-0.125000
G02 X74.336299 Y89.408403 Z-0.125000 I-0.628250 J0.590448
G02 X74.230750 Y89.369617 Z-0.125000 I-0.138169 J0.212989
G03 X74.115732 Y89.344376 Z-0.125000 I0.086937 J-0.670817
G03 X73.848573 Y89.250059 Z-0.125000 I1.168843 J-3.736380
G02 X73.581990 Y89.151200 Z-0.125000 I-2.548613 J6.463733
G02 X72.437462 Y88.759371 Z-0.125000 I-41.302266 J118.775771
G03 X71.302776 Y88.344601 Z-0.125000 I7.589162 J-22.521146
G03 X70.673573 Y88.063292 Z-0.125000 I2.839790 J-7.196076
G02 X70.055734 Y87.754528 Z-0.125000 I-100.149824 J199.627657
G02 X69.394753 Y87.426669 Z-0.125000 I-113.885299 J228.768862
G03 X68.744647 Y86.799181 Z-0.125000 I0.658828 J-1.333090
G03 X68.865587 Y86.445035 Z-0.125000 I0.224541 J-0.121042
G02 X69.232304 Y86.122910 Z-0.125000 I-0.332682 J-0.748539
G02 X69.734879 Y85.019226 Z-0.125000 I-4.317357 J-2.632229
G03 X69.872816 Y84.765250 Z-0.125000 I0.727747 J0.230799
G03 X69.988588 Y84.710546 Z-0.125000 I0.115773 J0.095156
G02 X70.093992 Y84.660133 Z-0.125000 I-0.000000 J-0.135397
G02 X70.144406 Y84.517288 Z-0.125000 I-0.177165 J-0.142845
G03 X70.188019 Y84.337974 Z-0.125000 I0.390434 J-0.000000
G03 X70.509195 Y83.811733 Z-0.125000 I3.870670 J2.001224
G03 X70.946781 Y83.440637 Z-0.125000 I0.949551 J0.676143
G03 X71.557117 Y83.299434 Z-0.125000 I0.610337 J1.248459
G02 X72.200782 Y83.228639 Z-0.125000 I-0.000000 J-2.961440
G02 X72.349267 Y83.123046 Z-0.125000 I-0.050960 J-0.228858
G02 X72.317857 Y83.024948 Z-0.125000 I-0.057639 J-0.035622
G02 X71.929115 Y82.946657 Z-0.125000 I-0.388742 J0.925972
G03 X71.435037 Y82.883721 Z-0.125000 I-0.000000 J-1.970866
G03 X71.299121 Y82.783512 Z-0.125000 I0.056791 J-0.219303
G03 X71.286651 Y82.619331 Z-0.125000 I0.152309 J-0.094133
G03 X71.817877 Y81.563209 Z-0.125000 I8.494524 J3.611054
G02 X72.412626 Y80.499307 Z-0.125000 I-25.805039 J-15.123896
G02 X72.437462 Y80.399841 Z-0.125000 I-0.186763 J-0.099466
G03 X72.905328 Y78.412565 Z-0.125000 I4.454438 J-0.000000
G03 X74.090166 Y77.084427 Z-0.125000 I3.029806 J1.510336
G03 X74.302231 Y76.996204 Z-0.125000 I0.345552 J0.531635
G03 X74.730517 Y76.946525 Z-0.125000 I0.470399 J2.184327
G02 X74.893614 Y76.847596 Z-0.125000 I-0.003577 J-0.189804
G02 X74.862809 Y76.703893 Z-0.125000 I-0.098939 J-0.053944
G03 X74.621244 Y76.436256 Z-0.125000 I0.585497 J-0.771295
G03 X74.554128 Y76.197005 Z-0.125000 I0.392877 J-0.239251
G03 X74.638689 Y75.800726 Z-0.125000 I0.970822 J-0.000000
G03 X75.775369 Y73.465754 Z-0.125000 I36.402925 J16.277020
G02 X77.629408 Y69.739047 Z-0.125000 I-76.827823 J-40.546441
G02 X77.729128 Y69.290674 Z-0.125000 I-0.958151 J-0.448373
G03 X77.768100 Y69.108149 Z-0.125000 I0.446918 J0.000000
G03 X79.242816 Y65.907549 Z-0.125000 I145.445607 J65.075824
G02 X79.622100 Y64.997375 Z-0.125000 I-9.285305 J-4.403451
G02 X79.669406 Y64.727333 Z-0.125000 I-0.747108 J-0.270043
G03 X79.719478 Y64.474559 Z-0.125000 I0.663064 J-0.000000
G03 X79.824733 Y64.350645 Z-0.125000 I0.244041 J0.100633
G02 X79.938735 Y64.225243 Z-0.125000 I-0.161529 J-0.261366
G02 X80.069233 Y63.855167 Z-0.125000 I-1.477203 J-0.728945
G03 X80.180390 Y63.462246 Z-0.125000 I3.554622 J0.793412
G03 X80.723399 Y61.956379 Z-0.125000 I52.917688 J18.231052
G02 X81.602712 Y59.434466 Z-0.125000 I-50.203927 J-18.918817
G02 X82.138851 Y57.546657 Z-0.125000 I-27.580607 J-8.852934
G03 X82.295258 Y56.930194 Z-0.125000 I54.707178 J13.552091
G03 X82.482453 Y56.223740 Z-0.125000 I72.040930 J18.711300
G02 X82.890253 Y54.345502 Z-0.125000 I-18.512210 J-5.002727
G02 X83.370895 Y50.843879 Z-0.125000 I-63.982268 J-10.566165
G03 X83.714573 Y47.757694 Z-0.125000 I883.148889 J96.785491
G03 X83.909677 Y46.081379 Z-0.125000 I260.712595 J29.494393
G02 X84.032371 Y44.401969 Z-0.125000 I-18.118038 J-2.167859
G02 X84.037207 Y41.318879 Z-0.125000 I-61.149622 J-1.637463
G02 X83.721074 Y37.742793 Z-0.125000 I-27.824801 J0.657756
G02 X83.019158 Y34.704295 Z-0.125000 I-20.756994 J3.194696
G03 X82.895942 Y34.166697 Z-0.125000 I3.466755 J-1.077493
G03 X82.674302 Y32.411240 Z-0.125000 I36.951559 J-5.557126
G02 X82.190686 Y29.385938 Z-0.125000 I-26.936845 J2.754748
G02 X81.663594 Y27.785586 Z-0.125000 I-8.000940 J1.748211
G02 X80.819360 Y26.731265 Z-0.125000 I-2.452990 J1.099034
G02 X80.188839 Y26.683811 Z-0.125000 I-0.352563 J0.471914
G03 X79.862589 Y26.704685 Z-0.125000 I-0.186034 J-0.347607
G03 X79.453667 Y26.404058 Z-0.125000 I0.337950 J-0.888118
G02 X79.033947 Y25.992197 Z-0.125000 I-1.805615 J1.420273
G02 X78.514395 Y25.693549 Z-0.125000 I-1.439442 J1.902923
G03 X78.112288 Y25.332220 Z-0.125000 I0.315823 J-0.755873
G03 X77.823357 Y24.436105 Z-0.125000 I2.177763 J-1.196806
G02 X77.065585 Y20.408414 Z-0.125000 I-31.478009 J3.837159
G02 X75.800873 Y16.536240 Z-0.125000 I-30.348759 J7.769747
G02 X75.307043 Y15.359852 Z-0.125000 I-35.477776 J14.201191
G02 X74.715407 Y14.066804 Z-0.125000 I-43.460249 J19.103431
G02 X71.431297 Y8.865654 Z-0.125000 I-23.371740 J11.119983
G02 X67.278087 Y4.913152 Z-0.125000 I-17.451100 J14.178961
G03 X66.008467 Y3.754836 Z-0.125000 I4.768141 J-6.501286
G03 X66.090967 Y3.571665 Z-0.125000 I0.082500 J-0.073007
G02 X66.259317 Y3.531743 Z-0.125000 I0.000000 J-0.374924
G02 X66.972911 Y3.128491 Z-0.125000 I-3.780975 J-7.523834
G02 X67.475201 Y2.458752 Z-0.125000 I-0.627318 J-0.993698
G02 X67.250502 Y2.160554 Z-0.125000 I-0.224699 J-0.064441
G02 X66.968627 Y2.270653 Z-0.125000 I-0.000000 J0.415877
G02 X66.908488 Y2.475824 Z-0.125000 I0.140712 J0.152644
G03 X66.343569 Y3.749377 Z-0.125000 I-1.080823 J0.282641
G03 X64.482653 Y3.738797 Z-0.125000 I-0.920436 J-1.767910
G02 X64.159589 Y3.614687 Z-0.125000 I-0.656900 J1.227417
G02 X63.806003 Y3.571665 Z-0.125000 I-0.353586 J1.431485
G03 X63.637622 Y3.299372 Z-0.125000 I0.000000 J-0.188208
G03 X64.327118 Y2.528120 Z-0.125000 I1.758226 J0.878016
G03 X65.244870 Y2.110454 Z-0.125000 I1.860873 J2.871826
G03 X65.914618 Y2.072952 Z-0.125000 I0.417453 J1.456026
G02 X66.532943 Y2.092537 Z-0.125000 I0.380885 J-2.254577
G02 X66.616628 Y1.999659 Z-0.125000 I-0.009697 J-0.092878
G02 X66.534158 Y1.890264 Z-0.125000 I-0.113790 J-0.000000
G02 X65.946351 Y1.807776 Z-0.125000 I-0.587808 J2.053107
G03 X65.301467 Y1.745417 Z-0.125000 I-0.000000 J-3.365697
G03 X65.108503 Y1.644200 Z-0.125000 I0.072932 J-0.373584
G02 X62.429423 Y0.497374 Z-0.125000 I-2.822985 J2.892038
G02 X54.332624 Y1.260293 Z-0.125000 I-1.120676 J31.453158
G03 X53.466658 Y1.379692 Z-0.125000 I-1.121572 J-4.934444
G03 X49.330517 Y1.513249 Z-0.125000 I-5.725876 J-113.212189
G02 X45.192519 Y1.627331 Z-0.125000 I2.148071 J153.019395
G02 X44.635045 Y1.706260 Z-0.125000 I0.116337 J2.829834
G02 X44.201490 Y1.963957 Z-0.125000 I0.205711 J0.839653
G02 X43.874950 Y2.541215 Z-0.125000 I1.105344 J1.006252
G03 X43.459086 Y2.822922 Z-0.125000 I-0.380589 J-0.114027
G03 X42.906422 Y2.454883 Z-0.125000 I0.061644 J-0.691538
G02 X42.507348 Y1.904371 Z-0.125000 I-2.117393 J1.115027
G02 X42.279195 Y1.807776 Z-0.125000 I-0.228153 J0.221145
G03 X42.012600 Y1.759834 Z-0.125000 I-0.000000 J-0.765204
G03 X41.823265 Y1.638301 Z-0.125000 I0.183875 J-0.494709
G02 X41.531229 Y1.510519 Z-0.125000 I-0.309312 J0.309305
G02 X33.837997 Y1.267595 Z-0.125000 I-19.144820 J484.361780
G02 X26.186273 Y1.146605 Z-0.125000 I-11.566013 J489.446921
G02 X25.606213 Y1.255072 Z-0.125000 I-0.012308 J1.539442
G01 X25.606221 Y1.255072 Z-0.125000
G00 Z5.000000

(End cutting path id: path5054)


(Start cutting path id: path5054)
(Change tool to Default tool)

G00 Z5.000000
G00 X25.854240 Y1.965510

G01 Z-0.125000 F100.0(Penetrate)
G03 X25.956707 Y2.486017 Z-0.125000 I-0.244898 J0.318550 F400.000000
G03 X25.310666 Y2.900456 Z-0.125000 I-0.727162 J-0.422770
G03 X24.102136 Y2.815467 Z-0.125000 I-0.351838 J-3.632000
G03 X23.296961 Y2.414074 Z-0.125000 I0.472387 J-1.955854
G03 X22.991900 Y2.002497 Z-0.125000 I0.670483 J-0.815806
G03 X23.048582 Y1.814634 Z-0.125000 I0.143116 J-0.059302
G03 X24.423030 Y1.435647 Z-0.125000 I1.253755 J1.865113
G03 X25.854240 Y1.965510 Z-0.125000 I-0.138296 J2.571397
G01 X25.854240 Y1.965510 Z-0.125000
G00 Z5.000000

(End cutting path id: path5054)


(Start cutting path id: path5054)
(Change tool to Default tool)

G00 Z5.000000
G00 X21.990249 Y5.864720

G01 Z-0.125000 F100.0(Penetrate)
G02 X22.043390 Y5.987981 Z-0.125000 I0.169521 J0.000000 F400.000000
G02 X22.177048 Y6.041109 Z-0.125000 I0.133658 J-0.141561
G02 X22.263153 Y5.984976 Z-0.125000 I0.000000 J-0.094106
G02 X22.254832 Y5.864720 Z-0.125000 I-0.118416 J-0.052223
G02 X22.131708 Y5.713646 Z-0.125000 I-0.638556 J0.394708
G02 X22.068033 Y5.688331 Z-0.125000 I-0.063676 J0.067425
G02 X22.020942 Y5.719033 Z-0.125000 I0.000000 J0.051465
G02 X21.990249 Y5.864720 Z-0.125000 I0.330410 J0.145688
G01 X21.990249 Y5.864720 Z-0.125000
G00 Z5.000000

(End cutting path id: path5054)


(Start cutting path id: path5054)
(Change tool to Default tool)

G00 Z5.000000
G00 X21.428009 Y6.337979

G01 Z-0.125000 F100.0(Penetrate)
G02 X21.648287 Y6.375755 Z-0.125000 I0.198360 J-0.495538 F400.000000
G02 X21.766088 Y6.324150 Z-0.125000 I-0.007268 J-0.176848
G01 X21.754835 Y6.269268 Z-0.125000
G02 X21.534578 Y6.231524 Z-0.125000 I-0.198248 J0.495354
G02 X21.416746 Y6.283199 Z-0.125000 I0.007284 J0.176793
G01 X21.428009 Y6.338092 Z-0.125000
G01 X21.428009 Y6.337979 Z-0.125000
G00 Z5.000000

(End cutting path id: path5054)


(Start cutting path id: path5054)
(Change tool to Default tool)

G00 Z5.000000
G00 X18.065596 Y8.098199

G01 Z-0.125000 F100.0(Penetrate)
G02 X18.286082 Y8.141010 Z-0.125000 I0.220486 J-0.546366 F400.000000
G02 X18.506568 Y8.098199 Z-0.125000 I-0.000000 J-0.589180
G01 X18.506566 Y8.052041 Z-0.125000
G02 X18.286082 Y8.009242 Z-0.125000 I-0.220484 J0.546529
G02 X18.065599 Y8.052041 Z-0.125000 I0.000000 J0.589330
G01 X18.065596 Y8.098199 Z-0.125000
G01 X18.065596 Y8.098199 Z-0.125000
G00 Z5.000000

(End cutting path id: path5054)


(Start cutting path id: path5054)
(Change tool to Default tool)

G00 Z5.000000
G00 X18.109693 Y9.039720

G01 Z-0.125000 F100.0(Penetrate)
G02 X17.963005 Y9.209466 Z-0.125000 I0.196701 J0.318237 F400.000000
G02 X17.985450 Y9.327051 Z-0.125000 I0.097760 J0.042274
G02 X18.115576 Y9.364738 Z-0.125000 I0.099270 J-0.099264
G02 X18.321360 Y9.251387 Z-0.125000 I-0.092826 J-0.411992
G02 X18.321362 Y9.064366 Z-0.125000 I-0.093509 J-0.093511
G02 X18.109693 Y9.039720 Z-0.125000 I-0.121405 J0.121403
G01 X18.109693 Y9.039720 Z-0.125000
G00 Z5.000000

(End cutting path id: path5054)


(Start cutting path id: path5054)
(Change tool to Default tool)

G00 Z5.000000
G00 X20.369676 Y11.100479

G01 Z-0.125000 F100.0(Penetrate)
G02 X20.589954 Y11.138255 Z-0.125000 I0.198360 J-0.495538 F400.000000
G02 X20.707755 Y11.086650 Z-0.125000 I-0.007268 J-0.176848
G01 X20.696501 Y11.031768 Z-0.125000
G02 X20.476245 Y10.994025 Z-0.125000 I-0.198248 J0.495354
G02 X20.358412 Y11.045699 Z-0.125000 I0.007284 J0.176793
G01 X20.369676 Y11.100592 Z-0.125000
G01 X20.369676 Y11.100479 Z-0.125000
G00 Z5.000000

(End cutting path id: path5054)


(Start cutting path id: path5054)
(Change tool to Default tool)

G00 Z5.000000
G00 X20.369676 Y12.158812

G01 Z-0.125000 F100.0(Penetrate)
G02 X20.589954 Y12.196589 Z-0.125000 I0.198360 J-0.495538 F400.000000
G02 X20.707755 Y12.144983 Z-0.125000 I-0.007268 J-0.176848
G01 X20.696490 Y12.090085 Z-0.125000
G02 X20.476245 Y12.052330 Z-0.125000 I-0.198309 J0.495557
G02 X20.358412 Y12.104005 Z-0.125000 I0.007284 J0.176793
G01 X20.369676 Y12.158897 Z-0.125000
G01 X20.369676 Y12.158812 Z-0.125000
G00 Z5.000000

(End cutting path id: path5054)


(Start cutting path id: path5054)
(Change tool to Default tool)

G00 Z5.000000
G00 X17.845110 Y13.096665

G01 Z-0.125000 F100.0(Penetrate)
G02 X17.857744 Y13.205221 Z-0.125000 I0.074898 J0.046296 F400.000000
G02 X18.021499 Y13.273054 Z-0.125000 I0.163755 J-0.163743
G02 X18.185254 Y13.205221 Z-0.125000 I-0.000000 J-0.231576
G02 X18.197888 Y13.096665 Z-0.125000 I-0.062264 J-0.062260
G02 X18.076230 Y12.942944 Z-0.125000 I-0.720570 J0.445272
G02 X18.021499 Y12.920276 Z-0.125000 I-0.054732 J0.054739
G02 X17.966767 Y12.942944 Z-0.125000 I-0.000000 J0.077407
G02 X17.845110 Y13.096665 Z-0.125000 I0.598913 J0.598992
G01 X17.845110 Y13.096665 Z-0.125000
G00 Z5.000000

(End cutting path id: path5054)


(Start cutting path id: path5054)
(Change tool to Default tool)

G00 Z5.000000
G00 X18.286082 Y13.978609

G01 Z-0.125000 F100.0(Penetrate)
G02 X18.337739 Y14.103329 Z-0.125000 I0.176389 J0.000000 F400.000000
G02 X18.462471 Y14.154998 Z-0.125000 I0.124732 J-0.124719
G02 X18.587203 Y14.103329 Z-0.125000 I-0.000000 J-0.176389
G02 X18.638860 Y13.978609 Z-0.125000 I-0.124732 J-0.124719
G02 X18.587190 Y13.853877 Z-0.125000 I-0.176389 J0.000000
G02 X18.462471 Y13.802220 Z-0.125000 I-0.124719 J0.124732
G02 X18.337752 Y13.853877 Z-0.125000 I-0.000000 J0.176389
G02 X18.286082 Y13.978609 Z-0.125000 I0.124719 J0.124732
G01 X18.286082 Y13.978609 Z-0.125000
G00 Z5.000000

(End cutting path id: path5054)


(Start cutting path id: path5054)
(Change tool to Default tool)

G00 Z5.000000
G00 X16.874971 Y14.870956

G01 Z-0.125000 F100.0(Penetrate)
G02 X16.945348 Y15.107915 Z-0.125000 I0.434108 J-0.000000 F400.000000
G02 X17.043656 Y15.129890 Z-0.125000 I0.060406 J-0.039353
G02 X17.133692 Y14.999104 Z-0.125000 I-0.103682 J-0.167761
G02 X17.112979 Y14.766687 Z-0.125000 I-0.418343 J-0.079849
G02 X16.979565 Y14.710948 Z-0.125000 I-0.093311 J0.035808
G02 X16.874971 Y14.870956 Z-0.125000 I0.070095 J0.160009
G01 X16.874971 Y14.870956 Z-0.125000
G00 Z5.000000

(End cutting path id: path5054)


(Start cutting path id: path5054)
(Change tool to Default tool)

G00 Z5.000000
G00 X17.227749 Y15.400123

G01 Z-0.125000 F100.0(Penetrate)
G02 X17.283887 Y15.486232 Z-0.125000 I0.094110 J0.000000 F400.000000
G02 X17.404138 Y15.477906 Z-0.125000 I0.052215 J-0.118410
G02 X17.555215 Y15.354780 Z-0.125000 I-0.394478 J-0.638276
G02 X17.580527 Y15.291106 Z-0.125000 I-0.067432 J-0.063673
G02 X17.549830 Y15.244021 Z-0.125000 I-0.051460 J-0.000000
G02 X17.404138 Y15.213323 Z-0.125000 I-0.145693 J0.330378
G02 X17.280884 Y15.266458 Z-0.125000 I0.000000 J0.169519
G02 X17.227749 Y15.400123 Z-0.125000 I0.141554 J0.133665
G01 X17.227749 Y15.400123 Z-0.125000
G00 Z5.000000

(End cutting path id: path5054)


(Start cutting path id: path5054)
(Change tool to Default tool)

G00 Z5.000000
G00 X15.504783 Y16.977212

G01 Z-0.125000 F100.0(Penetrate)
G02 X15.544450 Y17.285892 Z-0.125000 I1.220865 J-0.000000 F400.000000
G01 X15.585449 Y17.285892 Z-0.125000
G02 X15.625117 Y16.977212 Z-0.125000 I-1.181203 J-0.308681
G02 X15.585449 Y16.668531 Z-0.125000 I-1.220871 J-0.000000
G01 X15.544450 Y16.668531 Z-0.125000
G02 X15.504783 Y16.977212 Z-0.125000 I1.181204 J0.308681
G01 X15.504783 Y16.977212 Z-0.125000
G00 Z5.000000

(End cutting path id: path5054)


(Start cutting path id: path5054)
(Change tool to Default tool)

G00 Z5.000000
G00 X14.405527 Y17.153601

G01 Z-0.125000 F100.0(Penetrate)
G02 X14.458661 Y17.276855 Z-0.125000 I0.169520 J0.000000 F400.000000
G02 X14.592325 Y17.329990 Z-0.125000 I0.133664 J-0.141553
G02 X14.678435 Y17.273852 Z-0.125000 I-0.000000 J-0.094111
G02 X14.670110 Y17.153601 Z-0.125000 I-0.118408 J-0.052216
G02 X14.546984 Y17.002523 Z-0.125000 I-0.638279 J0.394478
G02 X14.483311 Y16.977212 Z-0.125000 I-0.063673 J0.067431
G02 X14.436224 Y17.007909 Z-0.125000 I0.000000 J0.051462
G02 X14.405527 Y17.153601 Z-0.125000 I0.330379 J0.145691
G01 X14.405527 Y17.153601 Z-0.125000
G00 Z5.000000

(End cutting path id: path5054)


(Start cutting path id: path5054)
(Change tool to Default tool)

G00 Z5.000000
G00 X13.876360 Y18.035545

G01 Z-0.125000 F100.0(Penetrate)
G02 X13.928023 Y18.160271 Z-0.125000 I0.176389 J0.000000 F400.000000
G02 X14.052749 Y18.211934 Z-0.125000 I0.124726 J-0.124726
G02 X14.177475 Y18.160271 Z-0.125000 I0.000000 J-0.176389
G02 X14.229138 Y18.035545 Z-0.125000 I-0.124726 J-0.124726
G02 X14.177475 Y17.910819 Z-0.125000 I-0.176389 J0.000000
G02 X14.052749 Y17.859156 Z-0.125000 I-0.124726 J0.124726
G02 X13.928023 Y17.910819 Z-0.125000 I-0.000000 J0.176389
G02 X13.876360 Y18.035545 Z-0.125000 I0.124726 J0.124726
G01 X13.876360 Y18.035545 Z-0.125000
G00 Z5.000000

(End cutting path id: path5054)


(Start cutting path id: path5054)
(Change tool to Default tool)

G00 Z5.000000
G00 X12.731610 Y17.332865

G01 Z-0.125000 F100.0(Penetrate)
G02 X12.861571 Y17.430935 Z-0.125000 I0.191112 J-0.118113 F400.000000
G02 X13.006603 Y17.410652 Z-0.125000 I0.049473 J-0.174900
G02 X13.054652 Y17.258105 Z-0.125000 I-0.064340 J-0.104106
G02 X12.895811 Y17.153601 Z-0.125000 I-0.158841 J0.068462
G02 X12.742133 Y17.221239 Z-0.125000 I-0.000000 J0.208401
G02 X12.731610 Y17.332865 Z-0.125000 I0.068528 J0.062769
G01 X12.731610 Y17.332865 Z-0.125000
G00 Z5.000000

(End cutting path id: path5054)


(Start cutting path id: path5054)
(Change tool to Default tool)

G00 Z5.000000
G00 X12.465249 Y18.398734

G01 Z-0.125000 F100.0(Penetrate)
G02 X12.521387 Y18.484843 Z-0.125000 I0.094110 J0.000000 F400.000000
G02 X12.641638 Y18.476517 Z-0.125000 I0.052215 J-0.118410
G02 X12.792715 Y18.353391 Z-0.125000 I-0.394478 J-0.638276
G02 X12.818027 Y18.289717 Z-0.125000 I-0.067432 J-0.063673
G02 X12.787330 Y18.242632 Z-0.125000 I-0.051460 J0.000000
G02 X12.641638 Y18.211934 Z-0.125000 I-0.145693 J0.330378
G02 X12.518384 Y18.265069 Z-0.125000 I0.000000 J0.169519
G02 X12.465249 Y18.398734 Z-0.125000 I0.141554 J0.133665
G01 X12.465249 Y18.398734 Z-0.125000
G00 Z5.000000

(End cutting path id: path5054)


(Start cutting path id: path5054)
(Change tool to Default tool)

G00 Z5.000000
G00 X11.759693 Y19.887629

G01 Z-0.125000 F100.0(Penetrate)
G02 X11.789889 Y20.122016 Z-0.125000 I0.924775 J0.000000 F400.000000
G01 X11.829016 Y20.152212 Z-0.125000
G02 X11.879456 Y20.124741 Z-0.125000 I0.000000 J-0.060042
G02 X11.999869 Y19.887629 Z-0.125000 I-1.081303 J-0.698250
G02 X12.011033 Y19.685161 Z-0.125000 I-0.309010 J-0.118580
G02 X11.930546 Y19.623045 Z-0.125000 I-0.080487 J0.021088
G02 X11.819935 Y19.683288 Z-0.125000 I-0.000000 J0.131668
G02 X11.759693 Y19.887629 Z-0.125000 I0.316445 J0.204341
G01 X11.759693 Y19.887629 Z-0.125000
G00 Z5.000000

(End cutting path id: path5054)


(Start cutting path id: path5054)
(Change tool to Default tool)

G00 Z5.000000
G00 X11.420841 Y22.900938

G01 Z-0.125000 F100.0(Penetrate)
G02 X11.472515 Y23.018771 Z-0.125000 I0.176790 J-0.007282 F400.000000
G01 X11.527409 Y23.007508 Z-0.125000
G02 X11.565158 Y22.787260 Z-0.125000 I-0.495498 J-0.198284
G02 X11.513484 Y22.669428 Z-0.125000 I-0.176787 J0.007282
G01 X11.458590 Y22.680692 Z-0.125000
G02 X11.420841 Y22.900938 Z-0.125000 I0.495496 J0.198282
G01 X11.420841 Y22.900938 Z-0.125000
G00 Z5.000000

(End cutting path id: path5054)


(Start cutting path id: path5054)
(Change tool to Default tool)

G00 Z5.000000
G00 X10.348582 Y24.572345

G01 Z-0.125000 F100.0(Penetrate)
G02 X10.404720 Y24.658455 Z-0.125000 I0.094110 J0.000000 F400.000000
G02 X10.524971 Y24.650129 Z-0.125000 I0.052215 J-0.118410
G02 X10.676048 Y24.527002 Z-0.125000 I-0.394478 J-0.638276
G02 X10.701360 Y24.463328 Z-0.125000 I-0.067432 J-0.063673
G02 X10.670664 Y24.416243 Z-0.125000 I-0.051460 J0.000000
G02 X10.524971 Y24.385545 Z-0.125000 I-0.145693 J0.330378
G02 X10.401717 Y24.438680 Z-0.125000 I-0.000000 J0.169519
G02 X10.348582 Y24.572345 Z-0.125000 I0.141554 J0.133665
G01 X10.348582 Y24.572345 Z-0.125000
G00 Z5.000000

(End cutting path id: path5054)


(Start cutting path id: path5054)
(Change tool to Default tool)

G00 Z5.000000
G00 X9.995804 Y25.708462

G01 Z-0.125000 F100.0(Penetrate)
G02 X10.056047 Y25.912804 Z-0.125000 I0.376685 J-0.000000 F400.000000
G02 X10.166657 Y25.973045 Z-0.125000 I0.110610 J-0.071426
G02 X10.247143 Y25.910931 Z-0.125000 I0.000000 J-0.083203
G02 X10.235980 Y25.708462 Z-0.125000 I-0.320177 J-0.083889
G02 X10.115567 Y25.471350 Z-0.125000 I-1.201793 J0.461176
G02 X10.065127 Y25.443879 Z-0.125000 I-0.050440 J0.032571
G01 X10.026000 Y25.474075 Z-0.125000
G02 X9.995804 Y25.708462 Z-0.125000 I0.894591 J0.234387
G01 X9.995804 Y25.708462 Z-0.125000
G00 Z5.000000

(End cutting path id: path5054)


(Start cutting path id: path5054)
(Change tool to Default tool)

G00 Z5.000000
G00 X8.088358 Y27.842691

G01 Z-0.125000 F100.0(Penetrate)
G03 X7.901236 Y29.172337 Z-0.125000 I-6.712580 J-0.266676 F400.000000
G03 X7.671942 Y29.544920 Z-0.125000 I-0.692707 J-0.169457
G03 X6.941049 Y29.877973 Z-0.125000 I-0.945021 J-1.105363
G03 X6.575347 Y29.708160 Z-0.125000 I-0.053960 J-0.362479
G03 X6.468037 Y28.952356 Z-0.125000 I0.809828 J-0.500501
G03 X7.340988 Y26.957719 Z-0.125000 I7.460726 J2.076839
G03 X7.773456 Y26.925717 Z-0.125000 I0.227838 J0.140811
G03 X8.088358 Y27.842691 Z-0.125000 I-1.022872 J0.863827
G01 X8.088358 Y27.842691 Z-0.125000
G00 Z5.000000

(End cutting path id: path5054)


(Start cutting path id: path5054)
(Change tool to Default tool)

G00 Z5.000000
G00 X6.248746 Y28.641826

G01 Z-0.125000 F100.0(Penetrate)
G03 X5.857249 Y30.218863 Z-0.125000 I-4.377490 J-0.249593 F400.000000
G03 X4.723448 Y31.970267 Z-0.125000 I-6.571463 J-3.011453
G01 X4.182700 Y32.587629 Z-0.125000
G01 X4.289549 Y31.264712 Z-0.125000
G03 X4.455042 Y29.967402 Z-0.125000 I14.086087 J1.137702
G03 X4.550268 Y29.774226 Z-0.125000 I0.377513 J0.066035
G02 X4.656620 Y29.588150 Z-0.125000 I-0.356017 J-0.326914
G02 X4.704138 Y29.269073 Z-0.125000 I-1.047523 J-0.319077
G03 X4.884814 Y28.491499 Z-0.125000 I1.763558 J0.000000
G03 X5.736354 Y27.167830 Z-0.125000 I6.153003 J3.022598
G03 X6.050644 Y27.223749 Z-0.125000 I0.141483 J0.115991
G03 X6.248746 Y28.641826 Z-0.125000 I-3.476634 J1.208553
G01 X6.248746 Y28.641826 Z-0.125000
G00 Z5.000000

(End cutting path id: path5054)


(Start cutting path id: path5054)
(Change tool to Default tool)

G00 Z5.000000
G00 X5.938860 Y32.157068

G01 Z-0.125000 F100.0(Penetrate)
G02 X5.994998 Y32.243177 Z-0.125000 I0.094110 J0.000000 F400.000000
G02 X6.115249 Y32.234851 Z-0.125000 I0.052215 J-0.118410
G02 X6.266326 Y32.111724 Z-0.125000 I-0.394478 J-0.638276
G02 X6.291638 Y32.048051 Z-0.125000 I-0.067432 J-0.063673
G02 X6.260941 Y32.000966 Z-0.125000 I-0.051460 J-0.000000
G02 X6.115249 Y31.970267 Z-0.125000 I-0.145693 J0.330378
G02 X5.991995 Y32.023402 Z-0.125000 I-0.000000 J0.169519
G02 X5.938860 Y32.157068 Z-0.125000 I0.141554 J0.133665
G01 X5.938860 Y32.157068 Z-0.125000
G00 Z5.000000

(End cutting path id: path5054)


(Start cutting path id: path5054)
(Change tool to Default tool)

G00 Z5.000000
G00 X5.586082 Y32.852212

G01 Z-0.125000 F100.0(Penetrate)
G02 X5.637745 Y32.976938 Z-0.125000 I0.176389 J-0.000000 F400.000000
G02 X5.762471 Y33.028601 Z-0.125000 I0.124726 J-0.124726
G02 X5.887197 Y32.976938 Z-0.125000 I0.000000 J-0.176389
G02 X5.938860 Y32.852212 Z-0.125000 I-0.124726 J-0.124726
G02 X5.887197 Y32.727486 Z-0.125000 I-0.176389 J0.000000
G02 X5.762471 Y32.675823 Z-0.125000 I-0.124726 J0.124726
G02 X5.637745 Y32.727486 Z-0.125000 I-0.000000 J0.176389
G02 X5.586082 Y32.852212 Z-0.125000 I0.124726 J0.124726
G01 X5.586082 Y32.852212 Z-0.125000
G00 Z5.000000

(End cutting path id: path5054)


(Start cutting path id: path5054)
(Change tool to Default tool)

G00 Z5.000000
G00 X9.054290 Y33.249087

G01 Z-0.125000 F100.0(Penetrate)
G01 X9.008128 Y33.249087 Z-0.125000 F400.000000
G03 X8.965322 Y33.028601 Z-0.125000 I0.546434 J-0.220486
G03 X9.008129 Y32.808115 Z-0.125000 I0.589232 J0.000000
G01 X9.054290 Y32.808115 Z-0.125000
G03 X9.097097 Y33.028601 Z-0.125000 I-0.546427 J0.220486
G03 X9.054290 Y33.249087 Z-0.125000 I-0.589234 J-0.000000
G01 X9.054290 Y33.249087 Z-0.125000
G00 Z5.000000

(End cutting path id: path5054)


(Start cutting path id: path5054)
(Change tool to Default tool)

G00 Z5.000000
G00 X4.099866 Y41.260179

G01 Z-0.125000 F100.0(Penetrate)
G02 X4.069052 Y41.536817 Z-0.125000 I0.514178 J0.197308 F400.000000
G02 X4.169188 Y41.736429 Z-0.125000 I0.350815 J-0.051065
G02 X4.271013 Y41.724627 Z-0.125000 I0.046237 J-0.046237
G02 X4.351360 Y41.442351 Z-0.125000 I-0.455674 J-0.282276
G02 X4.237505 Y41.219293 Z-0.125000 I-0.275429 J0.000000
G02 X4.099866 Y41.260179 Z-0.125000 I-0.053112 J0.073322
G01 X4.099866 Y41.260179 Z-0.125000
G00 Z5.000000

(End cutting path id: path5054)


(Start cutting path id: path5054)
(Change tool to Default tool)

G00 Z5.000000
G00 X4.188896 Y45.302327

G01 Z-0.125000 F100.0(Penetrate)
G02 X4.240571 Y45.420160 Z-0.125000 I0.176790 J-0.007282 F400.000000
G01 X4.295465 Y45.408897 Z-0.125000
G02 X4.333213 Y45.188649 Z-0.125000 I-0.495498 J-0.198284
G02 X4.281540 Y45.070817 Z-0.125000 I-0.176787 J0.007282
G01 X4.226645 Y45.082081 Z-0.125000
G02 X4.188897 Y45.302327 Z-0.125000 I0.495496 J0.198282
G01 X4.188896 Y45.302327 Z-0.125000
G00 Z5.000000

(End cutting path id: path5054)


(Start cutting path id: path5054)
(Change tool to Default tool)

G00 Z5.000000
G00 X9.509334 Y45.945881

G01 Z-0.125000 F100.0(Penetrate)
G03 X9.516245 Y46.649192 Z-0.125000 I-3.604563 J0.387107 F400.000000
G01 X9.444609 Y46.685125 Z-0.125000
G03 X9.355748 Y46.553206 Z-0.125000 I0.101533 J-0.164281
G03 X9.290249 Y45.776988 Z-0.125000 I4.566656 J-0.776219
G03 X9.387864 Y45.728985 Z-0.125000 I0.060610 J0.000000
G03 X9.509334 Y45.945881 Z-0.125000 I-0.193262 J0.250696
G01 X9.509334 Y45.945881 Z-0.125000
G00 Z5.000000

(End cutting path id: path5054)


(Start cutting path id: path5054)
(Change tool to Default tool)

G00 Z5.000000
G00 X15.802717 Y50.164336

G01 Z-0.125000 F100.0(Penetrate)
G02 X15.673392 Y51.077074 Z-0.125000 I1.183060 J0.633157 F400.000000
G02 X16.218233 Y52.114819 Z-0.125000 I2.121538 J-0.451959
G03 X16.424378 Y52.351302 Z-0.125000 I-2.846602 J2.689506
G03 X16.897812 Y52.960545 Z-0.125000 I-18.464529 J14.837098
G02 X18.953646 Y55.028419 Z-0.125000 I8.464077 J-6.358927
G02 X20.145117 Y55.429990 Z-0.125000 I1.191471 J-1.566777
G02 X23.283371 Y54.253668 Z-0.125000 I0.000000 J-4.774361
G02 X24.459693 Y51.666763 Z-0.125000 I-2.256331 J-2.586906
G02 X23.729542 Y50.515153 Z-0.125000 I-1.273247 J0.000000
G02 X22.479292 Y50.732813 Z-0.125000 I-0.470415 J0.997493
G03 X21.574770 Y51.337219 Z-0.125000 I-1.971701 J-1.971708
G03 X20.508002 Y51.549434 Z-0.125000 I-1.066768 J-2.575124
G03 X19.485586 Y51.325103 Z-0.125000 I-0.000000 J-2.442058
G03 X18.128957 Y50.452648 Z-0.125000 I2.427717 J-5.265970
G02 X16.575257 Y49.764060 Z-0.125000 I-1.914523 J2.222701
G02 X15.802717 Y50.164336 Z-0.125000 I-0.094579 J0.763108
G01 X15.802717 Y50.164336 Z-0.125000
G00 Z5.000000

(End cutting path id: path5054)


(Start cutting path id: path5054)
(Change tool to Default tool)

G00 Z5.000000
G00 X17.643520 Y50.742242

G01 Z-0.125000 F100.0(Penetrate)
G02 X19.103101 Y51.781116 Z-0.125000 I3.814593 J-3.814601 F400.000000
G02 X20.397644 Y52.078601 Z-0.125000 I1.294543 J-2.667941
G02 X22.330343 Y51.713137 Z-0.125000 I-0.000000 J-5.293117
G02 X22.695804 Y51.177231 Z-0.125000 I-0.210190 J-0.535906
G03 X22.983817 Y50.904206 Z-0.125000 I0.273415 J0.000000
G03 X23.718860 Y51.231934 Z-0.125000 I-0.060034 J1.122805
G03 X23.881591 Y51.463870 Z-0.125000 I-0.579989 J0.579989
G03 X23.930527 Y51.683617 Z-0.125000 I-0.468924 J0.219747
G03 X23.194876 Y53.459616 Z-0.125000 I-2.511625 J0.000000
G03 X21.418839 Y54.195268 Z-0.125000 I-1.776037 J-1.776063
G02 X21.261977 Y54.247644 Z-0.125000 I0.000000 J0.261080
G02 X21.011553 Y54.501383 Z-0.125000 I0.728980 J0.969902
G03 X19.933577 Y55.074432 Z-0.125000 I-1.130902 J-0.826938
G03 X19.204640 Y54.569689 Z-0.125000 I-0.027915 J-0.738414
G02 X19.099557 Y54.425422 Z-0.125000 I-0.279466 J0.093156
G02 X18.932842 Y54.370056 Z-0.125000 I-0.168935 J0.230005
G03 X18.758786 Y54.303986 Z-0.125000 I0.002002 J-0.267577
G03 X18.286082 Y53.805036 Z-0.125000 I2.401168 J-2.748252
G02 X17.827012 Y53.258823 Z-0.125000 I-8.064552 J6.311908
G02 X17.536429 Y52.973686 Z-0.125000 I-2.476352 J2.233010
G03 X17.278034 Y52.682816 Z-0.125000 I0.986632 J-1.136687
G03 X17.227749 Y52.519314 Z-0.125000 I0.240672 J-0.163502
G02 X17.172282 Y52.361263 Z-0.125000 I-0.252911 J-0.000000
G02 X16.874971 Y52.078601 Z-0.125000 I-1.184402 J0.948091
G03 X16.600303 Y51.784347 Z-0.125000 I0.606443 J-0.841399
G03 X16.522193 Y51.510496 Z-0.125000 I0.441005 J-0.273851
G02 X16.457084 Y51.261765 Z-0.125000 I-0.507662 J0.000000
G02 X16.345804 Y51.196656 Z-0.125000 I-0.111280 J0.062544
G03 X15.987976 Y50.821677 Z-0.125000 I0.000000 J-0.358220
G03 X16.389902 Y50.255143 Z-0.125000 I0.642669 J0.030100
G03 X16.891820 Y50.251898 Z-0.125000 I0.255056 J0.632087
G03 X17.643520 Y50.742242 Z-0.125000 I-0.789286 J2.031332
G01 X17.643520 Y50.742242 Z-0.125000
G00 Z5.000000

(End cutting path id: path5054)


(Start cutting path id: path5054)
(Change tool to Default tool)

G00 Z5.000000
G00 X11.434766 Y54.724434

G01 Z-0.125000 F100.0(Penetrate)
G02 X11.477574 Y54.944920 Z-0.125000 I0.589228 J0.000000 F400.000000
G01 X11.523735 Y54.944920 Z-0.125000
G02 X11.566541 Y54.724434 Z-0.125000 I-0.546427 J-0.220486
G02 X11.523735 Y54.503948 Z-0.125000 I-0.589234 J-0.000000
G01 X11.477573 Y54.503948 Z-0.125000
G02 X11.434766 Y54.724434 Z-0.125000 I0.546434 J0.220486
G01 X11.434766 Y54.724434 Z-0.125000
G00 Z5.000000

(End cutting path id: path5054)


(Start cutting path id: path5054)
(Change tool to Default tool)

G00 Z5.000000
G00 X4.555600 Y53.842490

G01 Z-0.125000 F100.0(Penetrate)
G02 X4.598407 Y54.062976 Z-0.125000 I0.589228 J0.000000 F400.000000
G01 X4.644568 Y54.062976 Z-0.125000
G02 X4.687375 Y53.842490 Z-0.125000 I-0.546427 J-0.220486
G02 X4.644568 Y53.622004 Z-0.125000 I-0.589234 J0.000000
G01 X4.598406 Y53.622004 Z-0.125000
G02 X4.555600 Y53.842490 Z-0.125000 I0.546434 J0.220486
G01 X4.555600 Y53.842490 Z-0.125000
G00 Z5.000000

(End cutting path id: path5054)


(Start cutting path id: path5054)
(Change tool to Default tool)

G00 Z5.000000
G00 X9.304174 Y67.527327

G01 Z-0.125000 F100.0(Penetrate)
G02 X9.355848 Y67.645160 Z-0.125000 I0.176790 J-0.007282 F400.000000
G01 X9.410742 Y67.633897 Z-0.125000
G02 X9.448491 Y67.413649 Z-0.125000 I-0.495498 J-0.198284
G02 X9.396818 Y67.295817 Z-0.125000 I-0.176787 J0.007282
G01 X9.341923 Y67.307081 Z-0.125000
G02 X9.304175 Y67.527327 Z-0.125000 I0.495496 J0.198282
G01 X9.304174 Y67.527327 Z-0.125000
G00 Z5.000000

(End cutting path id: path5054)


(Start cutting path id: path5054)
(Change tool to Default tool)

G00 Z5.000000
G00 X11.671499 Y71.304990

G01 Z-0.125000 F100.0(Penetrate)
G02 X11.663174 Y71.425241 Z-0.125000 I0.110083 J0.068035 F400.000000
G02 X11.749283 Y71.481379 Z-0.125000 I0.086110 J-0.037973
G02 X11.882947 Y71.428244 Z-0.125000 I0.000000 J-0.194687
G02 X11.936082 Y71.304990 Z-0.125000 I-0.116385 J-0.123254
G02 X11.905385 Y71.159299 Z-0.125000 I-0.361077 J-0.000000
G02 X11.858298 Y71.128601 Z-0.125000 I-0.047087 J0.020764
G02 X11.794625 Y71.153913 Z-0.125000 I-0.000000 J0.092742
G02 X11.671499 Y71.304990 Z-0.125000 I0.515153 J0.545555
G01 X11.671499 Y71.304990 Z-0.125000
G00 Z5.000000

(End cutting path id: path5054)


(Start cutting path id: path5054)
(Change tool to Default tool)

G00 Z5.000000
G00 X16.663304 Y79.101379

G01 Z-0.125000 F100.0(Penetrate)
G02 X16.874971 Y79.189054 Z-0.125000 I0.211667 J-0.211668 F400.000000
G02 X17.086638 Y79.101379 Z-0.125000 I-0.000000 J-0.299343
G02 X17.086638 Y78.977388 Z-0.125000 I-0.061995 J-0.061996
G02 X16.874971 Y78.889712 Z-0.125000 I-0.211667 J0.211666
G02 X16.663304 Y78.977388 Z-0.125000 I-0.000000 J0.299342
G02 X16.663304 Y79.101379 Z-0.125000 I0.061996 J0.061995
G01 X16.663304 Y79.101379 Z-0.125000
G00 Z5.000000

(End cutting path id: path5054)


(Start cutting path id: path5054)
(Change tool to Default tool)

G00 Z5.000000
G00 X18.638860 Y84.544568

G01 Z-0.125000 F100.0(Penetrate)
G02 X18.694998 Y84.630677 Z-0.125000 I0.094110 J0.000000 F400.000000
G02 X18.815249 Y84.622351 Z-0.125000 I0.052215 J-0.118410
G02 X18.966326 Y84.499224 Z-0.125000 I-0.394478 J-0.638276
G02 X18.991638 Y84.435551 Z-0.125000 I-0.067432 J-0.063673
G02 X18.960941 Y84.388466 Z-0.125000 I-0.051460 J0.000000
G02 X18.815249 Y84.357768 Z-0.125000 I-0.145693 J0.330378
G02 X18.691995 Y84.410903 Z-0.125000 I0.000000 J0.169519
G02 X18.638860 Y84.544568 Z-0.125000 I0.141554 J0.133665
G01 X18.638860 Y84.544568 Z-0.125000
G00 Z5.000000

(End cutting path id: path5054)


(Start cutting path id: path5054)
(Change tool to Default tool)

G00 Z5.000000
G00 X22.723654 Y88.943879

G01 Z-0.125000 F100.0(Penetrate)
G02 X22.766462 Y89.164365 Z-0.125000 I0.589221 J0.000000 F400.000000
G01 X22.812623 Y89.164365 Z-0.125000
G02 X22.855430 Y88.943879 Z-0.125000 I-0.546431 J-0.220486
G02 X22.812623 Y88.723393 Z-0.125000 I-0.589237 J-0.000000
G01 X22.766461 Y88.723393 Z-0.125000
G02 X22.723654 Y88.943879 Z-0.125000 I0.546426 J0.220486
G01 X22.723654 Y88.943879 Z-0.125000
G00 Z5.000000

(End cutting path id: path5054)


(Start cutting path id: path5054)
(Change tool to Default tool)

G00 Z5.000000
G00 X22.709738 Y91.163438

G01 Z-0.125000 F100.0(Penetrate)
G02 X22.761412 Y91.281271 Z-0.125000 I0.176795 J-0.007284 F400.000000
G01 X22.816305 Y91.270008 Z-0.125000
G02 X22.854055 Y91.049760 Z-0.125000 I-0.495520 J-0.198290
G02 X22.802389 Y90.931928 Z-0.125000 I-0.176800 J0.007280
G01 X22.747494 Y90.943193 Z-0.125000
G02 X22.709746 Y91.163438 Z-0.125000 I0.495501 J0.198281
G01 X22.709738 Y91.163438 Z-0.125000
G00 Z5.000000

(End cutting path id: path5054)


(Start cutting path id: path5054)
(Change tool to Default tool)

G00 Z5.000000
G00 X23.615936 Y93.005226

G01 Z-0.125000 F100.0(Penetrate)
G02 X23.556344 Y93.266008 Z-0.125000 I0.346463 J0.216371 F400.000000
G02 X23.654039 Y93.353601 Z-0.125000 I0.097696 J-0.010685
G02 X24.028289 Y93.145683 Z-0.125000 I-0.000000 J-0.440781
G02 X23.990117 Y92.813467 Z-0.125000 I-0.228323 J-0.142066
G02 X23.848832 Y92.791259 Z-0.125000 I-0.085888 J0.085890
G02 X23.615936 Y93.005226 Z-0.125000 I0.270867 J0.528565
G01 X23.615936 Y93.005226 Z-0.125000
G00 Z5.000000

(End cutting path id: path5054)


(Start cutting path id: path5054)
(Change tool to Default tool)

G00 Z5.000000
G00 X25.958999 Y96.175823

G01 Z-0.125000 F100.0(Penetrate)
G02 X26.082126 Y96.326901 Z-0.125000 I0.638279 J-0.394479 F400.000000
G02 X26.145799 Y96.352212 Z-0.125000 I0.063673 J-0.067431
G02 X26.192885 Y96.321515 Z-0.125000 I0.000000 J-0.051462
G02 X26.223583 Y96.175823 Z-0.125000 I-0.330382 J-0.145691
G02 X26.170448 Y96.052569 Z-0.125000 I-0.169520 J0.000000
G02 X26.036783 Y95.999435 Z-0.125000 I-0.133664 J0.141554
G02 X25.950674 Y96.055572 Z-0.125000 I0.000000 J0.094110
G02 X25.958999 Y96.175823 Z-0.125000 I0.118409 J0.052216
G01 X25.958999 Y96.175823 Z-0.125000
G00 Z5.000000

(End cutting path id: path5054)


(Start cutting path id: path5054)
(Change tool to Default tool)

G00 Z5.000000
G00 X27.478919 Y88.702348

G01 Z-0.125000 F100.0(Penetrate)
G02 X26.678956 Y89.684971 Z-0.125000 I1.331434 J1.900873 F400.000000
G02 X26.719348 Y90.465429 Z-0.125000 I0.810806 J0.349312
G02 X26.896324 Y90.567405 Z-0.125000 I0.173965 J-0.097356
G02 X27.152822 Y90.458882 Z-0.125000 I-0.005598 J-0.370615
G03 X27.790943 Y90.188872 Z-0.125000 I0.652120 J0.652123
G03 X28.338346 Y90.440876 Z-0.125000 I0.010589 J0.697533
G03 X28.560929 Y91.246485 Z-0.125000 I-0.783109 J0.649921
G03 X28.160499 Y91.589695 Z-0.125000 I-0.400430 J-0.061989
G02 X28.038636 Y91.640861 Z-0.125000 I-0.000000 J0.170705
G02 X27.987471 Y91.766084 Z-0.125000 I0.127656 J0.125224
G02 X28.493716 Y92.150513 Z-0.125000 I0.399085 J0.000000
G02 X29.878040 Y91.239071 Z-0.125000 I-0.728501 J-2.613464
G02 X30.016028 Y90.945219 Z-0.125000 I-0.533732 J-0.429957
G02 X30.092915 Y90.178584 Z-0.125000 I-3.783578 J-0.766635
G02 X30.016824 Y89.410675 Z-0.125000 I-3.912908 J0.000000
G02 X29.878040 Y89.104966 Z-0.125000 I-0.726291 J0.145362
G02 X28.735377 Y88.418238 Z-0.125000 I-1.443974 J1.108647
G02 X27.478919 Y88.702331 Z-0.125000 I-0.281326 J1.676295
G01 X27.478919 Y88.702348 Z-0.125000
G00 Z5.000000

(End cutting path id: path5054)


(Start cutting path id: path5054)
(Change tool to Default tool)

G00 Z5.000000
G00 X26.607440 Y86.382193

G01 Z-0.125000 F100.0(Penetrate)
G02 X24.851673 Y87.999033 Z-0.125000 I2.419348 J4.388965 F400.000000
G02 X24.283304 Y89.882587 Z-0.125000 I2.836832 J1.883554
G02 X26.007515 Y93.327384 Z-0.125000 I4.303283 J0.000000
G02 X29.819089 Y94.027150 Z-0.125000 I2.610047 J-3.486170
G02 X31.077397 Y93.396792 Z-0.125000 I-1.056084 J-3.679217
G02 X32.065386 Y92.321983 Z-0.125000 I-2.490411 J-3.280738
G02 X32.425082 Y91.477527 Z-0.125000 I-2.395576 J-1.519228
G02 X32.573581 Y90.246885 Z-0.125000 I-5.025036 J-1.230642
G02 X31.331691 Y87.339230 Z-0.125000 I-4.024810 J-0.000000
G02 X28.281526 Y86.138951 Z-0.125000 I-2.990994 J3.125055
G02 X27.038788 Y86.237312 Z-0.125000 I0.130637 J9.550402
G02 X26.607440 Y86.382193 Z-0.125000 I0.182981 J1.259341
G01 X26.607440 Y86.382193 Z-0.125000
G00 Z5.000000

(End cutting path id: path5054)


(Start cutting path id: path5054)
(Change tool to Default tool)

G00 Z5.000000
G00 X30.901688 Y87.408923

G01 Z-0.125000 F100.0(Penetrate)
G03 X31.716044 Y88.482269 Z-0.125000 I-1.728395 J2.156949 F400.000000
G03 X32.044414 Y90.090407 Z-0.125000 I-3.773607 J1.608138
G03 X31.414523 Y92.174653 Z-0.125000 I-3.763226 J-0.000000
G03 X29.798640 Y93.466575 Z-0.125000 I-2.828846 J-1.881705
G03 X27.152532 Y93.500127 Z-0.125000 I-1.368673 J-3.581035
G03 X25.281588 Y91.870202 Z-0.125000 I1.123130 J-3.177973
G03 X25.143208 Y88.835636 Z-0.125000 I3.225125 J-1.667508
G03 X27.368870 Y86.734663 Z-0.125000 I3.414503 J1.387786
G03 X29.166475 Y86.608775 Z-0.125000 I1.136845 J3.336176
G03 X30.901688 Y87.408923 Z-0.125000 I-0.742967 J3.892790
G01 X30.901688 Y87.408923 Z-0.125000
G00 Z5.000000

(End cutting path id: path5054)


(Start cutting path id: path5054)
(Change tool to Default tool)

G00 Z5.000000
G00 X37.749328 Y92.207073

G01 Z-0.125000 F100.0(Penetrate)
G02 X37.859520 Y92.314520 Z-0.125000 I0.161522 J-0.055423 F400.000000
G02 X38.322623 Y92.387755 Z-0.125000 I0.476376 J-1.511537
G03 X38.821588 Y92.445482 Z-0.125000 I-0.018796 J2.347750
G03 X39.188167 Y92.583267 Z-0.125000 I-0.315777 J1.396660
G02 X39.559715 Y92.695759 Z-0.125000 I0.459425 J-0.847591
G02 X40.863862 Y92.736644 Z-0.125000 I0.992724 J-10.845749
G02 X42.355373 Y92.597955 Z-0.125000 I-0.334181 J-11.683359
G02 X42.451362 Y92.485593 Z-0.125000 I-0.017769 J-0.112362
G02 X42.361377 Y92.385562 Z-0.125000 I-0.100591 J0.000000
G02 X38.703067 Y92.088153 Z-0.125000 I-7.892856 J74.438518
G02 X37.804654 Y92.118458 Z-0.125000 I-0.281897 J4.975220
G02 X37.749328 Y92.207073 Z-0.125000 I0.008325 J0.066777
G01 X37.749328 Y92.207073 Z-0.125000
G00 Z5.000000

(End cutting path id: path5054)


(Start cutting path id: path5054)
(Change tool to Default tool)

G00 Z5.000000
G00 X42.627751 Y92.118879

G01 Z-0.125000 F100.0(Penetrate)
G02 X42.699325 Y92.223693 Z-0.125000 I0.112533 J0.000000 F400.000000
G02 X43.079134 Y92.295268 Z-0.125000 I0.379809 J-0.971937
G02 X43.393711 Y92.218996 Z-0.125000 I0.000000 J-0.686862
G02 X43.421501 Y92.118879 Z-0.125000 I-0.032412 J-0.062912
G02 X43.279934 Y92.000874 Z-0.125000 I-0.247439 J0.152926
G02 X42.970117 Y91.942490 Z-0.125000 I-0.309817 J0.792832
G02 X42.694562 Y92.009301 Z-0.125000 I-0.000000 J0.601658
G02 X42.627751 Y92.118879 Z-0.125000 I0.056455 J0.109578
G01 X42.627751 Y92.118879 Z-0.125000
G00 Z5.000000

(End cutting path id: path5054)


(Start cutting path id: path5054)
(Change tool to Default tool)

G00 Z5.000000
G00 X44.038862 Y91.962914

G01 Z-0.125000 F100.0(Penetrate)
G02 X44.624373 Y92.748999 Z-0.125000 I0.820439 J0.000000 F400.000000
G02 X46.637973 Y92.739678 Z-0.125000 I0.991464 J-3.317509
G02 X46.758958 Y92.446220 Z-0.125000 I-0.060783 J-0.196727
G02 X46.358218 Y92.213988 Z-0.125000 I-0.387014 J0.205956
G03 X45.373344 Y92.170108 Z-0.125000 I-0.203638 J-6.503957
G03 X44.700320 Y92.013477 Z-0.125000 I0.383738 J-3.173148
G02 X44.116403 Y91.891075 Z-0.125000 I-0.758852 J2.166096
G02 X44.038862 Y91.962914 Z-0.125000 I-0.005491 J0.071840
G01 X44.038862 Y91.962914 Z-0.125000
G00 Z5.000000

(End cutting path id: path5054)


(Start cutting path id: path5054)
(Change tool to Default tool)

G00 Z5.000000
G00 X47.809094 Y91.901621

G01 Z-0.125000 F100.0(Penetrate)
G02 X47.750016 Y92.135405 Z-0.125000 I0.166409 J0.166409 F400.000000
G02 X47.939218 Y92.337113 Z-0.125000 I0.296603 J-0.088624
G02 X48.910740 Y92.436981 Z-0.125000 I0.679798 J-1.837661
G02 X49.154140 Y92.154191 Z-0.125000 I-0.042578 J-0.282791
G02 X49.100481 Y92.056933 Z-0.125000 I-0.114971 J0.000000
G02 X48.622995 Y91.819348 Z-0.125000 I-1.413470 J2.242120
G02 X48.120898 Y91.753660 Z-0.125000 I-0.390798 J1.035347
G02 X47.809094 Y91.901621 Z-0.125000 I0.051702 J0.511473
G01 X47.809094 Y91.901621 Z-0.125000
G00 Z5.000000

(End cutting path id: path5054)


(Start cutting path id: path5054)
(Change tool to Default tool)

G00 Z5.000000
G00 X49.506917 Y91.413323

G01 Z-0.125000 F100.0(Penetrate)
G02 X49.574292 Y91.522338 Z-0.125000 I0.121882 J0.000000 F400.000000
G02 X49.859695 Y91.589712 Z-0.125000 I0.285403 J-0.570806
G02 X50.145098 Y91.522338 Z-0.125000 I0.000000 J-0.638181
G02 X50.212473 Y91.413323 Z-0.125000 I-0.054507 J-0.109014
G02 X50.145098 Y91.304309 Z-0.125000 I-0.121882 J0.000000
G02 X49.859695 Y91.236935 Z-0.125000 I-0.285403 J0.570806
G02 X49.574292 Y91.304309 Z-0.125000 I-0.000000 J0.638181
G02 X49.506917 Y91.413323 Z-0.125000 I0.054507 J0.109014
G01 X49.506917 Y91.413323 Z-0.125000
G00 Z5.000000

(End cutting path id: path5054)


(Start cutting path id: path5054)
(Change tool to Default tool)

G00 Z5.000000
G00 X57.110292 Y88.926455

G01 Z-0.125000 F100.0(Penetrate)
G02 X56.694212 Y89.495410 Z-0.125000 I1.287175 J1.377937 F400.000000
G02 X56.562470 Y90.079852 Z-0.125000 I1.230502 J0.584442
G01 X56.562470 Y90.721509 Z-0.125000
G01 X56.948508 Y90.361862 Z-0.125000
G03 X57.360136 Y90.067220 Z-0.125000 I1.343508 J1.442093
G03 X57.618786 Y90.002212 Z-0.125000 I0.258649 J0.482042
G03 X58.299621 Y90.528985 Z-0.125000 I0.000000 J0.703365
G03 X57.983027 Y91.406516 Z-0.125000 I-0.799601 J0.207397
G02 X58.092332 Y91.853343 Z-0.125000 I0.145083 J0.201292
G02 X59.323763 Y91.601882 Z-0.125000 I0.267093 J-1.832970
G02 X59.780413 Y91.191404 Z-0.125000 I-0.870577 J-1.427748
G02 X59.999237 Y90.720598 Z-0.125000 I-0.948879 J-0.727282
G02 X59.157126 Y88.725618 Z-0.125000 I-1.831280 J-0.402213
G02 X57.110292 Y88.926455 Z-0.125000 I-0.892292 J1.436777
G01 X57.110292 Y88.926455 Z-0.125000
G00 Z5.000000

(End cutting path id: path5054)


(Start cutting path id: path5054)
(Change tool to Default tool)

G00 Z5.000000
G00 X56.564282 Y86.353697

G01 Z-0.125000 F100.0(Penetrate)
G02 X55.997840 Y86.630324 Z-0.125000 I0.657459 J2.064520 F400.000000
G02 X55.237809 Y87.261730 Z-0.125000 I3.007080 J4.392789
G02 X54.176349 Y90.547445 Z-0.125000 I2.686187 J2.682092
G02 X56.287174 Y93.776793 Z-0.125000 I4.678580 J-0.753565
G02 X57.924825 Y94.285631 Z-0.125000 I1.733189 J-2.688383
G02 X60.002053 Y93.887800 Z-0.125000 I0.145318 J-4.863154
G02 X61.765043 Y92.373247 Z-0.125000 I-1.554362 J-3.592694
G02 X62.410862 Y90.042607 Z-0.125000 I-3.591844 J-2.250097
G02 X61.658770 Y87.669501 Z-0.125000 I-4.382902 J0.083314
G02 X59.901334 Y86.333301 Z-0.125000 I-2.855540 J1.931912
G02 X58.306501 Y86.077528 Z-0.125000 I-1.564807 J4.657066
G02 X56.564282 Y86.353705 Z-0.125000 I0.035810 J5.859240
G01 X56.564282 Y86.353697 Z-0.125000
G00 Z5.000000

(End cutting path id: path5054)


(Start cutting path id: path5054)
(Change tool to Default tool)

G00 Z5.000000
G00 X59.120109 Y86.702394

G01 Z-0.125000 F100.0(Penetrate)
G03 X61.147534 Y87.981188 Z-0.125000 I-0.879304 J3.640622 F400.000000
G03 X61.911465 Y90.137744 Z-0.125000 I-2.648003 J2.151603
G03 X60.976290 Y92.515566 Z-0.125000 I-3.503496 J-0.005083
G03 X58.640819 Y93.662883 Z-0.125000 I-2.663592 J-2.471297
G03 X57.622385 Y93.627430 Z-0.125000 I-0.368406 J-4.062749
G03 X56.820074 Y93.369008 Z-0.125000 I0.444740 J-2.755419
G03 X54.812748 Y91.119952 Z-0.125000 I1.820451 J-3.645104
G03 X55.048596 Y88.511853 Z-0.125000 I2.888564 J-1.053503
G03 X56.050390 Y87.361788 Z-0.125000 I3.548146 J2.079351
G03 X57.330961 Y86.712238 Z-0.125000 I2.256869 J2.862278
G03 X58.183684 Y86.593521 Z-0.125000 I0.870617 J3.131657
G03 X59.120109 Y86.702388 Z-0.125000 I0.021454 J3.897240
G01 X59.120109 Y86.702394 Z-0.125000
G00 Z5.000000

(End cutting path id: path5054)


(Start cutting path id: path5054)
(Change tool to Default tool)

G00 Z5.000000
G00 X73.081343 Y83.340831

G01 Z-0.125000 F100.0(Penetrate)
G01 X73.099384 Y83.405097 Z-0.125000 F400.000000
G02 X77.729137 Y83.438576 Z-0.125000 I3.528142 J-167.766492
G02 X81.342555 Y83.388132 Z-0.125000 I-1.604321 J-244.365551
G01 X81.344637 Y83.363470 Z-0.125000
G02 X81.094682 Y83.336681 Z-0.125000 I-0.285873 J1.487814
G02 X76.785510 Y83.257265 Z-0.125000 I-9.671249 J407.820470
G02 X73.302027 Y83.273669 Z-0.125000 I-1.282396 J97.549717
G02 X73.081343 Y83.340831 Z-0.125000 I0.009656 J0.427878
G01 X73.081343 Y83.340831 Z-0.125000
G00 Z5.000000

(End cutting path id: path5054)


(Start cutting path id: path5054)
(Change tool to Default tool)

G00 Z5.000000
G00 X81.433304 Y75.381983

G01 Z-0.125000 F100.0(Penetrate)
G03 X78.963220 Y75.864020 Z-0.125000 I-15.192851 J-71.282459 F400.000000
G03 X75.921151 Y76.359203 Z-0.125000 I-19.081007 J-107.629006
G02 X75.324579 Y76.513292 Z-0.125000 I0.429235 J2.893726
G02 X75.259692 Y76.606873 Z-0.125000 I0.035040 J0.093581
G02 X75.463436 Y76.795664 Z-0.125000 I0.189339 J0.000000
G02 X77.729137 Y76.418470 Z-0.125000 I-0.984972 J-12.909794
G03 X78.443271 Y76.262997 Z-0.125000 I2.327790 J8.974399
G03 X80.286776 Y75.966421 Z-0.125000 I10.532519 J59.591719
G02 X80.983195 Y75.831966 Z-0.125000 I-1.092340 J-7.528656
G02 X81.345109 Y75.710397 Z-0.125000 I-0.518300 J-2.142498
G03 X81.707982 Y75.594789 Z-0.125000 I0.744188 J1.708562
G03 X82.491637 Y75.470731 Z-0.125000 I1.655045 J7.917560
G02 X84.292784 Y75.161734 Z-0.125000 I-1.589710 J-14.670396
G02 X84.532679 Y74.988820 Z-0.125000 I-0.088789 J-0.376050
G02 X84.455673 Y74.869128 Z-0.125000 I-0.067083 J-0.041459
G02 X81.433304 Y75.381983 Z-0.125000 I4.604200 J36.295699
G01 X81.433304 Y75.381983 Z-0.125000
G00 Z5.000000

(End cutting path id: path5054)


(Start cutting path id: path5054)
(Change tool to Default tool)

G00 Z5.000000
G00 X56.334974 Y61.779990

G01 Z-0.125000 F100.0(Penetrate)
G02 X56.483422 Y62.059987 Z-0.125000 I0.667527 J-0.174557 F400.000000
G02 X56.643897 Y62.132768 Z-0.125000 I0.160475 J-0.140527
G03 X56.835389 Y62.189523 Z-0.125000 I0.000000 J0.351424
G03 X57.169942 Y62.474618 Z-0.125000 I-0.927515 J1.427265
G02 X57.524849 Y62.745417 Z-0.125000 I0.907205 J-0.821006
G02 X58.448118 Y63.121192 Z-0.125000 I2.753616 J-5.443454
G02 X59.420570 Y63.290724 Z-0.125000 I1.123963 J-3.573346
G02 X60.311592 Y63.196627 Z-0.125000 I0.124827 J-3.083664
G02 X61.151600 Y62.878176 Z-0.125000 I-1.002502 J-3.911500
G02 X61.574297 Y62.549113 Z-0.125000 I-0.655138 J-1.277575
G03 X61.987730 Y62.283006 Z-0.125000 I0.674281 J0.593370
G03 X62.471498 Y62.276814 Z-0.125000 I0.252576 J0.832222
G03 X62.925714 Y62.479812 Z-0.125000 I-0.438952 J1.591831
G03 X63.000665 Y62.617126 Z-0.125000 I-0.088307 J0.137314
G03 X62.743076 Y63.275994 Z-0.125000 I-0.971430 J-0.000000
G03 X60.482610 Y65.345269 Z-0.125000 I-13.395698 J-12.364093
G03 X59.508384 Y65.946011 Z-0.125000 I-3.349451 J-4.341498
G03 X59.013265 Y66.051435 Z-0.125000 I-0.464639 J-0.966795
G03 X57.835086 Y65.658683 Z-0.125000 I0.061033 J-2.146621
G03 X56.659193 Y64.388144 Z-0.125000 I2.407943 J-3.407985
G02 X56.352801 Y63.925781 Z-0.125000 I-5.022129 J2.995295
G02 X56.128254 Y63.664029 Z-0.125000 I-1.822698 J1.336433
G03 X55.347915 Y62.608490 Z-0.125000 I3.130616 J-3.130616
G03 X55.152019 Y61.824087 Z-0.125000 I1.483622 J-0.787181
G03 X55.285525 Y61.561162 Z-0.125000 I0.324549 J-0.000562
G03 X55.697038 Y61.427212 Z-0.125000 I0.411514 J0.565140
G03 X56.152049 Y61.544642 Z-0.125000 I-0.000000 J0.940237
G03 X56.334974 Y61.779990 Z-0.125000 I-0.183075 J0.331059
G01 X56.334974 Y61.779990 Z-0.125000
G00 Z5.000000

(End cutting path id: path5054)


(Start cutting path id: path5054)
(Change tool to Default tool)

G00 Z5.000000
G00 X54.833859 Y61.286101

G01 Z-0.125000 F100.0(Penetrate)
G02 X54.674263 Y62.201150 Z-0.125000 I0.571039 J0.571039 F400.000000
G02 X56.605983 Y65.049850 Z-0.125000 I10.032003 J-4.723454
G02 X59.036469 Y66.009317 Z-0.125000 I2.226117 J-2.080975
G02 X61.928212 Y64.692106 Z-0.125000 I-0.302227 J-4.496296
G02 X63.365615 Y62.605075 Z-0.125000 I-5.017814 J-4.994435
G02 X63.140511 Y62.000476 Z-0.125000 I-0.418377 J-0.188435
G02 X62.223973 Y61.866914 Z-0.125000 I-0.682001 J1.468518
G02 X61.031978 Y62.309157 Z-0.125000 I0.441918 J3.018655
G03 X59.470387 Y62.769953 Z-0.125000 I-1.587382 J-2.503039
G03 X57.964017 Y62.335855 Z-0.125000 I-0.023910 J-2.747717
G03 X57.209340 Y61.798901 Z-0.125000 I5.148273 J-8.034595
G03 X56.843812 Y61.453910 Z-0.125000 I1.738396 J-2.208026
G02 X55.801864 Y60.931602 Z-0.125000 I-1.172210 J1.037989
G02 X54.833859 Y61.286107 Z-0.125000 I-0.101903 J1.220607
G01 X54.833859 Y61.286101 Z-0.125000
G00 Z5.000000

(End cutting path id: path5054)


(Start cutting path id: path5054)
(Change tool to Default tool)

G00 Z5.000000
G00 X59.384692 Y51.373045

G01 Z-0.125000 F100.0(Penetrate)
G02 X59.185503 Y51.875620 Z-0.125000 I0.481661 J0.481661 F400.000000
G02 X59.428790 Y52.808588 Z-0.125000 I2.165650 J-0.066523
G02 X60.993046 Y55.019893 Z-0.125000 I8.849343 J-4.601022
G02 X62.443089 Y56.032077 Z-0.125000 I3.105134 J-2.903628
G02 X63.935292 Y56.601575 Z-0.125000 I8.808001 J-20.839080
G02 X64.286627 Y56.662056 Z-0.125000 I0.364487 J-1.066617
G02 X65.371656 Y56.268276 Z-0.125000 I0.019091 J-1.639141
G02 X67.514854 Y53.898903 Z-0.125000 I-8.165830 J-9.540331
G02 X67.931215 Y52.790983 Z-0.125000 I-1.976855 J-1.375106
G02 X67.705179 Y52.194134 Z-0.125000 I-0.695870 J-0.077689
G02 X67.114193 Y51.999277 Z-0.125000 I-0.515389 J0.569497
G02 X65.752272 Y52.387282 Z-0.125000 I0.391498 J3.958399
G03 X64.740336 Y52.760058 Z-0.125000 I-2.299488 J-4.682289
G03 X63.949245 Y52.846522 Z-0.125000 I-0.701138 J-2.752744
G03 X62.927034 Y52.598940 Z-0.125000 I0.081415 J-2.570182
G03 X61.588148 Y51.724607 Z-0.125000 I2.551134 J-5.368903
G02 X60.238579 Y51.096137 Z-0.125000 I-1.777517 J2.053760
G02 X59.384692 Y51.373045 Z-0.125000 I-0.155593 J0.975203
G01 X59.384692 Y51.373045 Z-0.125000
G00 Z5.000000

(End cutting path id: path5054)


(Start cutting path id: path5054)
(Change tool to Default tool)

G00 Z5.000000
G00 X62.559692 Y53.062179

G01 Z-0.125000 F100.0(Penetrate)
G03 X62.991025 Y53.184222 Z-0.125000 I-0.779487 J3.578164 F400.000000
G03 X63.306952 Y53.323977 Z-0.125000 I-0.719058 J2.052455
G02 X64.303695 Y53.572486 Z-0.125000 I0.981669 J-1.814196
G02 X64.764553 Y53.313337 Z-0.125000 I-0.003994 J-0.546461
G03 X64.907467 Y53.197029 Z-0.125000 I0.238993 J0.147706
G03 X65.260034 Y53.133026 Z-0.125000 I0.363344 J0.998427
G02 X65.621591 Y53.057956 Z-0.125000 I-0.010167 J-0.957183
G02 X66.087470 Y52.784171 Z-0.125000 I-0.794255 J-1.884791
G03 X66.918861 Y52.443130 Z-0.125000 I1.021151 J1.305465
G03 X67.447651 Y52.627407 Z-0.125000 I0.073689 J0.639379
G03 X67.553333 Y53.567747 Z-0.125000 I-0.536391 J0.536391
G03 X66.465473 Y54.188587 Z-0.125000 I-1.125018 J-0.707785
G02 X66.333296 Y54.266775 Z-0.125000 I0.004447 J0.158334
G02 X66.319223 Y54.437911 Z-0.125000 I0.170795 J0.100193
G03 X66.291427 Y54.631068 Z-0.125000 I-0.186832 J0.071693
G03 X65.985317 Y54.875104 Z-0.125000 I-0.640025 J-0.488819
G02 X65.620540 Y55.109696 Z-0.125000 I0.626569 J1.375177
G02 X65.558303 Y55.246249 Z-0.125000 I0.118686 J0.136553
G03 X65.169572 Y55.849861 Z-0.125000 I-0.663001 J0.000000
G03 X63.882609 Y56.007651 Z-0.125000 I-0.894527 J-1.968675
G03 X62.403281 Y55.534965 Z-0.125000 I1.114552 J-6.039336
G03 X62.206915 Y55.226827 Z-0.125000 I0.143582 J-0.308138
G02 X62.159746 Y55.124394 Z-0.125000 I-0.134807 J0.000000
G02 X62.032061 Y55.077226 Z-0.125000 I-0.127685 J0.149240
G03 X60.500258 Y54.314432 Z-0.125000 I-0.000000 J-1.919441
G03 X59.737470 Y52.038398 Z-0.125000 I3.014263 J-2.276033
G03 X59.831572 Y51.779992 Z-0.125000 I0.401847 J-0.000000
G03 X60.132017 Y51.568518 Z-0.125000 I0.549288 J0.461223
G03 X60.490877 Y51.591810 Z-0.125000 I0.153291 J0.414380
G03 X61.322642 Y52.194349 Z-0.125000 I-1.676872 J3.190177
G02 X62.160936 Y52.887397 Z-0.125000 I4.792491 J-4.943366
G02 X62.559692 Y53.062193 Z-0.125000 I0.633571 J-0.903108
G01 X62.559692 Y53.062179 Z-0.125000
G00 Z5.000000

(End cutting path id: path5054)


(Start cutting path id: path5054)
(Change tool to Default tool)

G00 Z5.000000
G00 X45.595094 Y51.858115

G01 Z-0.125000 F100.0(Penetrate)
G02 X46.897464 Y52.938304 Z-0.125000 I8.074785 J-8.410442 F400.000000
G02 X47.491213 Y53.211162 Z-0.125000 I1.010026 J-1.415416
G02 X49.023332 Y53.454221 Z-0.125000 I2.202184 J-8.931048
G02 X49.154137 Y53.332622 Z-0.125000 I0.008881 J-0.121599
G03 X49.234960 Y53.217757 Z-0.125000 I0.122033 J-0.000000
G03 X49.699579 Y53.136934 Z-0.125000 I0.464619 J1.295042
G02 X50.214336 Y53.048291 Z-0.125000 I0.000000 J-1.538930
G02 X50.693507 Y52.784157 Z-0.125000 I-0.564836 J-1.591382
G03 X51.645960 Y52.455414 Z-0.125000 I0.949661 J1.207291
G03 X51.976359 Y52.786414 Z-0.125000 I-0.000602 J0.331000
G03 X51.788546 Y53.471405 Z-0.125000 I-1.343053 J0.000000
G03 X51.094415 Y54.273821 Z-0.125000 I-2.577779 J-1.528473
G02 X50.671356 Y54.648881 Z-0.125000 I3.893398 J4.817792
G02 X50.212470 Y55.130699 Z-0.125000 I5.978364 J6.153257
G03 X49.729481 Y55.572957 Z-0.125000 I-2.297462 J-2.024188
G03 X49.206159 Y55.870999 Z-0.125000 I-1.534390 J-2.085724
G03 X47.886680 Y55.882733 Z-0.125000 I-0.673921 J-1.588892
G03 X45.982408 Y54.570807 Z-0.125000 I1.982609 J-4.915771
G03 X44.649231 Y53.013483 Z-0.125000 I18.975827 J-17.593926
G03 X44.568026 Y52.779607 Z-0.125000 I0.296184 J-0.233876
G02 X44.534762 Y52.612312 Z-0.125000 I-0.437326 J0.000000
G02 X44.347539 Y52.247074 Z-0.125000 I-2.339495 J0.968629
G03 X44.270037 Y51.923989 Z-0.125000 I0.449732 J-0.278722
G03 X44.391637 Y51.723001 Z-0.125000 I0.263557 J0.022176
G03 X45.004567 Y51.581146 Z-0.125000 I0.507536 J0.797867
G03 X45.595094 Y51.857974 Z-0.125000 I-0.113262 J1.009880
G01 X45.595094 Y51.858115 Z-0.125000
G00 Z5.000000

(End cutting path id: path5054)


(Start cutting path id: path5054)
(Change tool to Default tool)

G00 Z5.000000
G00 X44.082956 Y51.202154

G01 Z-0.125000 F100.0(Penetrate)
G02 X43.741883 Y51.970412 Z-0.125000 I0.224979 J0.559720 F400.000000
G02 X45.356123 Y54.658036 Z-0.125000 I7.874585 J-2.901045
G02 X46.407524 Y55.616577 Z-0.125000 I5.171727 J-4.616849
G02 X47.490806 Y56.235610 Z-0.125000 I3.168646 J-4.287631
G01 X48.661250 Y56.733055 Z-0.125000
G01 X49.415331 Y56.333016 Z-0.125000
G02 X50.990625 Y55.211417 Z-0.125000 I-3.469366 J-6.539807
G02 X52.095468 Y53.837655 Z-0.125000 I-4.192578 J-4.503030
G03 X52.434010 Y53.363806 Z-0.125000 I2.892145 J1.708433
G03 X52.543558 Y53.313323 Z-0.125000 I0.109548 J0.093619
G02 X52.734256 Y53.077064 Z-0.125000 I0.000000 J-0.195091
G02 X52.322265 Y52.288250 Z-0.125000 I-1.638318 J0.353683
G02 X51.559659 Y51.942875 Z-0.125000 I-0.794904 J0.740566
G02 X50.590860 Y52.236753 Z-0.125000 I-0.047235 J1.588100
G03 X50.095884 Y52.517979 Z-0.125000 I-1.619943 J-2.274992
G03 X49.373006 Y52.772718 Z-0.125000 I-2.039102 J-4.633370
G03 X47.818929 Y52.692768 Z-0.125000 I-0.654122 J-2.429226
G03 X45.838827 Y51.418853 Z-0.125000 I2.060271 J-5.378206
G02 X45.112546 Y51.067865 Z-0.125000 I-0.879912 J0.893834
G02 X44.082956 Y51.202154 Z-0.125000 I-0.254543 J2.062483
G01 X44.082956 Y51.202154 Z-0.125000
G00 Z5.000000

(End cutting path id: path5054)


(Start cutting path id: path5054)
(Change tool to Default tool)

G00 Z5.000000
G00 X38.747192 Y63.173451

G01 Z-0.125000 F100.0(Penetrate)
G02 X38.437994 Y63.402911 Z-0.125000 I0.138404 J0.509553 F400.000000
G02 X38.250295 Y63.967517 Z-0.125000 I1.068805 J0.668819
G02 X38.528916 Y65.112690 Z-0.125000 I1.858997 J0.154186
G02 X40.533882 Y67.609270 Z-0.125000 I11.665078 J-7.314679
G02 X41.680427 Y68.463312 Z-0.125000 I3.661160 J-3.718446
G02 X42.442960 Y68.659157 Z-0.125000 I0.762533 J-1.386563
G02 X43.286604 Y68.459127 Z-0.125000 I0.000000 J-1.879092
G02 X44.723970 Y67.513063 Z-0.125000 I-3.323015 J-6.613633
G02 X46.413457 Y65.909115 Z-0.125000 I-12.327042 J-14.676209
G02 X47.050960 Y65.017976 Z-0.125000 I-3.100548 J-2.891669
G02 X46.962613 Y64.452386 Z-0.125000 I-0.419006 J-0.224245
G02 X45.966973 Y63.967923 Z-0.125000 I-1.237083 J1.277062
G02 X45.212492 Y64.008147 Z-0.125000 I-0.272373 J1.987139
G02 X44.648264 Y64.294471 Z-0.125000 I0.338092 J1.365331
G03 X43.678657 Y64.796397 Z-0.125000 I-1.613559 J-1.929541
G03 X42.474987 Y64.870044 Z-0.125000 I-0.785579 J-2.966227
G03 X41.685955 Y64.649873 Z-0.125000 I0.413309 J-3.005106
G03 X41.112099 Y64.281639 Z-0.125000 I0.832956 J-1.929345
G02 X39.546412 Y63.242754 Z-0.125000 I-4.276038 J4.745097
G02 X38.747192 Y63.173451 Z-0.125000 I-0.494036 J1.054290
G01 X38.747192 Y63.173451 Z-0.125000
G00 Z5.000000

(End cutting path id: path5054)


(Start cutting path id: path5054)
(Change tool to Default tool)

G00 Z5.000000
G00 X40.509614 Y64.435371

G01 Z-0.125000 F100.0(Penetrate)
G02 X42.713705 Y65.728978 Z-0.125000 I3.442594 J-3.341102 F400.000000
G02 X43.774276 Y65.307768 Z-0.125000 I0.246932 J-0.924065
G03 X43.914620 Y65.187573 Z-0.125000 I0.258428 J0.159718
G03 X44.192399 Y65.131379 Z-0.125000 I0.277779 J0.658463
G02 X44.474670 Y65.063209 Z-0.125000 I0.000000 J-0.618480
G02 X44.880169 Y64.778601 Z-0.125000 I-0.821573 J-1.601725
G03 X45.902870 Y64.350539 Z-0.125000 I1.091165 J1.171228
G03 X46.452528 Y64.711288 Z-0.125000 I0.024077 J0.562434
G03 X46.410759 Y64.962649 Z-0.125000 I-0.234853 J0.090125
G03 X44.862245 Y66.615704 Z-0.125000 I-15.257416 J-12.740702
G03 X43.003170 Y67.960892 Z-0.125000 I-5.894185 J-6.188641
G03 X41.992502 Y68.152734 Z-0.125000 I-0.810939 J-1.514080
G03 X41.054386 Y67.684931 Z-0.125000 I0.179705 J-1.534907
G03 X39.205538 Y65.233306 Z-0.125000 I9.590957 J-9.155797
G03 X38.854570 Y64.034571 Z-0.125000 I2.219019 J-1.300435
G03 X39.144067 Y63.679927 Z-0.125000 I0.345238 J-0.013662
G03 X39.632396 Y63.764574 Z-0.125000 I0.122067 J0.746706
G03 X40.509614 Y64.435371 Z-0.125000 I-1.818375 J3.286909
G01 X40.509614 Y64.435371 Z-0.125000
G00 Z5.000000

(End cutting path id: path5054)


(Start cutting path id: path5054)
(Change tool to Default tool)

G00 Z5.000000
G00 X29.759851 Y51.455641

G01 Z-0.125000 F100.0(Penetrate)
G02 X30.395171 Y52.005964 Z-0.125000 I4.032477 J-4.013401 F400.000000
G02 X30.589206 Y52.073002 Z-0.125000 I0.202658 J-0.272249
G03 X30.752737 Y52.134127 Z-0.125000 I-0.006785 J0.267464
G03 X30.809692 Y52.254990 Z-0.125000 I-0.099762 J0.120863
G02 X30.880521 Y52.360549 Z-0.125000 I0.114074 J0.000000
G02 X31.240253 Y52.431379 Z-0.125000 I0.359732 J-0.878094
G03 X31.635694 Y52.494374 Z-0.125000 I-0.000000 J1.272659
G03 X31.779831 Y52.607768 Z-0.125000 I-0.082948 J0.253741
G02 X31.928336 Y52.713326 Z-0.125000 I0.199340 J-0.123199
G02 X32.573581 Y52.784157 Z-0.125000 I0.645245 J-2.903596
G02 X33.218826 Y52.713327 Z-0.125000 I-0.000000 J-2.974439
G02 X33.367331 Y52.607768 Z-0.125000 I-0.050835 J-0.228759
G03 X33.507237 Y52.486739 Z-0.125000 I0.262816 J0.162430
G03 X33.774617 Y52.431164 Z-0.125000 I0.267867 J0.617762
G02 X34.047373 Y52.362233 Z-0.125000 I-0.000416 J-0.575745
G02 X34.573010 Y52.000832 Z-0.125000 I-1.404396 J-2.605569
G03 X35.095630 Y51.728791 Z-0.125000 I0.841325 J0.978251
G03 X35.499051 Y51.764778 Z-0.125000 I0.150609 J0.590846
G03 X35.722985 Y52.365423 Z-0.125000 I-0.187747 J0.412062
G03 X34.284948 Y54.415201 Z-0.125000 I-6.281154 J-2.877269
G03 X32.997795 Y55.275699 Z-0.125000 I-2.911051 J-2.961489
G03 X32.088512 Y55.348430 Z-0.125000 I-0.563664 J-1.326634
G03 X30.231424 Y54.576957 Z-0.125000 I1.596495 J-6.464003
G03 X29.927748 Y54.037528 Z-0.125000 I0.327265 J-0.539429
G02 X29.890905 Y53.930759 Z-0.125000 I-0.173126 J-0.000000
G02 X29.222192 Y53.136934 Z-0.125000 I-11.509680 J9.017102
G03 X28.600068 Y52.325159 Z-0.125000 I4.648095 J-4.206462
G03 X28.516637 Y52.041562 Z-0.125000 I0.440282 J-0.283597
G02 X28.451407 Y51.791053 Z-0.125000 I-0.513645 J0.000000
G02 X28.340248 Y51.725823 Z-0.125000 I-0.111159 J0.062100
G03 X28.069360 Y51.403734 Z-0.125000 I0.000000 J-0.274958
G03 X28.472539 Y50.965469 Z-0.125000 I0.542370 J0.094366
G03 X29.053224 Y50.996917 Z-0.125000 I0.241206 J0.923004
G03 X29.759851 Y51.455641 Z-0.125000 I-0.712466 J1.871112
G01 X29.759851 Y51.455641 Z-0.125000
G00 Z5.000000

(End cutting path id: path5054)


(Start cutting path id: path5054)
(Change tool to Default tool)

G00 Z5.000000
G00 X28.207957 Y50.489924

G01 Z-0.125000 F100.0(Penetrate)
G02 X27.938326 Y50.740786 Z-0.125000 I0.205869 J0.491607 F400.000000
G02 X27.811082 Y51.273802 Z-0.125000 I1.052771 J0.533016
G02 X28.094153 Y52.319880 Z-0.125000 I2.074409 J0.000000
G02 X29.546161 Y54.245004 Z-0.125000 I8.868784 J-5.179060
G02 X32.145551 Y55.759765 Z-0.125000 I3.940610 J-3.774533
G02 X34.013815 Y55.377880 Z-0.125000 I0.538818 J-2.124905
G02 X36.081228 Y53.332016 Z-0.125000 I-6.878984 J-9.018967
G02 X36.454137 Y52.246980 Z-0.125000 I-1.392086 J-1.085036
G02 X35.754256 Y51.331967 Z-0.125000 I-0.948077 J0.000000
G02 X34.173603 Y51.628389 Z-0.125000 I-0.483705 J1.783252
G03 X32.340001 Y52.114846 Z-0.125000 I-1.532359 J-2.076994
G03 X30.273120 Y51.170026 Z-0.125000 I0.432326 J-3.678912
G02 X29.053868 Y50.456726 Z-0.125000 I-2.273092 J2.486732
G02 X28.207957 Y50.489924 Z-0.125000 I-0.378501 J1.149334
G01 X28.207957 Y50.489924 Z-0.125000
G00 Z5.000000

(End cutting path id: path5054)


(Start cutting path id: path5054)
(Change tool to Default tool)

G00 Z5.000000
G00 X23.100234 Y60.236587

G01 Z-0.125000 F100.0(Penetrate)
G03 X23.509773 Y60.499038 Z-0.125000 I-0.760388 J1.637296 F400.000000
G03 X23.576373 Y60.641762 Z-0.125000 I-0.122651 J0.144134
G02 X23.852794 Y61.261408 Z-0.125000 I0.846916 J-0.006327
G02 X25.502637 Y62.397292 Z-0.125000 I4.971790 J-5.455279
G02 X26.584642 Y62.603115 Z-0.125000 I0.900426 J-1.786565
G02 X28.216551 Y62.149955 Z-0.125000 I-0.429360 J-4.711173
G03 X29.317784 Y61.848207 Z-0.125000 I1.364033 J2.817699
G03 X29.732806 Y62.022216 Z-0.125000 I0.040823 J0.484567
G03 X29.777733 Y62.503400 Z-0.125000 I-0.329495 J0.273454
G03 X28.486368 Y64.268860 Z-0.125000 I-7.670262 J-4.255475
G03 X27.771940 Y64.800083 Z-0.125000 I-1.860426 J-1.756018
G03 X27.116962 Y64.954990 Z-0.125000 I-0.654978 J-1.307239
G03 X26.407991 Y64.901570 Z-0.125000 I0.000000 J-4.731311
G03 X26.088897 Y64.799181 Z-0.125000 I0.157517 J-1.039318
G02 X25.781174 Y64.646305 Z-0.125000 I-8.200081 J16.119840
G02 X25.273132 Y64.403533 Z-0.125000 I-21.174835 J43.658952
G03 X23.716431 Y63.294840 Z-0.125000 I2.287232 J-4.858687
G03 X22.353121 Y61.410375 Z-0.125000 I5.693328 J-5.554193
G03 X22.395370 Y60.442787 Z-0.125000 I0.859876 J-0.447170
G03 X23.100234 Y60.236587 Z-0.125000 I0.470131 J0.299237
G01 X23.100234 Y60.236587 Z-0.125000
G00 Z5.000000

(End cutting path id: path5054)


(Start cutting path id: path5054)
(Change tool to Default tool)

G00 Z5.000000
G00 X21.672749 Y59.874990

G01 Z-0.125000 F100.0(Penetrate)
G02 X21.516662 Y60.261622 Z-0.125000 I0.377033 J0.377034 F400.000000
G02 X21.697519 Y61.250990 Z-0.125000 I3.102057 J-0.055844
G02 X22.150793 Y62.091357 Z-0.125000 I2.987394 J-1.068903
G02 X23.491488 Y63.632073 Z-0.125000 I11.594550 J-8.735622
G02 X24.559887 Y64.501279 Z-0.125000 I4.807740 J-4.818294
G02 X25.738513 Y65.109416 Z-0.125000 I3.467285 J-5.273706
G03 X26.134968 Y65.264907 Z-0.125000 I-28.755972 J73.902418
G03 X26.614483 Y65.455692 Z-0.125000 I-42.769741 J108.194663
G02 X27.518005 Y65.450469 Z-0.125000 I0.445348 J-1.112158
G02 X28.992901 Y64.471233 Z-0.125000 I-1.759002 J-4.249694
G02 X30.435142 Y62.538957 Z-0.125000 I-5.678776 J-5.742989
G02 X30.387849 Y61.864510 Z-0.125000 I-0.559897 J-0.299621
G02 X29.323781 Y61.036823 Z-0.125000 I-1.980308 J1.448047
G02 X28.832291 Y61.238219 Z-0.125000 I-0.142240 J0.353293
G03 X28.235224 Y61.815463 Z-0.125000 I-0.996623 J-0.433440
G03 X26.569523 Y62.132768 Z-0.125000 I-1.665701 J-4.213420
G03 X25.631601 Y61.866336 Z-0.125000 I0.000000 J-1.784103
G03 X24.164717 Y60.646594 Z-0.125000 I3.590654 J-5.810112
G02 X23.194561 Y59.838808 Z-0.125000 I-3.362447 J3.051845
G02 X22.578345 Y59.663323 Z-0.125000 I-0.616215 J0.994178
G02 X21.916050 Y59.739694 Z-0.125000 I-0.000000 J2.909943
G02 X21.672749 Y59.874990 Z-0.125000 I0.115482 J0.494078
G01 X21.672749 Y59.874990 Z-0.125000
G00 Z5.000000

(End cutting path id: path5054)


(Start cutting path id: path5054)
(Change tool to Default tool)

G00 Z5.000000
G00 X6.167408 Y83.430690

G01 Z-0.125000 F100.0(Penetrate)
G02 X7.542422 Y83.460684 Z-0.125000 I1.369492 J-31.249398 F400.000000
G02 X8.813241 Y83.430126 Z-0.125000 I-0.004702 J-26.635446
G01 X8.813182 Y83.399862 Z-0.125000
G02 X7.438165 Y83.369863 Z-0.125000 I-1.369737 J31.255389
G02 X6.167348 Y83.400302 Z-0.125000 I0.003260 J26.679250
G01 X6.167408 Y83.430575 Z-0.125000
G01 X6.167408 Y83.430690 Z-0.125000
G00 Z5.000000

(End cutting path id: path5054)


(Start cutting path id: path5054)
(Change tool to Default tool)

G00 Z5.000000
G00 X41.215398 Y87.914448

G01 Z-0.125000 F100.0(Penetrate)
G03 X39.347060 Y88.774566 Z-0.125000 I-17.542393 J-35.646117 F400.000000
G03 X38.835387 Y88.936315 Z-0.125000 I-1.066999 J-2.485134
G02 X38.468940 Y89.180557 Z-0.125000 I0.121562 J0.579403
G02 X38.300818 Y89.714667 Z-0.125000 I0.788967 J0.541859
G02 X38.343222 Y90.355597 Z-0.125000 I4.331417 J0.035304
G02 X38.404538 Y90.449444 Z-0.125000 I0.130730 J-0.018460
G02 X38.522649 Y90.489399 Z-0.125000 I0.145407 J-0.235286
G02 X41.241167 Y90.730749 Z-0.125000 I13.076921 J-131.864686
G02 X43.966998 Y90.831985 Z-0.125000 I2.592982 J-33.069619
G02 X46.123793 Y90.711191 Z-0.125000 I-0.083316 J-20.802994
G02 X48.137702 Y90.315594 Z-0.125000 I-1.285232 J-11.866872
G02 X48.383447 Y90.061312 Z-0.125000 I-0.097939 J-0.340540
G02 X48.279104 Y89.460502 Z-0.125000 I-0.728752 J-0.182902
G02 X47.683000 Y89.014753 Z-0.125000 I-0.930300 J0.622636
G03 X46.769514 Y88.667905 Z-0.125000 I2.444119 J-7.813353
G03 X44.156658 Y87.428992 Z-0.125000 I29.404165 J-65.387788
G02 X43.298719 Y87.027338 Z-0.125000 I-8.437560 J16.905654
G02 X43.185281 Y87.003587 Z-0.125000 I-0.113438 J0.259025
G02 X43.072038 Y87.028501 Z-0.125000 I-0.000000 J0.269823
G02 X41.215398 Y87.914434 Z-0.125000 I35.650763 J77.101351
G01 X41.215398 Y87.914448 Z-0.125000
G00 Z5.000000

(End cutting path id: path5054)


(Start cutting path id: path5054)
(Change tool to Default tool)

G00 Z5.000000
G00 X41.922192 Y81.705136

G01 Z-0.125000 F100.0(Penetrate)
G02 X42.047468 Y81.955110 Z-0.125000 I0.312036 J0.000000 F400.000000
G02 X42.646236 Y82.246080 Z-0.125000 I1.058678 J-1.417018
G02 X43.207242 Y82.031783 Z-0.125000 I0.132901 J-0.493555
G02 X43.062545 Y81.607873 Z-0.125000 I-0.238162 J-0.155356
G02 X42.120182 Y81.489541 Z-0.125000 I-0.748771 J2.151464
G02 X41.922192 Y81.705136 Z-0.125000 I0.018388 J0.215595
G01 X41.922192 Y81.705136 Z-0.125000
G00 Z5.000000

(End cutting path id: path5054)


(Start cutting path id: path5054)
(Change tool to Default tool)

G00 Z5.000000
G00 X80.168248 Y30.779642

G01 Z-0.125000 F100.0(Penetrate)
G03 X81.680281 Y32.506836 Z-0.125000 I-18.051718 J17.328409 F400.000000
G03 X81.785867 Y32.808115 Z-0.125000 I-0.378394 J0.301753
G02 X81.839295 Y32.975337 Z-0.125000 I0.289293 J-0.000283
G02 X81.942449 Y33.028601 Z-0.125000 I0.103155 J-0.073258
G03 X82.046484 Y33.092014 Z-0.125000 I0.000000 J0.117045
G03 X82.192515 Y33.513670 Z-0.125000 I-1.395558 J0.719436
G02 X82.298971 Y33.995680 Z-0.125000 I9.123691 J-1.762274
G02 X82.488846 Y34.704295 Z-0.125000 I19.919370 J-4.957696
G03 X82.750850 Y35.704911 Z-0.125000 I-21.083055 J6.055068
G03 X83.282446 Y38.055684 Z-0.125000 I-115.892739 J27.443083
G03 X83.465589 Y39.477834 Z-0.125000 I-8.333295 J1.796021
G03 X83.487647 Y42.729990 Z-0.125000 I-43.811086 J1.923303
G03 X83.343222 Y45.989936 Z-0.125000 I-116.762950 J-3.539768
G03 X83.199673 Y47.668879 Z-0.125000 I-31.097473 J-1.813210
G02 X83.019751 Y49.345506 Z-0.125000 I154.024378 J17.376635
G02 X82.849478 Y51.108462 Z-0.125000 I170.143128 J17.322788
G03 X82.667400 Y52.868939 Z-0.125000 I-73.737276 J-6.736638
G03 X82.604958 Y53.225129 Z-0.125000 I-3.070390 J-0.354692
G02 X82.525766 Y53.578824 Z-0.125000 I14.951007 J3.533222
G02 X82.306446 Y54.636240 Z-0.125000 I133.490521 J28.238925
G03 X82.072392 Y55.690072 Z-0.125000 I-29.394339 J-5.975495
G03 X81.753688 Y56.929295 Z-0.125000 I-40.973447 J-9.876987
G02 X81.417568 Y58.164422 Z-0.125000 I510.467540 J139.579071
G02 X81.228196 Y58.869573 Z-0.125000 I165.715874 J44.881795
G03 X81.026645 Y59.570630 Z-0.125000 I-17.896525 J-4.765682
G03 X80.901227 Y59.927907 Z-0.125000 I-4.766709 J-1.472642
G02 X80.288516 Y61.552908 Z-0.125000 I53.921756 J21.259358
G02 X79.821623 Y62.926518 Z-0.125000 I38.053968 J13.700788
G03 X79.575118 Y63.622086 Z-0.125000 I-11.386737 J-3.643921
G03 X79.478074 Y63.808462 Z-0.125000 I-0.903143 J-0.351804
G02 X79.378129 Y63.994186 Z-0.125000 I0.924734 J0.617386
G02 X78.697848 Y65.660545 Z-0.125000 I74.647785 J31.446552
G03 X77.442556 Y68.591377 Z-0.125000 I-52.604018 J-20.796363
G03 X74.123082 Y75.560926 Z-0.125000 I-301.014850 J-139.092798
G03 X73.407223 Y76.241931 Z-0.125000 I-1.278688 J-0.627381
G03 X70.849970 Y76.968919 Z-0.125000 I-4.074974 J-9.472940
G03 X65.770798 Y77.660802 Z-0.125000 I-30.601449 J-205.658449
G03 X62.582239 Y77.991509 Z-0.125000 I-9.981576 J-80.702107
G02 X60.682835 Y78.429761 Z-0.125000 I0.570796 J6.809030
G02 X60.567836 Y78.772570 Z-0.125000 I0.084995 J0.219206
G02 X60.884027 Y78.931502 Z-0.125000 I0.287285 J-0.177552
G02 X67.410387 Y78.184735 Z-0.125000 I-9.959843 J-115.935827
G03 X69.497946 Y77.897176 Z-0.125000 I28.327383 J197.923580
G03 X72.213087 Y77.548937 Z-0.125000 I44.286012 J334.528966
G01 X73.135234 Y77.434467 Z-0.125000
G01 X72.507975 Y78.881914 Z-0.125000
G03 X71.100748 Y81.839124 Z-0.125000 I-42.659708 J-18.486755
G03 X70.602289 Y82.547950 Z-0.125000 I-2.888167 J-1.501334
G03 X70.362597 Y82.659169 Z-0.125000 I-0.255141 J-0.235972
G03 X69.346197 Y82.603841 Z-0.125000 I-0.229252 J-5.152117
G02 X68.290296 Y82.456639 Z-0.125000 I-5.529763 J35.804948
G02 X66.440248 Y82.242224 Z-0.125000 I-13.655534 J109.736474
G03 X64.594599 Y82.008107 Z-0.125000 I5.168886 J-48.140768
G03 X63.950340 Y81.877650 Z-0.125000 I0.875671 J-5.980508
G02 X62.796393 Y81.828180 Z-0.125000 I-0.692258 J2.664437
G02 X62.591521 Y82.108809 Z-0.125000 I0.041781 J0.245599
G02 X62.779995 Y82.370945 Z-0.125000 I0.344596 J-0.048939
G02 X63.618026 Y82.623998 Z-0.125000 I1.147804 J-2.286994
G03 X64.587589 Y82.746736 Z-0.125000 I-12.955966 J106.235889
G03 X66.087470 Y82.948068 Z-0.125000 I-33.405863 J254.554164
G02 X67.588557 Y83.138226 Z-0.125000 I9.916294 J-72.258275
G02 X68.865330 Y83.270727 Z-0.125000 I6.055792 J-52.135694
G01 X70.143881 Y83.387629 Z-0.125000
G01 X69.306302 Y84.780111 Z-0.125000
G03 X68.423465 Y86.128223 Z-0.125000 I-18.047545 J-10.855661
G03 X68.193079 Y86.345868 Z-0.125000 I-0.663951 J-0.472056
G03 X67.918345 Y86.364722 Z-0.125000 I-0.154928 J-0.246455
G03 X66.378949 Y85.526650 Z-0.125000 I4.853400 J-10.747710
G02 X64.833412 Y84.558085 Z-0.125000 I-37.686985 J58.419610
G02 X64.748066 Y84.534157 Z-0.125000 I-0.085346 J0.140242
G03 X64.117801 Y84.318745 Z-0.125000 I0.000000 J-1.029740
G03 X63.062562 Y83.229635 Z-0.125000 I3.267227 J-4.221385
G02 X62.651797 Y83.120355 Z-0.125000 I-0.272441 J0.197420
G02 X62.383303 Y83.535985 Z-0.125000 I0.187452 J0.415630
G02 X62.726230 Y84.195470 Z-0.125000 I0.805596 J-0.000000
G02 X66.914133 Y86.714642 Z-0.125000 I20.000834 J-28.509042
G03 X67.449651 Y87.029933 Z-0.125000 I-2.322159 J4.556588
G03 X67.573918 Y87.159182 Z-0.125000 I-0.237915 J0.353108
G03 X67.584223 Y87.862081 Z-0.125000 I-0.582613 J0.360067
G03 X65.618493 Y90.541031 Z-0.125000 I-13.247020 J-7.659582
G02 X65.246751 Y91.007688 Z-0.125000 I3.182659 J2.916719
G02 X65.205526 Y91.140135 Z-0.125000 I0.192146 J0.132447
G03 X65.169378 Y91.277801 Z-0.125000 I-0.280219 J0.000000
G03 X64.614022 Y92.188816 Z-0.125000 I-13.713747 J-7.735136
G02 X61.130131 Y97.536622 Z-0.125000 I677.941870 J445.461913
G02 X60.834039 Y98.041338 Z-0.125000 I5.727821 J3.699442
G02 X60.737430 Y98.424706 Z-0.125000 I0.732405 J0.388424
G02 X60.823822 Y99.717032 Z-0.125000 I8.897310 J0.054261
G03 X61.138039 Y108.419071 Z-0.125000 I-41.732373 J5.863581
G03 X60.069200 Y110.895476 Z-0.125000 I-4.034210 J-0.272339
G02 X59.959559 Y111.080961 Z-0.125000 I0.372645 J0.345417
G02 X59.913873 Y111.363878 Z-0.125000 I0.853150 J0.282916
G03 X59.719067 Y112.224795 Z-0.125000 I-1.999749 J0.000000
G03 X58.944976 Y113.395203 Z-0.125000 I-4.561583 J-2.175773
G03 X58.770906 Y113.431843 Z-0.125000 I-0.111655 J-0.098644
G03 X58.371929 Y113.130817 Z-0.125000 I0.492717 J-1.067954
G03 X58.027779 Y112.648216 Z-0.125000 I2.476659 J-2.130154
G03 X57.973810 Y112.449194 Z-0.125000 I0.341416 J-0.199411
G02 X57.909207 Y112.265944 Z-0.125000 I-0.293019 J0.000288
G02 X57.620818 Y112.009887 Z-0.125000 I-0.899885 J0.723081
G03 X57.346806 Y111.745901 Z-0.125000 I0.486791 J-0.779479
G03 X57.268040 Y111.489230 Z-0.125000 I0.378815 J-0.256671
G02 X57.196704 Y111.224646 Z-0.125000 I-0.526336 J-0.000000
G02 X56.959359 Y110.958395 Z-0.125000 I-0.770863 J0.448259
G03 X56.693807 Y110.692303 Z-0.125000 I0.778141 J-1.042118
G03 X56.394531 Y110.198740 Z-0.125000 I2.460367 J-1.829377
G02 X56.117588 Y109.681176 Z-0.125000 I-6.522356 J3.157168
G02 X55.408574 Y108.523046 Z-0.125000 I-33.425683 J19.667305
G03 X54.418162 Y106.656877 Z-0.125000 I11.301380 J-7.193757
G03 X53.735696 Y104.663389 Z-0.125000 I12.226415 J-5.299252
G01 X53.537782 Y103.890537 Z-0.125000
G01 X43.408620 Y103.972376 Z-0.125000
G02 X33.299335 Y104.090443 Z-0.125000 I11.347441 J1404.460132
G02 X33.231695 Y104.127866 Z-0.125000 I0.001254 J0.082107
G02 X33.193651 Y104.206156 Z-0.125000 I0.297473 J0.192941
G02 X32.754463 Y105.524435 Z-0.125000 I85.539551 J29.230053
G03 X31.509130 Y108.614138 Z-0.125000 I-22.899353 J-7.433968
G03 X30.083800 Y111.019719 Z-0.125000 I-15.256079 J-7.414326
G02 X29.778895 Y111.496697 Z-0.125000 I4.747273 J3.370603
G02 X29.751373 Y111.600126 Z-0.125000 I0.180584 J0.103429
G03 X29.723345 Y111.703481 Z-0.125000 I-0.204575 J0.000000
G03 X29.354498 Y112.278052 Z-0.125000 I-7.176859 J-4.201517
G03 X28.107172 Y113.561374 Z-0.125000 I-4.614536 J-3.237273
G03 X27.871436 Y113.382723 Z-0.125000 I-0.091980 J-0.123486
G02 X27.837942 Y113.258703 Z-0.125000 I-0.101762 J-0.039051
G02 X27.687836 Y113.235214 Z-0.125000 I-0.095488 J0.118849
G03 X27.542568 Y113.180235 Z-0.125000 I-0.041806 J-0.108945
G03 X27.496819 Y112.869005 Z-0.125000 I0.424379 J-0.221358
G02 X27.493963 Y112.436638 Z-0.125000 I-1.093145 J-0.208972
G02 X27.373493 Y112.266862 Z-0.125000 I-0.252891 J0.051816
G03 X26.504074 Y111.075651 Z-0.125000 I0.967026 J-1.618678
G03 X26.461386 Y108.348330 Z-0.125000 I6.282297 J-1.462323
G02 X26.483055 Y107.866699 Z-0.125000 I-1.556636 J-0.311335
G02 X26.394208 Y107.725726 Z-0.125000 I-0.188545 J0.020344
G03 X26.100307 Y107.166797 Z-0.125000 I0.326620 J-0.528482
G03 X26.444082 Y106.709212 Z-0.125000 I0.509713 J0.025010
G01 X26.443253 Y106.688104 Z-0.125000
G02 X26.343038 Y106.683135 Z-0.125000 I-0.062176 J0.240903
G03 X26.179983 Y106.552522 Z-0.125000 I-0.021659 J-0.140046
G03 X26.108942 Y103.174136 Z-0.125000 I36.991053 J-2.467795
G03 X26.218291 Y99.616663 Z-0.125000 I288.572129 J7.089663
G03 X26.271244 Y98.776812 Z-0.125000 I16.127769 J0.595275
G02 X26.244623 Y97.980460 Z-0.125000 I-3.248432 J-0.290029
G02 X26.108467 Y97.740977 Z-0.125000 I-0.385153 J0.060529
G03 X25.925704 Y97.517973 Z-0.125000 I0.483626 J-0.582750
G03 X25.870819 Y97.300764 Z-0.125000 I0.402356 J-0.217209
G02 X25.817944 Y97.110649 Z-0.125000 I-0.368226 J0.000000
G02 X25.724331 Y97.057776 Z-0.125000 I-0.093613 J0.056436
G03 X24.887332 Y96.630151 Z-0.125000 I0.000000 J-1.032951
G03 X24.459707 Y95.309150 Z-0.125000 I1.826582 J-1.321001
G02 X24.412973 Y95.135545 Z-0.125000 I-0.345817 J0.000000
G02 X24.151027 Y94.777364 Z-0.125000 I-1.821965 J1.057576
G03 X23.468452 Y93.925423 Z-0.125000 I6.578260 J-5.969909
G03 X23.401374 Y93.713832 Z-0.125000 I0.300182 J-0.211591
G02 X23.353090 Y93.578283 Z-0.125000 I-0.214409 J0.000000
G02 X23.251375 Y93.529999 Z-0.125000 I-0.101716 J0.082994
G03 X23.139134 Y93.468491 Z-0.125000 I0.000000 J-0.133163
G03 X22.519430 Y92.383471 Z-0.125000 I10.697295 J-6.829198
G02 X21.895357 Y91.305569 Z-0.125000 I-10.079042 J5.115850
G02 X21.768362 Y91.236943 Z-0.125000 I-0.126995 J0.083192
G03 X21.689758 Y91.166336 Z-0.125000 I0.000000 J-0.079057
G03 X21.717649 Y90.765169 Z-0.125000 I1.138608 J-0.122393
G02 X21.693886 Y90.519160 Z-0.125000 I-0.357194 J-0.089650
G02 X21.591566 Y90.496302 Z-0.125000 I-0.059999 J0.028136
G03 X21.398227 Y90.483837 Z-0.125000 I-0.090074 J-0.108532
G03 X20.963847 Y89.821551 Z-0.125000 I1.725836 J-1.605534
G02 X20.533864 Y89.015326 Z-0.125000 I-5.355325 J2.338377
G02 X20.403497 Y88.943887 Z-0.125000 I-0.130368 J0.083234
G03 X20.285872 Y88.884390 Z-0.125000 I-0.000000 J-0.146019
G03 X20.226374 Y88.703093 Z-0.125000 I0.246469 J-0.181298
G02 X20.174803 Y88.479800 Z-0.125000 I-0.509194 J-0.000000
G02 X19.903621 Y88.041634 Z-0.125000 I-2.313629 J1.128912
G03 X19.784104 Y87.262913 Z-0.125000 I0.649318 J-0.498188
G03 X20.482524 Y86.455080 Z-0.125000 I1.412568 J0.515420
G02 X21.570893 Y85.826998 Z-0.125000 I-10.469316 J-19.398747
G02 X22.099095 Y85.459710 Z-0.125000 I-3.029758 J-4.920585
G03 X22.619686 Y85.079416 Z-0.125000 I6.126742 J7.840539
G03 X23.710055 Y84.361123 Z-0.125000 I22.996588 J33.722086
G02 X24.742040 Y83.621235 Z-0.125000 I-6.142296 J-9.656821
G02 X24.812485 Y83.474141 Z-0.125000 I-0.118347 J-0.147093
G02 X24.554925 Y83.259441 Z-0.125000 I-0.218266 J0.000000
G02 X23.312051 Y83.748749 Z-0.125000 I0.623544 J3.406985
G03 X22.282152 Y84.364607 Z-0.125000 I-10.721554 J-16.760574
G03 X21.395291 Y84.817813 Z-0.125000 I-6.675408 J-11.968521
G02 X20.398704 Y85.329991 Z-0.125000 I6.124361 J13.142316
G02 X19.320287 Y85.987714 Z-0.125000 I9.049392 J16.050543
G03 X18.898893 Y86.076537 Z-0.125000 I-0.323785 J-0.492104
G03 X18.569878 Y85.861628 Z-0.125000 I0.081280 J-0.483744
G03 X18.323690 Y85.417300 Z-0.125000 I2.870604 J-1.880882
G03 X18.286096 Y85.245927 Z-0.125000 I0.371818 J-0.171374
G02 X18.233543 Y85.115884 Z-0.125000 I-0.187170 J-0.000000
G02 X18.109707 Y85.063332 Z-0.125000 I-0.123835 J0.119628
G03 X17.986310 Y85.010341 Z-0.125000 I0.000000 J-0.170172
G03 X17.933318 Y84.877584 Z-0.125000 I0.139800 J-0.132757
G02 X17.890398 Y84.705076 Z-0.125000 I-0.368138 J0.000000
G02 X17.488890 Y84.039737 Z-0.125000 I-6.214665 J3.296508
G01 X17.044462 Y83.387637 Z-0.125000
G01 X17.885765 Y83.267478 Z-0.125000
G03 X20.851692 Y82.854668 Z-0.125000 I59.321262 J415.345300
G03 X22.557342 Y82.634251 Z-0.125000 I18.593998 J137.176103
G02 X23.745759 Y82.268845 Z-0.125000 I-0.433166 J-3.524054
G02 X23.862105 Y81.964413 Z-0.125000 I-0.111419 J-0.217030
G02 X23.679277 Y81.800623 Z-0.125000 I-0.251105 J0.096357
G02 X23.178856 Y81.785089 Z-0.125000 I-0.284046 J1.082270
G03 X22.603732 Y81.868099 Z-0.125000 I-1.096470 J-5.562930
G03 X20.226374 Y82.057719 Z-0.125000 I-8.781174 J-95.096095
G02 X17.848404 Y82.244606 Z-0.125000 I7.065473 J105.124107
G02 X17.227763 Y82.327571 Z-0.125000 I0.650673 J7.230390
G03 X16.693491 Y82.248509 Z-0.125000 I-0.149015 J-0.837753
G03 X16.213527 Y81.812552 Z-0.125000 I0.555279 J-1.093517
G03 X15.870088 Y81.172188 Z-0.125000 I4.170523 J-2.649005
G03 X15.816652 Y80.920665 Z-0.125000 I0.565240 J-0.251523
G02 X15.754955 Y80.715307 Z-0.125000 I-0.372613 J-0.000000
G02 X15.640263 Y80.653610 Z-0.125000 I-0.114692 J0.075753
G03 X15.517872 Y80.599613 Z-0.125000 I-0.000000 J-0.165706
G03 X15.463874 Y80.460352 Z-0.125000 I0.152577 J-0.139261
G02 X15.420220 Y80.281051 Z-0.125000 I-0.390052 J-0.000000
G02 X15.097554 Y79.752646 Z-0.125000 I-3.899104 J2.018241
G03 X14.852578 Y79.211798 Z-0.125000 I1.257755 J-0.895601
G03 X14.841282 Y78.667084 Z-0.125000 I1.265353 J-0.298715
G02 X14.808620 Y78.403234 Z-0.125000 I-0.423240 J-0.081555
G02 X14.712676 Y78.391539 Z-0.125000 I-0.051622 J0.024093
G03 X14.486133 Y78.487183 Z-0.125000 I-0.202488 J-0.163499
G03 X14.263392 Y78.349835 Z-0.125000 I0.027240 J-0.293464
G03 X14.269137 Y77.843796 Z-0.125000 I0.397965 J-0.248534
G03 X14.714221 Y77.663155 Z-0.125000 I0.353354 J0.231988
G02 X15.379344 Y77.787768 Z-0.125000 I2.189669 J-9.850021
G02 X16.345818 Y77.912529 Z-0.125000 I3.161251 J-20.683076
G02 X17.316005 Y78.014403 Z-0.125000 I109.207220 J-1035.356306
G02 X18.991652 Y78.189101 Z-0.125000 I323.186610 J-3091.755154
G03 X23.397190 Y78.662940 Z-0.125000 I-64.866331 J623.814421
G03 X24.588275 Y78.811054 Z-0.125000 I-5.082985 J45.739070
G02 X25.429283 Y78.800408 Z-0.125000 I0.385143 J-2.798764
G02 X25.624303 Y78.641659 Z-0.125000 I-0.040748 J-0.249222
G02 X25.492095 Y78.331566 Z-0.125000 I-0.226185 J-0.086796
G02 X24.048136 Y77.978309 Z-0.125000 I-1.827507 J4.342288
G03 X22.609408 Y77.843664 Z-0.125000 I4.980064 J-60.967700
G03 X21.108318 Y77.668110 Z-0.125000 I7.019530 J-66.526449
G02 X19.608340 Y77.481228 Z-0.125000 I-25.577995 J199.183665
G02 X18.589765 Y77.363945 Z-0.125000 I-11.075954 J91.711001
G03 X17.606944 Y77.194622 Z-0.125000 I0.883027 J-8.062438
G03 X17.476924 Y77.100878 Z-0.125000 I0.048196 J-0.203884
G02 X17.347352 Y77.012719 Z-0.125000 I-0.163551 J0.101080
G02 X16.555895 Y76.935510 Z-0.125000 I-0.874789 J4.872168
G03 X15.731955 Y76.883927 Z-0.125000 I0.152533 J-9.042769
G03 X14.493735 Y76.711532 Z-0.125000 I2.238081 J-20.607862
G01 X13.259013 Y76.501494 Z-0.125000
G01 X12.818041 Y75.610098 Z-0.125000
G02 X12.357570 Y74.729929 Z-0.125000 I-19.694993 J9.743135
G02 X12.068388 Y74.252778 Z-0.125000 I-6.068277 J3.351534
G03 X11.806569 Y73.772740 Z-0.125000 I2.659393 J-1.761886
G03 X11.759707 Y73.549325 Z-0.125000 I0.509140 J-0.223414
G02 X11.701650 Y73.334651 Z-0.125000 I-0.425921 J0.000000
G02 X11.388698 Y72.913563 Z-0.125000 I-2.047462 J1.194836
G03 X11.126548 Y72.483963 Z-0.125000 I0.917089 J-0.854409
G03 X11.096576 Y72.102657 Z-0.125000 I0.681131 J-0.245370
G02 X11.076863 Y71.805779 Z-0.125000 I-0.578859 J-0.110657
G02 X10.982516 Y71.760183 Z-0.125000 I-0.069354 J0.023098
G03 X10.401854 Y71.539372 Z-0.125000 I-0.162487 J-0.446594
G03 X9.995818 Y69.932715 Z-0.125000 I2.975703 J-1.606657
G02 X9.938539 Y69.774778 Z-0.125000 I-0.246381 J0.000000
G02 X9.816069 Y69.717498 Z-0.125000 I-0.122470 J0.102287
G03 X9.730425 Y69.644092 Z-0.125000 I-0.000000 J-0.086664
G03 X9.747497 Y69.274534 Z-0.125000 I0.921275 J-0.142616
G02 X9.714774 Y68.993942 Z-0.125000 I-0.386842 J-0.097090
G02 X9.574469 Y68.940625 Z-0.125000 I-0.099968 J0.051803
G03 X9.376997 Y68.923502 Z-0.125000 I-0.081143 J-0.211455
G03 X9.290263 Y68.770496 Z-0.125000 I0.091591 J-0.153006
G02 X9.238022 Y68.505971 Z-0.125000 I-0.695842 J0.000000
G02 X8.938144 Y67.913777 Z-0.125000 I-3.900596 J1.603176
G03 X8.641854 Y67.320506 Z-0.125000 I3.360776 J-2.049058
G03 X8.585367 Y67.027568 Z-0.125000 I0.740161 J-0.294640
G02 X8.515480 Y66.788261 Z-0.125000 I-0.447979 J0.000968
G02 X8.389196 Y66.718887 Z-0.125000 I-0.126284 J0.080252
G03 X8.294236 Y66.640454 Z-0.125000 I0.000000 J-0.096701
G03 X8.304362 Y66.277915 Z-0.125000 I0.823435 J-0.158412
G02 X8.326572 Y65.905951 Z-0.125000 I-0.975777 J-0.244907
G02 X8.248221 Y65.836943 Z-0.125000 I-0.078351 J0.009975
G03 X7.987600 Y65.669357 Z-0.125000 I0.000000 J-0.286443
G03 X6.438250 Y61.868193 Z-0.125000 I45.738670 J-20.859379
G03 X5.739404 Y59.778377 Z-0.125000 I44.131890 J-15.919705
G03 X5.308346 Y58.205516 Z-0.125000 I24.555612 J-7.575191
G02 X5.148650 Y57.748633 Z-0.125000 I-2.345140 J0.563355
G02 X5.035868 Y57.621843 Z-0.125000 I-0.268651 J0.125415
G03 X4.945852 Y57.489429 Z-0.125000 I0.103185 J-0.166950
G03 X4.880541 Y56.752915 Z-0.125000 I4.120170 J-0.736514
G02 X4.818327 Y56.014671 Z-0.125000 I-4.411189 J0.000000
G02 X4.733956 Y55.889391 Z-0.125000 I-0.180761 J0.030684
G03 X4.640012 Y55.763195 Z-0.125000 I0.112252 J-0.181628
G03 X4.363662 Y54.511966 Z-0.125000 I13.678688 J-3.677250
G02 X4.108900 Y53.234120 Z-0.125000 I-26.029823 J4.525199
G02 X3.994517 Y52.872359 Z-0.125000 I-2.185381 J0.492021
G03 X3.893943 Y52.508823 Z-0.125000 I1.443060 J-0.594910
G03 X3.743350 Y51.196665 Z-0.125000 I18.926483 J-2.836871
G02 X3.630207 Y49.874419 Z-0.125000 I-117.983217 J9.429706
G02 X3.477865 Y48.286248 Z-0.125000 I-170.356937 J15.539735
G03 X3.294867 Y44.203374 Z-0.125000 I36.651528 J-3.688289
G03 X3.573287 Y39.378609 Z-0.125000 I51.504718 J0.551737
G02 X3.804886 Y36.819458 Z-0.125000 I-89.231712 J-9.365394
G02 X3.824901 Y36.071318 Z-0.125000 I-7.589000 J-0.577360
G03 X3.890750 Y35.402504 Z-0.125000 I2.792773 J-0.062682
G03 X3.991530 Y35.321665 Z-0.125000 I0.100781 J0.022401
G02 X4.098203 Y35.244883 Z-0.125000 I-0.000000 J-0.112490
G02 X4.174985 Y34.773626 Z-0.125000 I-1.407797 J-0.471257
G03 X4.273639 Y34.369115 Z-0.125000 I0.878639 J0.000000
G03 X4.412030 Y34.316553 Z-0.125000 I0.098598 J0.051134
G02 X4.533217 Y34.269020 Z-0.125000 I0.034575 J-0.090103
G02 X4.570178 Y33.994791 Z-0.125000 I-0.391351 J-0.192352
G03 X4.603040 Y33.608398 Z-0.125000 I0.704512 J-0.134676
G03 X4.950494 Y32.980008 Z-0.125000 I2.302822 J0.863039
G02 X5.371599 Y32.364290 Z-0.125000 I-5.733212 J-4.372956
G02 X5.415576 Y32.218211 Z-0.125000 I-0.257412 J-0.157151
G03 X5.768253 Y31.408822 Z-0.125000 I1.206840 J0.044329
G03 X6.284703 Y31.348619 Z-0.125000 I0.296250 J0.296096
G01 X6.352634 Y31.324992 Z-0.125000
G02 X6.351143 Y31.165333 Z-0.125000 I-0.214718 J-0.077830
G03 X6.400992 Y31.024600 Z-0.125000 I0.107318 J-0.041182
G03 X6.639836 Y30.998678 Z-0.125000 I0.148805 J0.257770
G02 X6.881710 Y31.001618 Z-0.125000 I0.125772 J-0.396269
G02 X6.913439 Y30.919105 Z-0.125000 I-0.015507 J-0.053319
G03 X6.977294 Y30.500786 Z-0.125000 I0.277723 J-0.171640
G03 X7.729026 Y30.211998 Z-0.125000 I0.774534 J0.893363
G03 X7.876169 Y30.350011 Z-0.125000 I0.002785 J0.144477
G03 X7.930436 Y34.710569 Z-0.125000 I-67.454641 J3.020092
G02 X7.927699 Y39.210441 Z-0.125000 I116.893489 J2.321053
G02 X8.046326 Y40.928277 Z-0.125000 I17.117516 J-0.319052
G03 X8.220585 Y42.644346 Z-0.125000 I-47.423696 J5.682561
G03 X8.321410 Y44.229304 Z-0.125000 I-40.349566 J3.362461
G02 X8.417310 Y45.814835 Z-0.125000 I48.101298 J-2.113736
G02 X8.579666 Y47.580693 Z-0.125000 I59.829377 J-4.610416
G03 X8.765383 Y49.344871 Z-0.125000 I-559.686062 J59.810454
G03 X8.985115 Y51.491359 Z-0.125000 I-828.311704 J85.877539
G02 X9.254758 Y53.613046 Z-0.125000 I41.415125 J-4.185416
G02 X9.334360 Y53.769713 Z-0.125000 I0.277773 J-0.042579
G03 X9.414209 Y53.923110 Z-0.125000 I-0.201052 J0.202136
G03 X9.466859 Y54.533356 Z-0.125000 I-3.523825 J0.611422
G02 X9.511996 Y55.160674 Z-0.125000 I4.402011 J-0.001447
G02 X9.748993 Y56.488332 Z-0.125000 I20.033283 J-2.891120
G03 X10.008789 Y57.814903 Z-0.125000 I-39.881824 J8.499180
G03 X10.119325 Y58.560901 Z-0.125000 I-12.493465 J2.232365
G02 X10.265750 Y59.245290 Z-0.125000 I3.726779 J-0.439490
G02 X10.354641 Y59.310554 Z-0.125000 I0.088891 J-0.027903
G03 X10.446826 Y59.371939 Z-0.125000 I-0.000000 J0.099912
G03 X10.557366 Y59.795623 Z-0.125000 I-1.440914 J0.602199
G02 X10.719204 Y60.139911 Z-0.125000 I0.592050 J-0.068122
G02 X10.965957 Y60.221855 Z-0.125000 I0.200958 J-0.192642
G02 X11.329573 Y59.905971 Z-0.125000 I-0.075802 J-0.454478
G02 X11.340774 Y59.033485 Z-0.125000 I-1.442048 J-0.454828
G03 X10.785071 Y56.796896 Z-0.125000 I30.494143 J-8.763898
G03 X10.701374 Y55.991911 Z-0.125000 I3.829243 J-0.804985
G02 X10.644601 Y55.523521 Z-0.125000 I-1.960549 J0.000000
G02 X10.539257 Y55.332984 Z-0.125000 I-0.405376 J0.099736
G03 X10.437653 Y55.138026 Z-0.125000 I0.277730 J-0.268696
G03 X10.283813 Y54.018887 Z-0.125000 I10.015676 J-1.946921
G02 X10.173385 Y52.874249 Z-0.125000 I-38.317365 J3.118987
G02 X10.018082 Y51.637637 Z-0.125000 I-44.878925 J5.008172
G03 X9.875355 Y50.399999 Z-0.125000 I25.795901 J-3.601896
G03 X9.744765 Y48.639026 Z-0.125000 I52.108604 J-4.749602
G01 X9.643851 Y46.875137 Z-0.125000
G01 X10.004728 Y48.286248 Z-0.125000
G03 X10.357027 Y49.699338 Z-0.125000 I-116.741794 J29.855504
G03 X10.465315 Y50.182429 Z-0.125000 I-13.532996 J3.287195
G02 X10.616558 Y50.604295 Z-0.125000 I1.556348 J-0.319920
G02 X10.721394 Y50.667498 Z-0.125000 I0.104836 J-0.055345
G03 X10.811106 Y50.734155 Z-0.125000 I0.000000 J0.093699
G03 X10.877763 Y51.186254 Z-0.125000 I-1.499843 J0.452098
G02 X10.944156 Y51.667995 Z-0.125000 I1.780916 J0.000000
G02 X11.054152 Y51.814026 Z-0.125000 I0.242329 J-0.068089
G03 X11.174337 Y51.954375 Z-0.125000 I-0.159689 J0.258381
G03 X11.230541 Y52.232277 Z-0.125000 I-0.658952 J0.277902
G02 X11.279730 Y52.530256 Z-0.125000 I0.927139 J0.000000
G02 X11.583318 Y53.271678 Z-0.125000 I6.178203 J-2.096904
G03 X11.891233 Y54.012117 Z-0.125000 I-6.453272 J3.117862
G03 X11.936096 Y54.274950 Z-0.125000 I-0.747475 J0.262833
G02 X12.003075 Y54.481075 Z-0.125000 I0.350662 J0.000000
