%
(Header)
(Generated by gcodetools from Inkscape.)
(Using default header. To add your own header create file "header" in the output dir.)
M3
(Header end.)
G21 (All units in mm)

(Start cutting path id: path4628)
(Change tool to Default tool)

G00 Z5.000000
G00 X431.472399 Y17.044783

G01 Z-0.125000 F100.0(Penetrate)
G02 X425.105271 Y21.158171 Z-0.125000 I2.719558 J11.194157 F400.000000
G02 X422.597470 Y28.433889 Z-0.125000 I9.365799 J7.298267
G01 X422.594083 Y30.197778 Z-0.125000
G01 X426.404083 Y30.197778 Z-0.125000
G01 X430.214083 Y30.197778 Z-0.125000
G01 X430.214083 Y28.777608 Z-0.125000
G03 X431.515422 Y25.422024 Z-0.125000 I4.976961 J-0.000000
G03 X434.447416 Y24.140499 Z-0.125000 I2.905389 J2.652416
G03 X436.906372 Y24.814849 Z-0.125000 I-0.033510 J4.942542
G03 X438.439083 Y26.471541 Z-0.125000 I-1.952751 J3.343964
G03 X438.662163 Y29.642010 Z-0.125000 I-3.850506 J1.864012
G03 X436.682334 Y31.949164 Z-0.125000 I-3.727214 J-1.195370
G03 X435.682932 Y32.331665 Z-0.125000 I-2.461036 J-4.933353
G03 X432.330750 Y33.145646 Z-0.125000 I-15.186118 J-55.230778
G02 X427.614546 Y34.888930 Z-0.125000 I3.571001 J16.911972
G02 X424.957948 Y37.173662 Z-0.125000 I4.024575 J7.366479
G02 X422.827325 Y41.945689 Z-0.125000 I9.109618 J6.928934
G02 X422.993032 Y47.413334 Z-0.125000 I12.314818 J2.363109
G02 X426.559446 Y53.077442 Z-0.125000 I10.571020 J-2.701204
G02 X433.114650 Y55.888580 Z-0.125000 I7.953964 J-9.499091
G02 X435.482921 Y55.949374 Z-0.125000 I1.530725 J-13.471239
G02 X437.654561 Y55.607599 Z-0.125000 I-0.721247 J-11.653024
G02 X443.460270 Y52.034997 Z-0.125000 I-2.846320 J-11.129077
G02 X446.355952 Y45.644703 Z-0.125000 I-9.164364 J-8.003937
G02 X446.572745 Y43.273783 Z-0.125000 I-28.223879 J-3.776109
G02 X446.496612 Y42.797589 Z-0.125000 I-1.166743 J-0.057646
G02 X446.172951 Y42.545026 Z-0.125000 I-0.371647 J0.142598
G02 X442.673601 Y42.333334 Z-0.125000 I-3.499350 J28.816955
G01 X439.028730 Y42.333334 Z-0.125000
G01 X438.912115 Y44.164730 Z-0.125000
G03 X437.466084 Y47.449827 Z-0.125000 I-5.207946 J-0.331625
G03 X434.606703 Y48.642976 Z-0.125000 I-2.803177 J-2.694988
G03 X431.476534 Y47.335146 Z-0.125000 I0.065846 J-4.557396
G03 X430.214083 Y44.322774 Z-0.125000 I2.962729 J-3.012372
G03 X431.388596 Y41.910938 Z-0.125000 I3.063582 J0.000000
G03 X435.999639 Y39.791245 Z-0.125000 I6.760643 J8.631535
G02 X440.789376 Y38.218199 Z-0.125000 I-4.129273 J-20.651757
G02 X443.364933 Y36.348049 Z-0.125000 I-3.554990 J-7.604501
G02 X446.556425 Y28.007828 Z-0.125000 I-8.649474 J-8.090575
G02 X443.020904 Y20.030299 Z-0.125000 I-11.305829 J0.238365
G02 X437.706106 Y17.090458 Z-0.125000 I-8.360024 J8.839583
G02 X431.472371 Y17.044783 Z-0.125000 I-3.207956 J12.408889
G01 X431.472399 Y17.044783 Z-0.125000
G00 Z5.000000

(End cutting path id: path4628)


(Start cutting path id: path4628)
(Change tool to Default tool)

G00 Z5.000000
G00 X438.180878 Y19.911737

G01 Z-0.125000 F100.0(Penetrate)
G03 X440.777529 Y21.451234 Z-0.125000 I-2.402119 J7.011249 F400.000000
G03 X442.952747 Y24.271111 Z-0.125000 I-6.957558 J7.615879
G03 X443.395674 Y25.596348 Z-0.125000 I-3.858546 J2.026256
G03 X443.619667 Y28.363333 Z-0.125000 I-16.978287 J2.766985
G03 X443.399120 Y31.130369 Z-0.125000 I-17.468206 J-0.000000
G03 X442.972447 Y32.397728 Z-0.125000 I-4.003227 J-0.642236
G03 X440.150027 Y35.424119 Z-0.125000 I-7.097064 J-3.789446
G03 X435.005708 Y37.394162 Z-0.125000 I-7.574441 J-12.077298
G02 X432.362135 Y37.959306 Z-0.125000 I5.862560 J33.888824
G02 X431.201889 Y38.365092 Z-0.125000 I1.758979 J6.890987
G02 X428.649016 Y40.657565 Z-0.125000 I2.317715 J5.148644
G02 X427.604487 Y44.499700 Z-0.125000 I6.558737 J3.846121
G02 X428.936463 Y48.576828 Z-0.125000 I6.887286 J0.006100
G02 X432.332725 Y50.953811 Z-0.125000 I5.193722 J-3.806051
G02 X438.186654 Y50.328239 Z-0.125000 I2.164661 J-7.446198
G02 X441.356640 Y46.072778 Z-0.125000 I-2.997161 J-5.541077
G03 X441.774992 Y45.434946 Z-0.125000 I1.019369 J0.212488
G03 X442.654326 Y45.155556 Z-0.125000 I0.879334 J1.244082
G03 X443.344986 Y45.731368 Z-0.125000 I0.000000 J0.702114
G03 X443.153633 Y47.885971 Z-0.125000 I-3.996587 J0.730857
G03 X441.251481 Y50.830722 Z-0.125000 I-7.677073 J-2.872262
G03 X438.250107 Y52.754051 Z-0.125000 I-5.971392 J-6.014916
G03 X434.579888 Y53.453816 Z-0.125000 I-3.877905 J-10.364441
G03 X430.971567 Y52.890703 Z-0.125000 I-0.198425 J-10.570803
G03 X428.247071 Y51.262336 Z-0.125000 I2.451994 J-7.195971
G03 X426.081813 Y48.344441 Z-0.125000 I6.783699 J-7.296246
G03 X425.260789 Y43.195369 Z-0.125000 I8.004562 J-3.916327
G03 X427.500855 Y38.184977 Z-0.125000 I9.778437 J1.365838
G03 X429.468903 Y36.692215 Z-0.125000 I4.324724 J3.657977
G03 X433.512471 Y35.434411 Z-0.125000 I6.926326 J15.138142
G02 X437.692626 Y34.305245 Z-0.125000 I-4.180884 J-23.779585
G02 X439.397086 Y33.262203 Z-0.125000 I-1.780757 J-4.824149
G02 X441.012272 Y30.868882 Z-0.125000 I-4.248191 J-4.608667
G02 X441.437976 Y27.860498 Z-0.125000 I-6.492475 J-2.453037
G02 X440.583470 Y24.817423 Z-0.125000 I-8.185864 J0.657106
G02 X438.911833 Y22.855372 Z-0.125000 I-4.875426 J2.460658
G02 X432.626159 Y21.613501 Z-0.125000 I-4.490166 J6.198512
G02 X428.112402 Y25.461496 Z-0.125000 I1.538724 J6.376296
G02 X427.748232 Y26.525603 Z-0.125000 I7.876287 J3.289875
G02 X427.674111 Y27.084274 Z-0.125000 I2.068365 J0.558671
G03 X427.456024 Y27.439686 Z-0.125000 I-0.398647 J0.000000
G03 X426.545222 Y27.657778 Z-0.125000 I-0.910801 J-1.792813
G03 X425.713191 Y27.361806 Z-0.125000 I0.000000 J-1.317482
G03 X425.419099 Y26.740556 Z-0.125000 I0.504061 J-0.618851
G03 X425.956071 Y24.472446 Z-0.125000 I5.124511 J0.015603
G03 X427.814799 Y21.928243 Z-0.125000 I8.382107 J4.172678
G03 X432.434321 Y19.514720 Z-0.125000 I6.363705 J6.552550
G03 X438.180878 Y19.911737 Z-0.125000 I2.130386 J10.951371
G01 X438.180878 Y19.911737 Z-0.125000
G00 Z5.000000

(End cutting path id: path4628)


(Start cutting path id: path4628)
(Change tool to Default tool)

G00 Z5.000000
G00 X450.602607 Y36.336111

G01 Z-0.125000 F100.0(Penetrate)
G01 X450.675138 Y55.456667 Z-0.125000 F400.000000
G01 X460.129582 Y55.456667 Z-0.125000
G01 X469.584027 Y55.456667 Z-0.125000
G01 X469.663021 Y51.858334 Z-0.125000
G01 X469.742015 Y48.260000 Z-0.125000
G01 X463.948021 Y48.260000 Z-0.125000
G01 X458.154027 Y48.260000 Z-0.125000
G01 X458.154027 Y44.167778 Z-0.125000
G01 X458.154027 Y40.075556 Z-0.125000
G01 X463.375138 Y40.075556 Z-0.125000
G01 X468.596249 Y40.075556 Z-0.125000
G01 X468.596249 Y36.406667 Z-0.125000
G01 X468.596249 Y32.737778 Z-0.125000
G01 X463.375138 Y32.737778 Z-0.125000
G01 X458.154027 Y32.737778 Z-0.125000
G01 X458.154027 Y28.645556 Z-0.125000
G01 X458.154027 Y24.553333 Z-0.125000
G01 X463.939582 Y24.553333 Z-0.125000
G01 X469.725138 Y24.553333 Z-0.125000
G01 X469.725138 Y20.884445 Z-0.125000
G01 X469.725138 Y17.215556 Z-0.125000
G01 X460.127607 Y17.215556 Z-0.125000
G01 X450.530076 Y17.215556 Z-0.125000
G01 X450.602607 Y36.336111 Z-0.125000
G01 X450.602607 Y36.336111 Z-0.125000
G00 Z5.000000

(End cutting path id: path4628)


(Start cutting path id: path4628)
(Change tool to Default tool)

G00 Z5.000000
G00 X466.903000 Y20.884445

G01 Z-0.125000 F100.0(Penetrate)
G01 X466.903000 Y22.013333 Z-0.125000 F400.000000
G01 X461.258556 Y22.013333 Z-0.125000
G01 X455.614111 Y22.013333 Z-0.125000
G01 X455.614111 Y28.645556 Z-0.125000
G01 X455.614111 Y35.277778 Z-0.125000
G01 X460.694111 Y35.277778 Z-0.125000
G01 X465.774111 Y35.277778 Z-0.125000
G01 X465.774111 Y36.406667 Z-0.125000
G01 X465.774111 Y37.535556 Z-0.125000
G01 X460.694111 Y37.535556 Z-0.125000
G01 X455.614111 Y37.535556 Z-0.125000
G01 X455.614111 Y44.167778 Z-0.125000
G01 X455.614111 Y50.800000 Z-0.125000
G01 X461.258556 Y50.800000 Z-0.125000
G01 X466.903000 Y50.800000 Z-0.125000
G01 X466.903000 Y51.787778 Z-0.125000
G01 X466.903000 Y52.775556 Z-0.125000
G01 X460.129667 Y52.775556 Z-0.125000
G01 X453.356334 Y52.775556 Z-0.125000
G01 X453.356334 Y36.265556 Z-0.125000
G01 X453.356334 Y19.755556 Z-0.125000
G01 X460.129667 Y19.755556 Z-0.125000
G01 X466.903000 Y19.755556 Z-0.125000
G01 X466.903000 Y20.884445 Z-0.125000
G01 X466.903000 Y20.884445 Z-0.125000
G00 Z5.000000

(End cutting path id: path4628)


(Start cutting path id: path4628)
(Change tool to Default tool)

G00 Z5.000000
G00 X481.126521 Y17.184314

G01 Z-0.125000 F100.0(Penetrate)
G02 X476.690637 Y19.496868 Z-0.125000 I3.435732 J12.001010 F400.000000
G02 X473.899741 Y23.055862 Z-0.125000 I6.434398 J7.919516
G02 X472.920895 Y25.938986 Z-0.125000 I12.073978 J5.706947
G02 X472.553117 Y29.280556 Z-0.125000 I15.911499 J3.442264
G01 X472.547473 Y30.197778 Z-0.125000
G01 X476.323550 Y30.197778 Z-0.125000
G01 X480.099627 Y30.197778 Z-0.125000
G01 X480.222393 Y28.500663 Z-0.125000
G03 X482.519524 Y24.748832 Z-0.125000 I4.776726 J0.345495
G03 X486.658584 Y24.605657 Z-0.125000 I2.197620 J3.631385
G03 X489.023154 Y28.436784 Z-0.125000 I-1.993440 J3.875619
G03 X486.733966 Y31.987631 Z-0.125000 I-3.837746 J0.039182
G03 X485.643500 Y32.369825 Z-0.125000 I-2.982928 J-6.764068
G03 X482.872263 Y33.010264 Z-0.125000 I-11.464218 J-43.290853
G02 X480.116252 Y33.690291 Z-0.125000 I5.922483 J29.927389
G02 X478.637038 Y34.266971 Z-0.125000 I2.714716 J9.148855
G02 X472.362942 Y43.827353 Z-0.125000 I4.928362 J10.073197
G02 X477.728706 Y54.109451 Z-0.125000 I11.523531 J0.527512
G02 X482.228579 Y55.842180 Z-0.125000 I6.624086 J-10.493241
G02 X487.219952 Y55.758475 Z-0.125000 I2.276648 J-13.103315
G02 X493.886299 Y51.661458 Z-0.125000 I-2.357902 J-11.308582
G02 X496.536362 Y44.100299 Z-0.125000 I-9.461717 J-7.561159
G01 X496.536362 Y42.316936 Z-0.125000
G01 X492.796918 Y42.395705 Z-0.125000
G01 X489.057473 Y42.474445 Z-0.125000
G01 X488.985083 Y43.603334 Z-0.125000
G03 X488.490207 Y46.204168 Z-0.125000 I-10.681973 J-0.685024
G03 X487.761932 Y47.395469 Z-0.125000 I-2.833536 J-0.913960
G03 X482.375367 Y48.122173 Z-0.125000 I-3.169969 J-3.169997
G03 X480.406882 Y43.211609 Z-0.125000 I2.099945 J-3.691632
G03 X480.839718 Y42.242435 Z-0.125000 I3.954226 J1.184731
G03 X481.505376 Y41.415688 Z-0.125000 I3.521400 J2.153911
G03 X482.490336 Y40.829238 Z-0.125000 I1.762218 J1.839336
G03 X487.847784 Y39.383490 Z-0.125000 I18.213187 J56.842567
G02 X493.740864 Y35.823253 Z-0.125000 I-2.312559 J-10.485239
G02 X496.459400 Y29.179323 Z-0.125000 I-8.920275 J-7.528105
G02 X494.102805 Y21.249910 Z-0.125000 I-11.563068 J-0.878388
G02 X487.100629 Y16.959665 Z-0.125000 I-9.072906 J6.948729
G02 X483.960437 Y16.732196 Z-0.125000 I-2.600835 J14.115583
G02 X481.126549 Y17.184314 Z-0.125000 I0.448098 J11.916209
G01 X481.126521 Y17.184314 Z-0.125000
G00 Z5.000000

(End cutting path id: path4628)


(Start cutting path id: path4628)
(Change tool to Default tool)

G00 Z5.000000
G00 X488.794329 Y20.176772

G01 Z-0.125000 F100.0(Penetrate)
G03 X491.329815 Y22.000160 Z-0.125000 I-4.076883 J8.343587 F400.000000
G03 X493.109874 Y24.553333 Z-0.125000 I-6.567431 J6.475887
G03 X493.960268 Y28.361413 Z-0.125000 I-8.105530 J3.809063
G03 X493.109874 Y32.173334 Z-0.125000 I-8.964318 J0.000984
G03 X490.229736 Y35.481135 Z-0.125000 I-7.240243 J-3.396371
G03 X485.085477 Y37.392046 Z-0.125000 I-6.825665 J-10.495261
G02 X480.539786 Y38.965305 Z-0.125000 I1.638187 J12.086959
G02 X478.301335 Y41.382301 Z-0.125000 I2.900390 J4.931182
G02 X477.788033 Y42.960839 Z-0.125000 I5.319194 J2.602396
G02 X477.690719 Y44.860775 Z-0.125000 I7.661110 J1.344861
G02 X479.382171 Y48.955302 Z-0.125000 I7.017036 J-0.502109
G02 X483.096770 Y51.124076 Z-0.125000 I5.020360 J-4.333190
G02 X488.652122 Y50.175273 Z-0.125000 I1.544893 J-7.692491
G02 X491.353436 Y46.213889 Z-0.125000 I-2.902842 J-4.881201
G03 X491.796079 Y45.472226 Z-0.125000 I1.162341 J0.190792
G03 X492.724640 Y45.155556 Z-0.125000 I0.928562 J1.203063
G01 X493.922138 Y45.155556 Z-0.125000
G01 X493.685607 Y46.421689 Z-0.125000
G03 X492.166335 Y49.832247 Z-0.125000 I-7.901792 J-1.476277
G03 X489.074040 Y52.444707 Z-0.125000 I-7.503026 J-5.744759
G03 X487.582751 Y52.947572 Z-0.125000 I-2.299896 J-4.357827
G03 X484.540563 Y53.198889 Z-0.125000 I-3.042189 J-18.287163
G03 X481.506348 Y52.927166 Z-0.125000 I0.000000 J-17.076770
G03 X479.935007 Y52.367350 Z-0.125000 I0.909785 J-5.038856
G03 X477.807843 Y50.739864 Z-0.125000 I4.424279 J-7.986510
G03 X476.146173 Y48.463821 Z-0.125000 I7.252197 J-7.039199
G03 X475.727641 Y47.217601 Z-0.125000 I3.493105 J-1.866521
G03 X475.509677 Y44.450000 Z-0.125000 I17.443371 J-2.766141
G03 X475.752808 Y41.688396 Z-0.125000 I15.819584 J0.001243
G03 X476.260586 Y40.216667 Z-0.125000 I4.911841 J0.871230
G03 X478.968371 Y37.275083 Z-0.125000 I6.993173 J3.720275
G03 X483.711507 Y35.423715 Z-0.125000 I6.950048 J10.804211
G02 X487.767761 Y34.394176 Z-0.125000 I-4.739801 J-27.179558
G02 X489.297108 Y33.544877 Z-0.125000 I-1.536935 J-4.569194
G02 X491.713805 Y28.750124 Z-0.125000 I-4.239479 J-5.143242
G02 X489.817272 Y23.610260 Z-0.125000 I-6.929849 J-0.362818
G02 X487.657182 Y22.172946 Z-0.125000 I-4.229032 J4.013846
G02 X484.512256 Y21.596802 Z-0.125000 I-3.141661 J8.277512
G02 X482.298320 Y21.851210 Z-0.125000 I0.000000 J9.760352
G02 X480.848701 Y22.449254 Z-0.125000 I1.099566 J4.721191
G02 X478.929033 Y24.207423 Z-0.125000 I3.666430 J5.930299
G02 X477.864540 Y26.444787 Z-0.125000 I5.060606 J3.779651
G03 X477.308167 Y27.335817 Z-0.125000 I-1.661788 J-0.418426
G03 X476.427662 Y27.657778 Z-0.125000 I-0.880506 J-1.043032
G01 X475.296205 Y27.657778 Z-0.125000
G01 X475.480439 Y26.505577 Z-0.125000
G03 X477.069091 Y22.828025 Z-0.125000 I8.019493 J1.282395
G03 X480.367569 Y20.169181 Z-0.125000 I7.192552 J5.547437
G03 X484.627895 Y19.211644 Z-0.125000 I4.251388 J8.959104
G03 X488.793003 Y20.176801 Z-0.125000 I-0.008569 J9.506758
G01 X488.794329 Y20.176772 Z-0.125000
G00 Z5.000000

(End cutting path id: path4628)


(Start cutting path id: path4628)
(Change tool to Default tool)

G00 Z5.000000
G00 X465.491889 Y86.794877

G01 Z-0.125000 F100.0(Penetrate)
G01 X465.491889 Y102.752003 Z-0.125000 F400.000000
G01 X457.270389 Y122.284321 Z-0.125000
G02 X449.079122 Y141.827160 Z-0.125000 I6490.260122 J2731.842816
G02 X448.911926 Y142.310556 Z-0.125000 I3.784829 J1.579698
G02 X449.091676 Y142.563567 Z-0.125000 I0.192711 J0.053446
G02 X456.498426 Y142.803271 Z-0.125000 I7.389413 J-113.776849
G01 X464.221889 Y142.802142 Z-0.125000
G01 X468.310273 Y132.502205 Z-0.125000
G03 X472.449592 Y122.277305 Z-0.125000 I753.668254 J299.155162
G03 X472.561725 Y122.202279 Z-0.125000 I0.112133 J0.046285
G03 X472.673977 Y122.277214 Z-0.125000 I0.000000 J0.121543
G03 X476.794438 Y132.396485 Z-0.125000 I-735.158486 J305.247365
G02 X480.949741 Y142.503929 Z-0.125000 I496.567734 J-198.237672
G02 X481.154997 Y142.702343 Z-0.125000 I0.335924 J-0.142133
G02 X481.455776 Y142.758804 Z-0.125000 I0.304747 J-0.794054
G02 X488.941536 Y142.738673 Z-0.125000 I2.374270 J-508.929033
G01 X496.437217 Y142.663382 Z-0.125000
G01 X488.020109 Y122.649037 Z-0.125000
G01 X479.603000 Y102.634684 Z-0.125000
G01 X479.603000 Y86.736259 Z-0.125000
G01 X479.603000 Y70.837835 Z-0.125000
G01 X472.547445 Y70.837835 Z-0.125000
G01 X465.491889 Y70.837835 Z-0.125000
G01 X465.491889 Y86.794933 Z-0.125000
G01 X465.491889 Y86.794877 Z-0.125000
G00 Z5.000000

(End cutting path id: path4628)


(Start cutting path id: path4628)
(Change tool to Default tool)

G00 Z5.000000
G00 X474.805223 Y90.024205

G01 Z-0.125000 F100.0(Penetrate)
G01 X474.805223 Y104.130659 Z-0.125000 F400.000000
G01 X481.830213 Y120.856982 Z-0.125000
G01 X488.855176 Y137.583334 Z-0.125000
G01 X486.866046 Y137.667154 Z-0.125000
G03 X484.886340 Y137.693556 Z-0.125000 I-1.448624 J-34.387295
G03 X484.566104 Y137.631679 Z-0.125000 I0.014417 J-0.934222
G03 X484.344419 Y137.420395 Z-0.125000 I0.142539 J-0.371497
G03 X478.477272 Y123.789525 Z-0.125000 I855.235935 J-376.198046
G02 X472.654783 Y110.137461 Z-0.125000 I-1482.538845 J624.222505
G02 X472.552779 Y110.074005 Z-0.125000 I-0.096733 J0.041784
G02 X472.450924 Y110.144774 Z-0.125000 I0.005736 J0.116938
G02 X466.620778 Y123.897362 Z-0.125000 I1562.195777 J670.374982
G01 X460.835222 Y137.713354 Z-0.125000
G01 X458.490238 Y137.718998 Z-0.125000
G03 X456.344756 Y137.613002 Z-0.125000 I-0.049958 J-20.755165
G03 X456.286816 Y137.495478 Z-0.125000 I0.007803 J-0.076891
G02 X456.409980 Y137.256938 Z-0.125000 I-1.484911 J-0.917757
G02 X463.500134 Y120.417704 Z-0.125000 I-7456.374040 J-3149.416208
G01 X470.571889 Y103.568980 Z-0.125000
G01 X470.571889 Y89.743422 Z-0.125000
G01 X470.571889 Y75.917863 Z-0.125000
G01 X472.688556 Y75.917863 Z-0.125000
G01 X474.805223 Y75.917863 Z-0.125000
G01 X474.805223 Y90.024317 Z-0.125000
G01 X474.805223 Y90.024205 Z-0.125000
G00 Z5.000000

(End cutting path id: path4628)


(Start cutting path id: path4628)
(Change tool to Default tool)

G00 Z5.000000
G00 X441.503000 Y77.611112

G01 Z-0.125000 F100.0(Penetrate)
G01 X441.503000 Y79.586667 Z-0.125000 F400.000000
G01 X430.778556 Y79.586667 Z-0.125000
G01 X420.054111 Y79.586667 Z-0.125000
G01 X420.054111 Y92.141859 Z-0.125000
G01 X420.054111 Y104.697023 Z-0.125000
G01 X429.720222 Y104.771303 Z-0.125000
G01 X439.386333 Y104.845556 Z-0.125000
G01 X439.386333 Y106.821112 Z-0.125000
G01 X439.386333 Y108.796667 Z-0.125000
G01 X429.720222 Y108.870920 Z-0.125000
G01 X420.054111 Y108.945201 Z-0.125000
G01 X420.054111 Y121.500364 Z-0.125000
G01 X420.054111 Y134.055556 Z-0.125000
G01 X430.778556 Y134.055556 Z-0.125000
G01 X441.503000 Y134.055556 Z-0.125000
G01 X441.503000 Y136.031112 Z-0.125000
G01 X441.503000 Y138.006667 Z-0.125000
G01 X428.661889 Y138.006667 Z-0.125000
G01 X415.820778 Y138.006667 Z-0.125000
G01 X415.820778 Y106.821112 Z-0.125000
G01 X415.820778 Y75.635556 Z-0.125000
G01 X428.661889 Y75.635556 Z-0.125000
G01 X441.503000 Y75.635556 Z-0.125000
G01 X441.503000 Y77.611112 Z-0.125000
G01 X441.503000 Y77.611112 Z-0.125000
G00 Z5.000000

(End cutting path id: path4628)


(Start cutting path id: path4628)
(Change tool to Default tool)

G00 Z5.000000
G00 X410.740778 Y106.821112

G01 Z-0.125000 F100.0(Penetrate)
G01 X410.740778 Y142.804445 Z-0.125000 F400.000000
G01 X428.661889 Y142.804445 Z-0.125000
G01 X446.583000 Y142.804445 Z-0.125000
G01 X446.583000 Y135.890001 Z-0.125000
G01 X446.583000 Y128.975556 Z-0.125000
G01 X435.858556 Y128.975556 Z-0.125000
G01 X425.134111 Y128.975556 Z-0.125000
G01 X425.134111 Y121.355556 Z-0.125000
G01 X425.134111 Y113.735556 Z-0.125000
G01 X434.870778 Y113.735556 Z-0.125000
G01 X444.607445 Y113.735556 Z-0.125000
G01 X444.607445 Y106.821112 Z-0.125000
G01 X444.607445 Y99.906667 Z-0.125000
G01 X434.870778 Y99.906667 Z-0.125000
G01 X425.134111 Y99.906667 Z-0.125000
G01 X425.134111 Y92.286667 Z-0.125000
G01 X425.134111 Y84.666667 Z-0.125000
G01 X435.858556 Y84.666667 Z-0.125000
G01 X446.583000 Y84.666667 Z-0.125000
G01 X446.583000 Y77.752223 Z-0.125000
G01 X446.583000 Y70.837778 Z-0.125000
G01 X428.661889 Y70.837778 Z-0.125000
G01 X410.740778 Y70.837778 Z-0.125000
G01 X410.740778 Y106.821112 Z-0.125000
G01 X410.740778 Y106.821112 Z-0.125000
G00 Z5.000000

(End cutting path id: path4628)


(Start cutting path id: path4628)
(Change tool to Default tool)

G00 Z5.000000
G00 X365.372257 Y105.378956

G01 Z-0.125000 F100.0(Penetrate)
G01 X365.444111 Y134.840134 Z-0.125000 F400.000000
G01 X376.734383 Y105.449512 Z-0.125000
G01 X388.024626 Y76.058889 Z-0.125000
G01 X392.044938 Y75.980573 Z-0.125000
G01 X396.065222 Y75.902284 Z-0.125000
G01 X396.065222 Y106.813351 Z-0.125000
G01 X396.065222 Y137.724445 Z-0.125000
G01 X393.949854 Y137.724445 Z-0.125000
G01 X391.834485 Y137.724445 Z-0.125000
G01 X391.762631 Y108.030406 Z-0.125000
G01 X391.690778 Y78.336394 Z-0.125000
G01 X380.273336 Y108.030406 Z-0.125000
G01 X368.855923 Y137.724445 Z-0.125000
G01 X364.962781 Y137.724445 Z-0.125000
G01 X361.069666 Y137.724445 Z-0.125000
G01 X361.069666 Y106.821112 Z-0.125000
G01 X361.069666 Y75.917778 Z-0.125000
G01 X363.185035 Y75.917778 Z-0.125000
G01 X365.300403 Y75.917778 Z-0.125000
G01 X365.372257 Y105.378956 Z-0.125000
G01 X365.372257 Y105.378956 Z-0.125000
G00 Z5.000000

(End cutting path id: path4628)


(Start cutting path id: path4628)
(Change tool to Default tool)

G00 Z5.000000
G00 X355.989666 Y106.825373

G01 Z-0.125000 F100.0(Penetrate)
G01 X355.989666 Y142.812971 Z-0.125000 F400.000000
G01 X364.206341 Y142.738151 Z-0.125000
G01 X372.423015 Y142.663334 Z-0.125000
G01 X379.414845 Y123.950561 Z-0.125000
G03 X386.449781 Y105.265488 Z-0.125000 I3731.808597 J1394.360251
G03 X386.579282 Y105.065182 Z-0.125000 I0.531595 J0.201668
G03 X386.665754 Y105.100543 Z-0.125000 I0.035816 J0.035827
G03 X386.751889 Y123.848510 Z-0.125000 I-2040.296896 J18.747967
G01 X386.751889 Y142.804445 Z-0.125000
G01 X393.807444 Y142.804445 Z-0.125000
G01 X400.863000 Y142.804445 Z-0.125000
G01 X400.863000 Y106.821112 Z-0.125000
G01 X400.863000 Y70.837778 Z-0.125000
G01 X392.710108 Y70.837778 Z-0.125000
G01 X384.557188 Y70.837778 Z-0.125000
G01 X377.540663 Y89.622292 Z-0.125000
G01 X370.524111 Y108.406777 Z-0.125000
G01 X370.451551 Y89.622292 Z-0.125000
G01 X370.378992 Y70.837778 Z-0.125000
G01 X363.184329 Y70.837778 Z-0.125000
G01 X355.989666 Y70.837778 Z-0.125000
G01 X355.989666 Y106.825373 Z-0.125000
G01 X355.989666 Y106.825373 Z-0.125000
G00 Z5.000000

(End cutting path id: path4628)


(Start cutting path id: path4628)
(Change tool to Default tool)

G00 Z5.000000
G00 X328.511918 Y85.573250

G01 Z-0.125000 F100.0(Penetrate)
G03 X329.866874 Y86.456436 Z-0.125000 I-4.075719 J7.733794 F400.000000
G03 X330.987712 Y87.535823 Z-0.125000 I-5.028343 J6.343080
G03 X332.038512 Y90.007445 Z-0.125000 I-3.387002 J2.899151
G03 X332.847444 Y106.839936 Z-0.125000 I-174.723155 J16.832491
G03 X331.816899 Y123.766302 Z-0.125000 I-139.520280 J0.000000
G03 X330.429420 Y126.623883 Z-0.125000 I-4.859686 J-0.593956
G03 X327.750535 Y128.155122 Z-0.125000 I-4.115255 J-4.090635
G03 X321.225109 Y128.975556 Z-0.125000 I-6.525426 J-25.540161
G01 X316.478555 Y128.975556 Z-0.125000
G01 X316.478555 Y106.799127 Z-0.125000
G01 X316.478555 Y84.622697 Z-0.125000
G01 X321.770222 Y84.715858 Z-0.125000
G03 X326.989092 Y85.092552 Z-0.125000 I-0.846575 J48.069312
G03 X328.511918 Y85.573250 Z-0.125000 I-0.564950 J4.442204
G01 X328.511918 Y85.573250 Z-0.125000
G00 Z5.000000

(End cutting path id: path4628)


(Start cutting path id: path4628)
(Change tool to Default tool)

G00 Z5.000000
G00 X330.470681 Y76.568159

G01 Z-0.125000 F100.0(Penetrate)
G03 X337.079414 Y80.595806 Z-0.125000 I-5.387583 J16.275941 F400.000000
G03 X341.238165 Y87.114155 Z-0.125000 I-11.973514 J12.225013
G01 X342.019666 Y89.323334 Z-0.125000
G01 X342.019666 Y106.680001 Z-0.125000
G03 X341.783668 Y124.001286 Z-0.125000 I-635.774303 J0.000000
G03 X341.500462 Y125.730001 Z-0.125000 I-6.498885 J-0.177124
G03 X337.764620 Y132.374662 Z-0.125000 I-17.105726 J-5.244852
G03 X331.908152 Y136.516675 Z-0.125000 I-11.839090 J-10.528216
G03 X328.200040 Y137.430600 Z-0.125000 I-4.970794 J-12.188741
G03 X316.549111 Y137.996818 Z-0.125000 I-11.779749 J-122.236669
G01 X307.165222 Y138.006696 Z-0.125000
G01 X307.165222 Y106.795063 Z-0.125000
G01 X307.165222 Y75.583430 Z-0.125000
G01 X317.677999 Y75.698492 Z-0.125000
G03 X328.141135 Y76.111079 Z-0.125000 I-2.012506 J183.914565
G03 X330.470681 Y76.568216 Z-0.125000 I-0.641244 J9.431941
G01 X330.470681 Y76.568159 Z-0.125000
G00 Z5.000000

(End cutting path id: path4628)


(Start cutting path id: path4628)
(Change tool to Default tool)

G00 Z5.000000
G00 X329.178555 Y43.349559

G01 Z-0.125000 F100.0(Penetrate)
G01 X329.178555 Y50.856925 Z-0.125000 F400.000000
G01 X333.905777 Y50.749426 Z-0.125000
G02 X339.752221 Y49.913557 Z-0.125000 I-0.564209 J-24.810578
G02 X342.101624 Y48.557942 Z-0.125000 I-1.352283 J-5.057300
G02 X343.433086 Y46.555777 Z-0.125000 I-4.309734 J-4.309821
G02 X344.075768 Y43.732112 Z-0.125000 I-8.183181 J-3.347511
G02 X343.530895 Y40.151665 Z-0.125000 I-8.659204 J-0.513925
G02 X341.780285 Y37.658040 Z-0.125000 I-5.742647 J2.170229
G02 X339.421828 Y36.483850 Z-0.125000 I-3.517301 J4.109115
G02 X333.501776 Y35.842222 Z-0.125000 I-5.920051 J26.990217
G01 X329.178555 Y35.842222 Z-0.125000
G01 X329.178555 Y43.349559 Z-0.125000
G01 X329.178555 Y43.349559 Z-0.125000
G00 Z5.000000

(End cutting path id: path4628)


(Start cutting path id: path4628)
(Change tool to Default tool)

G00 Z5.000000
G00 X324.380777 Y36.442170

G01 Z-0.125000 F100.0(Penetrate)
G01 X324.380777 Y55.668813 Z-0.125000 F400.000000
G01 X331.789111 Y55.534814 Z-0.125000
G02 X339.156062 Y55.167473 Z-0.125000 I-2.102400 J-116.218227
G02 X340.983544 Y54.783257 Z-0.125000 I-0.606882 J-7.424774
G02 X343.828165 Y53.403815 Z-0.125000 I-4.364313 J-12.622632
G02 X346.066620 Y51.524070 Z-0.125000 I-6.162530 J-9.611199
G02 X349.282410 Y42.983748 Z-0.125000 I-8.966204 J-8.251753
G02 X345.664143 Y34.532937 Z-0.125000 I-12.361908 J0.292831
G02 X342.843193 Y32.445411 Z-0.125000 I-8.396408 J8.396582
G02 X339.821522 Y31.425868 Z-0.125000 I-4.603798 J8.656994
G03 X338.906623 Y31.157806 Z-0.125000 I0.627212 J-3.835990
G03 X338.836002 Y30.999882 Z-0.125000 I0.050765 J-0.117454
G03 X338.968818 Y30.778645 Z-0.125000 I0.563467 J0.187784
G03 X345.501244 Y23.982144 Z-0.125000 I574.932473 J546.056155
G01 X352.082808 Y17.215556 Z-0.125000
G01 X346.722250 Y17.215556 Z-0.125000
G01 X341.361693 Y17.215556 Z-0.125000
G01 X336.773832 Y22.013333 Z-0.125000
G03 X332.150945 Y26.729102 Z-0.125000 I-192.193184 J-183.783961
G03 X331.952263 Y26.811111 Z-0.125000 I-0.198682 J-0.199666
G03 X331.832578 Y26.697115 Z-0.125000 I0.000000 J-0.119827
G03 X331.718555 Y22.013333 Z-0.125000 I96.141900 J-4.683782
G01 X331.718555 Y17.215556 Z-0.125000
G01 X328.049666 Y17.215556 Z-0.125000
G01 X324.380777 Y17.215556 Z-0.125000
G01 X324.380777 Y36.442170 Z-0.125000
G01 X324.380777 Y36.442170 Z-0.125000
G00 Z5.000000

(End cutting path id: path4628)


(Start cutting path id: path4628)
(Change tool to Default tool)

G00 Z5.000000
G00 X329.178555 Y26.597271

G01 Z-0.125000 F100.0(Penetrate)
G01 X329.178555 Y33.439016 Z-0.125000 F400.000000
G01 X336.024561 Y26.597271 Z-0.125000
G01 X342.870566 Y19.755556 Z-0.125000
G01 X344.209005 Y19.755556 Z-0.125000
G03 X345.469033 Y19.833981 Z-0.125000 I-0.000000 J10.161349
G03 X345.547444 Y19.922801 Z-0.125000 I-0.011099 J0.088819
G03 X345.489913 Y20.066660 Z-0.125000 I-0.208631 J0.000000
G03 X339.031469 Y26.766689 Z-0.125000 I-544.949825 J-518.837595
G01 X332.515522 Y33.443334 Z-0.125000
G01 X335.856469 Y33.621754 Z-0.125000
G03 X340.344288 Y34.352808 Z-0.125000 I-1.123615 J21.038201
G03 X342.779888 Y35.534882 Z-0.125000 I-1.989328 J7.199154
G03 X345.439443 Y38.747091 Z-0.125000 I-5.090303 J6.921623
G03 X346.439153 Y43.180000 Z-0.125000 I-9.201786 J4.404370
G03 X345.472966 Y47.608733 Z-0.125000 I-10.770968 J-0.030071
G03 X342.974001 Y50.799831 Z-0.125000 I-7.839344 J-3.565006
G03 X340.226244 Y52.061060 Z-0.125000 I-3.966752 J-5.018307
G03 X332.796221 Y52.775556 Z-0.125000 I-7.430023 J-38.275064
G01 X326.920777 Y52.775556 Z-0.125000
G01 X326.920777 Y36.265556 Z-0.125000
G01 X326.920777 Y19.755556 Z-0.125000
G01 X328.049666 Y19.755556 Z-0.125000
G01 X329.178555 Y19.755556 Z-0.125000
G01 X329.178555 Y26.597271 Z-0.125000
G01 X329.178555 Y26.597271 Z-0.125000
G00 Z5.000000

(End cutting path id: path4628)


(Start cutting path id: path4628)
(Change tool to Default tool)

G00 Z5.000000
G00 X317.607444 Y20.884445

G01 Z-0.125000 F100.0(Penetrate)
G01 X317.607444 Y22.013333 Z-0.125000 F400.000000
G01 X311.821888 Y22.013333 Z-0.125000
G01 X306.036333 Y22.013333 Z-0.125000
G01 X306.036333 Y28.645556 Z-0.125000
G01 X306.036333 Y35.277778 Z-0.125000
G01 X311.257444 Y35.277778 Z-0.125000
G01 X316.478555 Y35.277778 Z-0.125000
G01 X316.478555 Y36.406667 Z-0.125000
G01 X316.478555 Y37.535556 Z-0.125000
G01 X311.257444 Y37.535556 Z-0.125000
G01 X306.036333 Y37.535556 Z-0.125000
G01 X306.036333 Y44.167778 Z-0.125000
G01 X306.036333 Y50.800000 Z-0.125000
G01 X311.821888 Y50.800000 Z-0.125000
G01 X317.607444 Y50.800000 Z-0.125000
G01 X317.607444 Y51.787778 Z-0.125000
G01 X317.607444 Y52.775556 Z-0.125000
G01 X310.692999 Y52.775556 Z-0.125000
G01 X303.778555 Y52.775556 Z-0.125000
G01 X303.778555 Y36.265556 Z-0.125000
G01 X303.778555 Y19.755556 Z-0.125000
G01 X310.692999 Y19.755556 Z-0.125000
G01 X317.607444 Y19.755556 Z-0.125000
G01 X317.607444 Y20.884445 Z-0.125000
G01 X317.607444 Y20.884445 Z-0.125000
G00 Z5.000000

(End cutting path id: path4628)


(Start cutting path id: path4628)
(Change tool to Default tool)

G00 Z5.000000
G00 X301.238555 Y36.406667

G01 Z-0.125000 F100.0(Penetrate)
G01 X301.238555 Y55.597778 Z-0.125000 F400.000000
G01 X310.692999 Y55.597778 Z-0.125000
G01 X320.147444 Y55.597778 Z-0.125000
G01 X320.147444 Y51.928889 Z-0.125000
G01 X320.147444 Y48.260000 Z-0.125000
G01 X314.502999 Y48.260000 Z-0.125000
G01 X308.858555 Y48.260000 Z-0.125000
G01 X308.858555 Y44.167778 Z-0.125000
G01 X308.858555 Y40.075556 Z-0.125000
G01 X313.938555 Y40.075556 Z-0.125000
G01 X319.018555 Y40.075556 Z-0.125000
G01 X319.018555 Y36.406667 Z-0.125000
G01 X319.018555 Y32.737778 Z-0.125000
G01 X313.938555 Y32.737778 Z-0.125000
G01 X308.858555 Y32.737778 Z-0.125000
G01 X308.858555 Y28.645556 Z-0.125000
G01 X308.858555 Y24.553333 Z-0.125000
G01 X314.502999 Y24.553333 Z-0.125000
G01 X320.147444 Y24.553333 Z-0.125000
G01 X320.147444 Y20.884445 Z-0.125000
G01 X320.147444 Y17.215556 Z-0.125000
G01 X310.692999 Y17.215556 Z-0.125000
G01 X301.238555 Y17.215556 Z-0.125000
G01 X301.238555 Y36.406667 Z-0.125000
G01 X301.238555 Y36.406667 Z-0.125000
G00 Z5.000000

(End cutting path id: path4628)


(Start cutting path id: path4628)
(Change tool to Default tool)

G00 Z5.000000
G00 X287.905954 Y35.348334

G01 Z-0.125000 F100.0(Penetrate)
G01 X287.978936 Y50.800000 Z-0.125000 F400.000000
G01 X291.786509 Y50.800000 Z-0.125000
G01 X295.594110 Y50.800000 Z-0.125000
G01 X295.594110 Y51.787778 Z-0.125000
G01 X295.594110 Y52.775556 Z-0.125000
G01 X286.704110 Y52.775556 Z-0.125000
G01 X277.814110 Y52.775556 Z-0.125000
G01 X277.814110 Y51.787778 Z-0.125000
G01 X277.814110 Y50.800000 Z-0.125000
G01 X281.624110 Y50.800000 Z-0.125000
G01 X285.434110 Y50.800000 Z-0.125000
G01 X285.434110 Y35.465936 Z-0.125000
G03 X285.533319 Y20.172945 Z-0.125000 I1178.758682 J-0.000000
G03 X285.635702 Y19.930279 Z-0.125000 I0.349521 J0.004535
G03 X285.870424 Y19.819310 Z-0.125000 I0.272291 J0.272222
G03 X286.835146 Y19.812677 Z-0.125000 I0.518759 J5.291247
G01 X287.832999 Y19.896667 Z-0.125000
G01 X287.905954 Y35.348334 Z-0.125000
G01 X287.905954 Y35.348334 Z-0.125000
G00 Z5.000000

(End cutting path id: path4628)


(Start cutting path id: path4628)
(Change tool to Default tool)

G00 Z5.000000
G00 X282.894110 Y32.737778

G01 Z-0.125000 F100.0(Penetrate)
G01 X282.894110 Y48.260000 Z-0.125000 F400.000000
G01 X279.084110 Y48.260000 Z-0.125000
G01 X275.274110 Y48.260000 Z-0.125000
G01 X275.274110 Y51.928889 Z-0.125000
G01 X275.274110 Y55.597778 Z-0.125000
G01 X286.704110 Y55.597778 Z-0.125000
G01 X298.134110 Y55.597778 Z-0.125000
G01 X298.134110 Y51.928889 Z-0.125000
G01 X298.134110 Y48.260000 Z-0.125000
G01 X294.324110 Y48.260000 Z-0.125000
G01 X290.514110 Y48.260000 Z-0.125000
G01 X290.514110 Y32.737778 Z-0.125000
G01 X290.514110 Y17.215556 Z-0.125000
G01 X286.704110 Y17.215556 Z-0.125000
G01 X282.894110 Y17.215556 Z-0.125000
G01 X282.894110 Y32.737778 Z-0.125000
G01 X282.894110 Y32.737778 Z-0.125000
G00 Z5.000000

(End cutting path id: path4628)


(Start cutting path id: path4628)
(Change tool to Default tool)

G00 Z5.000000
G00 X253.328962 Y35.456114

G01 Z-0.125000 F100.0(Penetrate)
G01 X253.401888 Y51.156645 Z-0.125000 F400.000000
G01 X258.308660 Y38.348892 Z-0.125000
G03 X263.219530 Y25.542690 Z-0.125000 I19718.555220 J7554.253068
G03 X264.335233 Y22.648333 Z-0.125000 I1021.659056 J392.162193
G01 X265.455035 Y19.755556 Z-0.125000
G01 X267.542350 Y19.755556 Z-0.125000
G01 X269.629666 Y19.755556 Z-0.125000
G01 X269.629666 Y36.265556 Z-0.125000
G01 X269.629666 Y52.775556 Z-0.125000
G01 X268.500777 Y52.775556 Z-0.125000
G01 X267.371888 Y52.775556 Z-0.125000
G01 X267.359752 Y37.041667 Z-0.125000
G01 X267.347617 Y21.307778 Z-0.125000
G01 X261.326970 Y36.971111 Z-0.125000
G01 X255.306323 Y52.634445 Z-0.125000
G01 X253.154802 Y52.716882 Z-0.125000
G01 X251.003281 Y52.799291 Z-0.125000
G01 X251.003281 Y36.277437 Z-0.125000
G01 X251.003281 Y19.755556 Z-0.125000
G01 X252.129799 Y19.755556 Z-0.125000
G01 X253.256318 Y19.755556 Z-0.125000
G01 X253.329244 Y35.456114 Z-0.125000
G01 X253.328962 Y35.456114 Z-0.125000
G00 Z5.000000

(End cutting path id: path4628)


(Start cutting path id: path4628)
(Change tool to Default tool)

G00 Z5.000000
G00 X248.462999 Y36.414005

G01 Z-0.125000 F100.0(Penetrate)
G01 X248.462999 Y55.612482 Z-0.125000 F400.000000
G01 X252.757659 Y55.534560 Z-0.125000
G01 X257.052348 Y55.456667 Z-0.125000
G01 X260.730437 Y45.668890 Z-0.125000
G03 X264.460825 Y35.915165 Z-0.125000 I838.099306 J314.947408
G03 X264.620221 Y35.673510 Z-0.125000 I0.641154 J0.249510
G03 X264.726532 Y35.716820 Z-0.125000 I0.043786 J0.044652
G03 X264.831888 Y45.531843 Z-0.125000 I-457.132840 J9.815023
G01 X264.831888 Y55.597778 Z-0.125000
G01 X268.500777 Y55.597778 Z-0.125000
G01 X272.169666 Y55.597778 Z-0.125000
G01 X272.169666 Y36.406667 Z-0.125000
G01 X272.169666 Y17.215556 Z-0.125000
G01 X267.865777 Y17.218378 Z-0.125000
G01 X263.561888 Y17.221200 Z-0.125000
G01 X259.922153 Y27.026390 Z-0.125000
G03 X256.226569 Y36.797832 Z-0.125000 I-798.256027 J-296.317851
G03 X256.041597 Y37.099692 Z-0.125000 I-0.912365 J-0.351471
G03 X255.920612 Y37.055023 Z-0.125000 I-0.051618 J-0.046372
G03 X255.800777 Y27.292469 Z-0.125000 I397.601695 J-9.762554
G01 X255.800777 Y17.217136 Z-0.125000
G01 X252.131888 Y17.217136 Z-0.125000
G01 X248.462999 Y17.217136 Z-0.125000
G01 X248.462999 Y36.415585 Z-0.125000
G01 X248.462999 Y36.414005 Z-0.125000
G00 Z5.000000

(End cutting path id: path4628)


(Start cutting path id: path4628)
(Change tool to Default tool)

G00 Z5.000000
G00 X241.689666 Y20.884445

G01 Z-0.125000 F100.0(Penetrate)
G01 X241.689666 Y22.013333 Z-0.125000 F400.000000
G01 X235.904110 Y22.013333 Z-0.125000
G01 X230.118554 Y22.013333 Z-0.125000
G01 X230.118554 Y28.645556 Z-0.125000
G01 X230.118554 Y35.277778 Z-0.125000
G01 X235.356712 Y35.277778 Z-0.125000
G01 X240.594841 Y35.277778 Z-0.125000
G01 X240.507267 Y36.336111 Z-0.125000
G01 X240.419666 Y37.394445 Z-0.125000
G01 X235.269110 Y37.471378 Z-0.125000
G01 X230.118554 Y37.548284 Z-0.125000
G01 X230.118554 Y44.174156 Z-0.125000
G01 X230.118554 Y50.800000 Z-0.125000
G01 X235.904110 Y50.800000 Z-0.125000
G01 X241.689666 Y50.800000 Z-0.125000
G01 X241.689666 Y51.787778 Z-0.125000
G01 X241.689666 Y52.775556 Z-0.125000
G01 X234.775221 Y52.775556 Z-0.125000
G01 X227.860777 Y52.775556 Z-0.125000
G01 X227.860777 Y36.265556 Z-0.125000
G01 X227.860777 Y19.755556 Z-0.125000
G01 X234.775221 Y19.755556 Z-0.125000
G01 X241.689666 Y19.755556 Z-0.125000
G01 X241.689666 Y20.884445 Z-0.125000
G01 X241.689666 Y20.884445 Z-0.125000
G00 Z5.000000

(End cutting path id: path4628)


(Start cutting path id: path4628)
(Change tool to Default tool)

G00 Z5.000000
G00 X225.320777 Y36.406667

G01 Z-0.125000 F100.0(Penetrate)
G01 X225.320777 Y55.597778 Z-0.125000 F400.000000
G01 X234.775221 Y55.597778 Z-0.125000
G01 X244.229666 Y55.597778 Z-0.125000
G01 X244.229666 Y51.934731 Z-0.125000
G01 X244.229666 Y48.271684 Z-0.125000
G01 X238.514666 Y48.195287 Z-0.125000
G01 X232.799666 Y48.118889 Z-0.125000
G01 X232.721349 Y44.097222 Z-0.125000
G01 X232.643060 Y40.075556 Z-0.125000
G01 X237.871904 Y40.075556 Z-0.125000
G01 X243.100777 Y40.075556 Z-0.125000
G01 X243.100777 Y36.413045 Z-0.125000
G01 X243.100777 Y32.750506 Z-0.125000
G01 X237.950221 Y32.673601 Z-0.125000
G01 X232.799666 Y32.596667 Z-0.125000
G01 X232.799666 Y28.645556 Z-0.125000
G01 X232.799666 Y24.694445 Z-0.125000
G01 X238.514666 Y24.618047 Z-0.125000
G01 X244.229666 Y24.541649 Z-0.125000
G01 X244.229666 Y20.878603 Z-0.125000
G01 X244.229666 Y17.215556 Z-0.125000
G01 X234.775221 Y17.215556 Z-0.125000
G01 X225.320777 Y17.215556 Z-0.125000
G01 X225.320777 Y36.406667 Z-0.125000
G01 X225.320777 Y36.406667 Z-0.125000
G00 Z5.000000

(End cutting path id: path4628)


(Start cutting path id: path4628)
(Change tool to Default tool)

G00 Z5.000000
G00 X244.588991 Y69.985919

G01 Z-0.125000 F100.0(Penetrate)
G02 X234.354298 Y73.738589 Z-0.125000 I2.553706 J22.797668 F400.000000
G02 X227.768264 Y81.280734 Z-0.125000 I10.789830 J16.068649
G02 X226.141267 Y85.828690 Z-0.125000 I19.291143 J9.466265
G02 X225.396186 Y91.369445 Z-0.125000 I28.022852 J6.588782
G01 X225.249685 Y95.391112 Z-0.125000
G01 X232.298354 Y95.391112 Z-0.125000
G01 X239.347052 Y95.391112 Z-0.125000
G01 X239.534532 Y92.530084 Z-0.125000
G03 X240.374404 Y88.406115 Z-0.125000 I15.547489 J1.018836
G03 X241.774671 Y86.123611 Z-0.125000 I5.954187 J2.081997
G03 X244.119175 Y84.598465 Z-0.125000 I4.430597 J4.246259
G03 X247.757443 Y83.961112 Z-0.125000 I3.638268 J10.065671
G03 X250.525883 Y84.173654 Z-0.125000 I-0.000000 J18.136251
G03 X251.708555 Y84.571389 Z-0.125000 I-0.559078 J3.619639
G03 X254.761772 Y87.547238 Z-0.125000 I-3.707330 J6.857939
G03 X255.895801 Y91.863334 Z-0.125000 I-7.406594 J4.253067
G03 X253.862318 Y96.519239 Z-0.125000 I-6.456041 J-0.047681
G03 X247.475221 Y99.780796 Z-0.125000 I-8.812151 J-9.372112
G02 X236.610842 Y102.845704 Z-0.125000 I12.486815 J65.051126
G02 X232.351779 Y105.478044 Z-0.125000 I4.593821 J12.194391
G02 X227.053474 Y113.235460 Z-0.125000 I14.323187 J15.470793
G02 X225.391981 Y123.182494 Z-0.125000 I22.613241 J8.889460
G02 X227.173004 Y131.120953 Z-0.125000 I23.060743 J-1.004742
G02 X231.399589 Y137.477219 Z-0.125000 I18.732129 J-7.872528
G02 X247.681967 Y144.395347 Z-0.125000 I16.479010 J-16.164675
G02 X263.910348 Y137.754163 Z-0.125000 I0.193170 J-22.676378
G02 X268.468087 Y130.755444 Z-0.125000 I-14.288332 J-14.288332
G02 X270.194110 Y121.508577 Z-0.125000 I-23.906225 J-9.246867
G01 X270.194110 Y118.251112 Z-0.125000
G01 X263.179082 Y118.251112 Z-0.125000
G01 X256.164053 Y118.251112 Z-0.125000
G01 X256.015068 Y121.170503 Z-0.125000
G03 X255.183442 Y125.271663 Z-0.125000 I-14.069867 J-0.718166
G03 X253.651824 Y127.662009 Z-0.125000 I-6.092636 J-2.217998
G03 X251.754193 Y129.010584 Z-0.125000 I-5.064042 J-5.116406
G03 X249.215770 Y129.834725 Z-0.125000 I-4.161767 J-8.497235
G03 X242.567775 Y128.107472 Z-0.125000 I-1.423923 J-8.176791
G03 X239.679481 Y122.110416 Z-0.125000 I4.906033 J-6.056893
G03 X241.715872 Y117.187296 Z-0.125000 I6.842216 J-0.052523
G03 X248.039666 Y113.861427 Z-0.125000 I8.643759 J8.760258
G02 X259.114514 Y110.545884 Z-0.125000 I-10.782046 J-56.169389
G02 X264.031478 Y107.248255 Z-0.125000 I-5.732352 J-13.861844
G02 X266.249473 Y104.622562 Z-0.125000 I-15.274295 J-15.152271
G02 X267.896454 Y101.851150 Z-0.125000 I-15.389109 J-11.020448
G02 X269.606243 Y96.971173 Z-0.125000 I-20.467434 J-9.910651
G02 X270.194110 Y91.722223 Z-0.125000 I-23.139470 J-5.248950
G02 X264.181119 Y76.744991 Z-0.125000 I-21.659229 J0.000000
G02 X249.309666 Y69.904921 Z-0.125000 I-16.095113 J15.406913
G02 X246.631286 Y69.854295 Z-0.125000 I-2.041038 J37.106548
G02 X244.588991 Y69.985919 Z-0.125000 I0.371872 J21.680219
G01 X244.588991 Y69.985919 Z-0.125000
G00 Z5.000000

(End cutting path id: path4628)


(Start cutting path id: path4628)
(Change tool to Default tool)

G00 Z5.000000
G00 X254.333616 Y75.864297

G01 Z-0.125000 F100.0(Penetrate)
G03 X262.141796 Y81.969368 Z-0.125000 I-5.706592 J15.344273 F400.000000
G03 X265.162314 Y91.704104 Z-0.125000 I-14.291964 J9.770521
G03 X264.004277 Y98.223577 Z-0.125000 I-18.714026 J0.038463
G03 X260.840955 Y103.409807 Z-0.125000 I-14.776081 J-5.454772
G03 X256.662035 Y106.354349 Z-0.125000 I-8.824290 J-8.085859
G03 X248.039666 Y108.800985 Z-0.125000 I-14.279358 J-33.906251
G02 X241.735840 Y110.542584 Z-0.125000 I4.375164 J28.115518
G02 X238.359274 Y112.720657 Z-0.125000 I4.031013 J9.955399
G02 X235.651928 Y116.704863 Z-0.125000 I7.861238 J8.253817
G02 X234.634110 Y121.941506 Z-0.125000 I12.962284 J5.236643
G02 X238.154395 Y130.740146 Z-0.125000 I12.755852 J-0.000000
G02 X246.910777 Y134.827829 Z-0.125000 I9.603226 J-9.148906
G02 X255.930224 Y132.242074 Z-0.125000 I0.890375 J-13.917632
G02 X260.655676 Y124.967719 Z-0.125000 I-6.947993 J-9.685461
G01 X260.993722 Y123.331112 Z-0.125000
G01 X263.086428 Y123.331112 Z-0.125000
G01 X265.179134 Y123.331112 Z-0.125000
G01 X264.977007 Y124.948923 Z-0.125000
G03 X262.192967 Y132.008931 Z-0.125000 I-15.140874 J-1.891710
G03 X256.224110 Y137.031336 Z-0.125000 I-13.055786 J-9.458064
G03 X252.387777 Y138.363347 Z-0.125000 I-7.397606 J-15.115358
G03 X247.809429 Y138.853334 Z-0.125000 I-4.578348 J-21.144625
G03 X243.242242 Y138.359279 Z-0.125000 I-0.000000 J-21.357200
G03 X239.149666 Y136.957619 Z-0.125000 I4.050129 J-18.501198
G03 X234.045030 Y132.863173 Z-0.125000 I6.128502 J-12.869790
G03 X230.828343 Y126.305706 Z-0.125000 I13.994494 J-10.932518
G03 X230.279655 Y121.920001 Z-0.125000 I17.253296 J-4.385705
G03 X230.828343 Y117.534296 Z-0.125000 I17.801984 J0.000000
G03 X233.814235 Y111.282770 Z-0.125000 I17.181552 J4.367525
G03 X238.476622 Y107.310005 Z-0.125000 I11.097099 J8.301175
G03 X241.727216 Y106.043583 Z-0.125000 I7.288447 J13.902697
G03 X248.305773 Y104.693608 Z-0.125000 I14.962789 J56.211142
G02 X256.701262 Y101.191975 Z-0.125000 I-2.644581 J-18.155927
G02 X260.584528 Y95.443210 Z-0.125000 I-6.421371 J-8.523555
G02 X260.802294 Y94.214110 Z-0.125000 I-6.883815 J-1.853480
G02 X260.907701 Y91.767463 Z-0.125000 I-27.333141 J-2.403168
G02 X258.134633 Y83.631512 Z-0.125000 I-13.384641 J0.021474
G02 X251.220084 Y79.165479 Z-0.125000 I-9.731264 J7.480705
G02 X240.561505 Y80.771991 Z-0.125000 I-3.324838 J14.102011
G02 X234.867056 Y88.763236 Z-0.125000 I6.077690 J10.355390
G01 X234.556188 Y90.311112 Z-0.125000
G01 X232.451996 Y90.311112 Z-0.125000
G01 X230.347804 Y90.311112 Z-0.125000
G01 X230.548802 Y88.829445 Z-0.125000
G03 X234.294813 Y80.568013 Z-0.125000 I15.670582 J2.125568
G03 X242.211099 Y75.440794 Z-0.125000 I12.891498 J11.229250
G03 X244.401367 Y75.010994 Z-0.125000 I3.205040 J10.537189
G03 X248.180777 Y74.888429 Z-0.125000 I2.912432 J31.475645
G03 X251.943422 Y75.236959 Z-0.125000 I-0.798944 J29.109765
G03 X254.333616 Y75.864297 Z-0.125000 I-1.950699 J12.299338
G01 X254.333616 Y75.864297 Z-0.125000
G00 Z5.000000

(End cutting path id: path4628)


(Start cutting path id: path4628)
(Change tool to Default tool)

G00 Z5.000000
G00 X278.096333 Y106.821112

G01 Z-0.125000 F100.0(Penetrate)
G01 X278.096333 Y142.804445 Z-0.125000 F400.000000
G01 X285.151888 Y142.804445 Z-0.125000
G01 X292.207444 Y142.804445 Z-0.125000
G01 X292.207444 Y106.821112 Z-0.125000
G01 X292.207444 Y70.837778 Z-0.125000
G01 X285.151888 Y70.837778 Z-0.125000
G01 X278.096333 Y70.837778 Z-0.125000
G01 X278.096333 Y106.821112 Z-0.125000
G01 X278.096333 Y106.821112 Z-0.125000
G00 Z5.000000

(End cutting path id: path4628)


(Start cutting path id: path4628)
(Change tool to Default tool)

G00 Z5.000000
G00 X287.409666 Y106.821112

G01 Z-0.125000 F100.0(Penetrate)
G01 X287.409666 Y137.724445 Z-0.125000 F400.000000
G01 X285.292999 Y137.724445 Z-0.125000
G01 X283.176333 Y137.724445 Z-0.125000
G01 X283.176333 Y106.821112 Z-0.125000
G01 X283.176333 Y75.917778 Z-0.125000
G01 X285.292999 Y75.917778 Z-0.125000
G01 X287.409666 Y75.917778 Z-0.125000
G01 X287.409666 Y106.821112 Z-0.125000
G01 X287.409666 Y106.821112 Z-0.125000
G00 Z5.000000

(End cutting path id: path4628)


(Start cutting path id: path4628)
(Change tool to Default tool)

G00 Z5.000000
G00 X302.085222 Y106.821112

G01 Z-0.125000 F100.0(Penetrate)
G01 X302.085222 Y142.804445 Z-0.125000 F400.000000
G01 X314.714666 Y142.794596 Z-0.125000
G02 X329.453948 Y142.193224 Z-0.125000 I-0.143794 J-184.450825
G02 X333.549528 Y141.269868 Z-0.125000 I-1.205540 J-14.891937
G02 X339.640826 Y137.725120 Z-0.125000 I-7.643136 J-20.139993
G02 X344.098318 Y132.539571 Z-0.125000 I-12.929895 J-15.623125
G02 X345.877623 Y128.654523 Z-0.125000 I-16.513270 J-9.912853
G02 X346.944303 Y123.902950 Z-0.125000 I-23.759576 J-7.829301
G02 X348.060369 Y105.790808 Z-0.125000 I-145.802713 J-18.074790
G02 X346.935272 Y89.567061 Z-0.125000 I-117.967087 J0.029991
G02 X342.444165 Y78.939873 Z-0.125000 I-22.088705 J3.072229
G02 X333.549472 Y72.372362 Z-0.125000 I-16.161778 J12.581656
G02 X329.453890 Y71.449001 Z-0.125000 I-5.301121 J13.968525
G02 X314.714610 Y70.847628 Z-0.125000 I-14.883075 J183.848815
G01 X302.085222 Y70.837750 Z-0.125000
G01 X302.085222 Y106.821084 Z-0.125000
G01 X302.085222 Y106.821112 Z-0.125000
G00 Z5.000000

(End cutting path id: path4628)


(Start cutting path id: path4628)
(Change tool to Default tool)

G00 Z5.000000
G00 X311.398555 Y106.855120

G01 Z-0.125000 F100.0(Penetrate)
G01 X311.398555 Y134.123572 Z-0.125000 F400.000000
G01 X319.371333 Y133.993580 Z-0.125000
G02 X327.301206 Y133.621051 Z-0.125000 I-2.112664 J-129.557450
G02 X329.163315 Y133.232371 Z-0.125000 I-0.576605 J-7.417315
G02 X334.643353 Y129.593686 Z-0.125000 I-4.320809 J-12.453298
G02 X337.519040 Y123.941784 Z-0.125000 I-9.108483 J-8.191920
G02 X337.815090 Y121.359953 Z-0.125000 I-13.444939 J-2.849573
G02 X337.955412 Y106.806849 Z-0.125000 I-739.343898 J-14.406055
G02 X337.809337 Y92.254640 Z-0.125000 I-739.580637 J0.147068
G02 X337.512267 Y89.667532 Z-0.125000 I-13.803427 J0.274399
G02 X333.719749 Y83.196054 Z-0.125000 I-11.618809 J2.462024
G02 X326.344818 Y79.884158 Z-0.125000 I-9.091453 J10.377651
G02 X323.965629 Y79.694504 Z-0.125000 I-3.285808 J26.202022
G02 X317.685507 Y79.586667 Z-0.125000 I-6.280123 J182.814370
G01 X311.398668 Y79.586667 Z-0.125000
G01 X311.398668 Y106.855120 Z-0.125000
G01 X311.398555 Y106.855120 Z-0.125000
G00 Z5.000000

(End cutting path id: path4628)


(Start cutting path id: path4628)
(Change tool to Default tool)

G00 Z5.000000
G00 X289.008935 Y157.668150

G01 Z-0.125000 F100.0(Penetrate)
G02 X288.914400 Y157.895081 Z-0.125000 I0.228190 J0.228215 F400.000000
G02 X288.820777 Y204.940373 Z-0.125000 I11820.021295 J47.045292
G01 X288.820777 Y252.024446 Z-0.125000
G01 X312.245222 Y252.024446 Z-0.125000
G01 X335.669666 Y252.024446 Z-0.125000
G01 X335.669666 Y242.852224 Z-0.125000
G01 X335.669666 Y233.680001 Z-0.125000
G01 X321.699666 Y233.680001 Z-0.125000
G01 X307.729666 Y233.680001 Z-0.125000
G01 X307.729666 Y223.802224 Z-0.125000
G01 X307.729666 Y213.924446 Z-0.125000
G01 X320.429666 Y213.924446 Z-0.125000
G01 X333.129666 Y213.924446 Z-0.125000
G01 X333.129666 Y204.752223 Z-0.125000
G01 X333.129666 Y195.580001 Z-0.125000
G01 X320.429666 Y195.580001 Z-0.125000
G01 X307.729666 Y195.580001 Z-0.125000
G01 X307.729666 Y185.702223 Z-0.125000
G01 X307.729666 Y175.824445 Z-0.125000
G01 X321.699666 Y175.824445 Z-0.125000
G01 X335.669666 Y175.824445 Z-0.125000
G01 X335.669666 Y166.652223 Z-0.125000
G01 X335.669666 Y157.480001 Z-0.125000
G01 X312.433379 Y157.480001 Z-0.125000
G02 X289.235643 Y157.573163 Z-0.125000 I0.000000 J2888.208639
G02 X289.008935 Y157.668150 Z-0.125000 I0.002604 J0.324256
G01 X289.008935 Y157.668150 Z-0.125000
G00 Z5.000000

(End cutting path id: path4628)


(Start cutting path id: path4628)
(Change tool to Default tool)

G00 Z5.000000
G00 X329.178555 Y166.793334

G01 Z-0.125000 F100.0(Penetrate)
G01 X329.178555 Y169.333334 Z-0.125000 F400.000000
G01 X315.067444 Y169.333334 Z-0.125000
G01 X300.956333 Y169.333334 Z-0.125000
G01 X300.956333 Y185.702223 Z-0.125000
G01 X300.956333 Y202.071112 Z-0.125000
G01 X313.656333 Y202.071112 Z-0.125000
G01 X326.356333 Y202.071112 Z-0.125000
G01 X326.356333 Y204.752223 Z-0.125000
G01 X326.356333 Y207.433335 Z-0.125000
G01 X313.656333 Y207.433335 Z-0.125000
G01 X300.956333 Y207.433335 Z-0.125000
G01 X300.956333 Y223.802224 Z-0.125000
G01 X300.956333 Y240.171113 Z-0.125000
G01 X315.067444 Y240.171113 Z-0.125000
G01 X329.178555 Y240.171113 Z-0.125000
G01 X329.178555 Y242.852224 Z-0.125000
G01 X329.178555 Y245.533335 Z-0.125000
G01 X312.386333 Y245.533335 Z-0.125000
G01 X295.594110 Y245.533335 Z-0.125000
G01 X295.594110 Y204.893335 Z-0.125000
G01 X295.594110 Y164.253334 Z-0.125000
G01 X312.386333 Y164.253334 Z-0.125000
G01 X329.178555 Y164.253334 Z-0.125000
G01 X329.178555 Y166.793334 Z-0.125000
G01 X329.178555 Y166.793334 Z-0.125000
G00 Z5.000000

(End cutting path id: path4628)


(Start cutting path id: path4628)
(Change tool to Default tool)

G00 Z5.000000
G00 X339.241668 Y158.252401

G01 Z-0.125000 F100.0(Penetrate)
G03 X339.438259 Y159.032568 Z-0.125000 I-221.205038 J56.155234 F400.000000
G03 X351.048322 Y205.457779 Z-0.125000 I-803197.597629 J200904.987983
G01 X362.656997 Y251.883335 Z-0.125000
G01 X372.717062 Y251.957444 Z-0.125000
G01 X382.777099 Y252.031549 Z-0.125000
G01 X383.058108 Y250.969666 Z-0.125000
G02 X405.559952 Y163.331135 Z-0.125000 I-5949.674761 J-1574.331254
G02 X406.225222 Y157.904678 Z-0.125000 I-21.798560 J-5.426457
G02 X406.017582 Y157.687640 Z-0.125000 I-0.217251 J0.000000
G02 X396.635057 Y157.480001 Z-0.125000 I-9.382525 J211.879358
G01 X387.044864 Y157.480001 Z-0.125000
G01 X386.843470 Y158.256112 Z-0.125000
G02 X386.649271 Y159.034013 Z-0.125000 I41.908730 J10.875489
G02 X385.066712 Y165.664445 Z-0.125000 I3047.452903 J730.873658
G01 X383.491347 Y172.296668 Z-0.125000
G01 X372.769838 Y172.370514 Z-0.125000
G01 X362.048328 Y172.444360 Z-0.125000
G01 X360.204063 Y165.032736 Z-0.125000
G01 X358.359797 Y157.621112 Z-0.125000
G01 X348.701757 Y157.546845 Z-0.125000
G01 X339.043718 Y157.472576 Z-0.125000
G01 X339.241668 Y158.252401 Z-0.125000
G01 X339.241668 Y158.252401 Z-0.125000
G00 Z5.000000

(End cutting path id: path4628)


(Start cutting path id: path4628)
(Change tool to Default tool)

G00 Z5.000000
G00 X355.038888 Y171.591112

G01 Z-0.125000 F100.0(Penetrate)
G03 X356.807257 Y178.788156 Z-0.125000 I-15074.106842 J3707.639242 F400.000000
G03 X356.822673 Y178.858334 Z-0.125000 I-1.427109 J0.350290
G01 X356.865473 Y178.893707 Z-0.125000
G02 X372.749715 Y178.928890 Z-0.125000 I15.884242 J-3585.626879
G01 X388.663069 Y178.928890 Z-0.125000
G01 X390.459160 Y171.661668 Z-0.125000
G01 X392.255222 Y164.394445 Z-0.125000
G01 X395.006889 Y164.313671 Z-0.125000
G03 X397.619596 Y164.375976 Z-0.125000 I0.721211 J24.568491
G03 X397.758555 Y164.526074 Z-0.125000 I-0.011585 J0.150098
G03 X397.723248 Y164.814905 Z-0.125000 I-1.199031 J0.000000
G03 X387.702808 Y205.041544 Z-0.125000 I-23630.503303 J-5864.987498
G01 X377.647061 Y245.263838 Z-0.125000
G01 X372.691860 Y245.186918 Z-0.125000
G01 X367.736658 Y245.110001 Z-0.125000
G01 X357.821458 Y205.457779 Z-0.125000
G02 X347.904902 Y165.805899 Z-0.125000 I-573412.297566 J143370.947639
G02 X347.706754 Y165.019486 Z-0.125000 I-227.759231 J56.968877
G01 X347.507252 Y164.233415 Z-0.125000
G01 X350.388007 Y164.313930 Z-0.125000
G01 X353.268762 Y164.394445 Z-0.125000
G01 X355.038888 Y171.591112 Z-0.125000
G01 X355.038888 Y171.591112 Z-0.125000
G00 Z5.000000

(End cutting path id: path4628)


(Start cutting path id: path4628)
(Change tool to Default tool)

G00 Z5.000000
G00 X358.247444 Y184.539329

G01 Z-0.125000 F100.0(Penetrate)
G02 X358.290275 Y184.887078 Z-0.125000 I1.433130 J-0.000000 F400.000000
G02 X365.438413 Y213.376289 Z-0.125000 I19361.474633 J-4842.785602
G02 X372.638798 Y241.895671 Z-0.125000 I19343.346239 J-4868.511204
G02 X372.718897 Y242.036632 Z-0.125000 I0.296020 J-0.074969
G01 X372.785562 Y242.018363 Z-0.125000
G02 X379.930578 Y213.848412 Z-0.125000 I-6814.523790 J-1743.424262
G03 X387.047695 Y185.562281 Z-0.125000 I88722.636634 J22308.603923
G03 X387.212673 Y184.926112 Z-0.125000 I44.963047 J11.320843
G01 X387.382176 Y184.291112 Z-0.125000
G01 X372.814796 Y184.291112 Z-0.125000
G02 X358.370495 Y184.414164 Z-0.125000 I-0.000000 J847.825159
G02 X358.247444 Y184.539329 Z-0.125000 I0.002133 J0.125165
G01 X358.247444 Y184.539329 Z-0.125000
G00 Z5.000000

(End cutting path id: path4628)


(Start cutting path id: path4628)
(Change tool to Default tool)

G00 Z5.000000
G00 X379.028200 Y191.276112

G01 Z-0.125000 F100.0(Penetrate)
G02 X378.896916 Y191.772752 Z-0.125000 I11.746864 J3.370892 F400.000000
G02 X375.853595 Y204.395348 Z-0.125000 I7613.662113 J1842.339964
G03 X372.786501 Y216.899318 Z-0.125000 I-1307.473020 J-314.081414
G01 X372.718248 Y216.918208 Z-0.125000
G03 X372.645481 Y216.789080 Z-0.125000 I0.194882 J-0.194887
G03 X369.536037 Y204.048270 Z-0.125000 I4121.053774 J-1012.509097
G03 X366.476183 Y191.340708 Z-0.125000 I4130.873870 J-1001.395065
G03 X366.433751 Y190.993890 Z-0.125000 I1.506674 J-0.360342
G03 X366.537796 Y190.886328 Z-0.125000 I0.107621 J0.000000
G03 X372.800910 Y190.782223 Z-0.125000 I6.263115 J188.347388
G03 X378.851932 Y191.021802 Z-0.125000 I0.000000 J76.534790
G03 X379.028200 Y191.276112 Z-0.125000 I-0.015798 J0.199193
G01 X379.028200 Y191.276112 Z-0.125000
G00 Z5.000000

(End cutting path id: path4628)


(Start cutting path id: path4628)
(Change tool to Default tool)

G00 Z5.000000
G00 X412.434111 Y204.748419

G01 Z-0.125000 F100.0(Penetrate)
G01 X412.434111 Y252.024446 Z-0.125000 F400.000000
G01 X423.106570 Y252.024446 Z-0.125000
G01 X433.779058 Y252.024446 Z-0.125000
G01 X444.041025 Y225.199085 Z-0.125000
G03 X454.350057 Y198.413568 Z-0.125000 I6614.897043 J2530.521156
G03 X454.464677 Y198.278723 Z-0.125000 I0.250939 J0.097164
G03 X454.579098 Y198.318419 Z-0.125000 I0.040306 J0.068577
G03 X464.917764 Y225.104084 Z-0.125000 I-4163.781328 J1622.514305
G01 X475.209195 Y252.024446 Z-0.125000
G01 X485.872765 Y252.024446 Z-0.125000
G01 X496.536334 Y252.024446 Z-0.125000
G01 X496.536334 Y204.752223 Z-0.125000
G01 X496.536334 Y157.480001 Z-0.125000
G01 X487.223000 Y157.480001 Z-0.125000
G01 X477.909667 Y157.480001 Z-0.125000
G01 X477.909667 Y181.798150 Z-0.125000
G03 X477.804028 Y205.864030 Z-0.125000 I-2741.311970 J0.000000
G03 X477.698000 Y205.907884 Z-0.125000 I-0.062309 J-0.000547
G03 X477.538421 Y205.665376 Z-0.125000 I0.485908 J-0.493505
G03 X468.269351 Y181.660293 Z-0.125000 I5070.500355 J-1971.661651
G01 X459.052368 Y157.621112 Z-0.125000
G01 X454.494282 Y157.621112 Z-0.125000
G01 X449.936195 Y157.621112 Z-0.125000
G01 X440.710153 Y181.694213 Z-0.125000
G01 X431.484111 Y205.767315 Z-0.125000
G01 X431.343000 Y181.694213 Z-0.125000
G01 X431.201889 Y157.621112 Z-0.125000
G01 X421.818000 Y157.546752 Z-0.125000
G01 X412.434111 Y157.472392 Z-0.125000
G01 X412.434111 Y204.748419 Z-0.125000
G01 X412.434111 Y204.748419 Z-0.125000
G00 Z5.000000

(End cutting path id: path4628)


(Start cutting path id: path4628)
(Change tool to Default tool)

G00 Z5.000000
G00 X424.639234 Y203.123762

G01 Z-0.125000 F100.0(Penetrate)
G01 X424.710778 Y241.994192 Z-0.125000 F400.000000
G01 X439.527360 Y203.264873 Z-0.125000
G03 X454.390908 Y164.603807 Z-0.125000 I11735.603981 J4489.656741
G03 X454.490444 Y164.535557 Z-0.125000 I0.099535 J0.038456
G03 X454.589983 Y164.603805 Z-0.125000 I0.000000 J0.106713
G03 X469.448306 Y203.243520 Z-0.125000 I-11706.266228 J4523.645666
G01 X484.259667 Y241.951483 Z-0.125000
G01 X484.331210 Y203.092201 Z-0.125000
G01 X484.402782 Y164.232918 Z-0.125000
G01 X487.153433 Y164.313682 Z-0.125000
G01 X489.904112 Y164.394445 Z-0.125000
G01 X489.975627 Y204.822779 Z-0.125000
G01 X490.047142 Y245.251113 Z-0.125000
G01 X484.856003 Y245.251113 Z-0.125000
G01 X479.664835 Y245.251113 Z-0.125000
G01 X478.708920 Y242.781668 Z-0.125000
G03 X477.758008 Y240.310281 Z-0.125000 I604.108747 J-233.860721
G03 X466.189655 Y210.045084 Z-0.125000 I90758.822125 J-34708.300016
G02 X454.581092 Y179.844149 Z-0.125000 I-7419.854264 J2834.694413
G02 X454.485222 Y179.778921 Z-0.125000 I-0.095165 J0.036802
G02 X454.389368 Y179.845157 Z-0.125000 I0.000753 J0.103566
G02 X442.789905 Y210.046060 Z-0.125000 I7443.321564 J2876.134280
G03 X431.229393 Y240.309795 Z-0.125000 I-72786.577400 J-27786.560779
G03 X430.277329 Y242.781668 Z-0.125000 I-484.626289 J-185.238957
G01 X429.318959 Y245.251113 Z-0.125000
G01 X424.122090 Y245.251113 Z-0.125000
G01 X418.925222 Y245.251113 Z-0.125000
G01 X418.925222 Y204.940373 Z-0.125000
G03 X419.018770 Y164.668383 Z-0.125000 I8668.559838 J-0.000000
G03 X419.113380 Y164.441483 Z-0.125000 I0.322985 J0.001501
G03 X419.337333 Y164.339844 Z-0.125000 I0.247216 J0.247169
G03 X421.934586 Y164.253334 Z-0.125000 I2.597253 J38.944863
G01 X424.567663 Y164.253334 Z-0.125000
G01 X424.639234 Y203.123762 Z-0.125000
G01 X424.639234 Y203.123762 Z-0.125000
G00 Z5.000000

(End cutting path id: path4628)


(Start cutting path id: path4628)
(Change tool to Default tool)

G00 Z5.000000
G00 X386.751804 Y43.349559

G01 Z-0.125000 F100.0(Penetrate)
G01 X386.751804 Y50.856925 Z-0.125000 F400.000000
G01 X391.479026 Y50.749426 Z-0.125000
G02 X397.330509 Y49.925344 Z-0.125000 I-0.574632 J-25.266817
G02 X399.625060 Y48.607783 Z-0.125000 I-1.288358 J-4.900471
G02 X401.004412 Y46.427624 Z-0.125000 I-4.155626 J-4.155626
G02 X401.562290 Y43.180000 Z-0.125000 I-9.030227 J-3.222943
G02 X400.884899 Y39.775909 Z-0.125000 I-9.010567 J0.023597
G02 X399.248322 Y37.554747 Z-0.125000 I-5.264535 J2.165463
G02 X396.958226 Y36.451950 Z-0.125000 I-3.376603 J4.082702
G02 X391.075025 Y35.842222 Z-0.125000 I-5.883201 J28.078368
G01 X386.751804 Y35.842222 Z-0.125000
G01 X386.751804 Y43.349559 Z-0.125000
G01 X386.751804 Y43.349559 Z-0.125000
G00 Z5.000000

(End cutting path id: path4628)


(Start cutting path id: path4628)
(Change tool to Default tool)

G00 Z5.000000
G00 X381.954111 Y36.406667

G01 Z-0.125000 F100.0(Penetrate)
G01 X381.954111 Y55.597778 Z-0.125000 F400.000000
G01 X387.669111 Y55.594956 Z-0.125000
G02 X396.845655 Y55.076442 Z-0.125000 I-0.031708 J-82.022715
G02 X399.907932 Y54.212095 Z-0.125000 I-1.103323 J-9.765746
G02 X405.979928 Y47.386503 Z-0.125000 I-4.901209 J-10.473677
G02 X405.411463 Y37.657814 Z-0.125000 I-12.486904 J-4.151320
G02 X402.061451 Y33.460078 Z-0.125000 I-10.407621 J4.870211
G02 X397.405778 Y31.426940 Z-0.125000 I-6.315186 J8.114048
G03 X396.442292 Y31.173248 Z-0.125000 I0.844421 J-5.163409
G03 X396.347444 Y31.037248 Z-0.125000 I0.050079 J-0.136000
G03 X396.421759 Y30.850981 Z-0.125000 I0.270593 J0.000000
G03 X403.008905 Y24.017760 Z-0.125000 I439.575084 J417.153731
G01 X409.670365 Y17.214878 Z-0.125000
G01 X404.303656 Y17.214878 Z-0.125000
G01 X398.936974 Y17.214878 Z-0.125000
G01 X394.304212 Y22.012656 Z-0.125000
G03 X389.643165 Y26.743777 Z-0.125000 I-238.154964 J-229.965999
G03 X389.481655 Y26.810434 Z-0.125000 I-0.161510 J-0.162342
G03 X389.384901 Y26.717431 Z-0.125000 I0.000000 J-0.096830
G03 X389.291889 Y22.012656 Z-0.125000 I118.942619 J-4.704775
G01 X389.291889 Y17.214878 Z-0.125000
G01 X385.623000 Y17.214878 Z-0.125000
G01 X381.954111 Y17.214878 Z-0.125000
G01 X381.954111 Y36.405990 Z-0.125000
G01 X381.954111 Y36.406667 Z-0.125000
G00 Z5.000000

(End cutting path id: path4628)


(Start cutting path id: path4628)
(Change tool to Default tool)

G00 Z5.000000
G00 X386.759706 Y26.599445

G01 Z-0.125000 F100.0(Penetrate)
G01 X386.767608 Y33.443334 Z-0.125000 F400.000000
G01 X393.549973 Y26.599445 Z-0.125000
G01 X400.332366 Y19.755556 Z-0.125000
G01 X401.726600 Y19.755556 Z-0.125000
G03 X403.035901 Y19.840479 Z-0.125000 I-0.000000 J10.135510
G03 X403.120834 Y19.937194 Z-0.125000 I-0.012599 J0.096715
G03 X403.058130 Y20.093200 Z-0.125000 I-0.225420 J-0.000000
G03 X396.559167 Y26.781083 Z-0.125000 I-500.553692 J-479.912302
G01 X389.997501 Y33.443334 Z-0.125000
G01 X393.386961 Y33.603297 Z-0.125000
G03 X396.722393 Y33.986194 Z-0.125000 I-1.179260 J24.991555
G03 X398.466961 Y34.535251 Z-0.125000 I-1.339892 J7.303475
G03 X401.194858 Y36.357840 Z-0.125000 I-4.260707 J9.329803
G03 X403.054117 Y38.805556 Z-0.125000 I-6.134387 J6.589609
G03 X404.075934 Y42.480402 Z-0.125000 I-8.244441 J4.271911
G03 X403.552606 Y46.541295 Z-0.125000 I-10.678323 J0.688049
G03 X401.919825 Y49.418251 Z-0.125000 I-8.079401 J-2.683553
G03 X399.141529 Y51.655331 Z-0.125000 I-7.495754 J-6.465435
G01 X397.335279 Y52.634445 Z-0.125000
G01 X390.914723 Y52.724079 Z-0.125000
G01 X384.494167 Y52.813712 Z-0.125000
G01 X384.494167 Y36.284634 Z-0.125000
G01 X384.494167 Y19.755556 Z-0.125000
G01 X385.623056 Y19.755556 Z-0.125000
G01 X386.751945 Y19.755556 Z-0.125000
G01 X386.759847 Y26.599445 Z-0.125000
G01 X386.759706 Y26.599445 Z-0.125000
G00 Z5.000000

(End cutting path id: path4628)


(Start cutting path id: path4628)
(Change tool to Default tool)

G00 Z5.000000
G00 X396.174865 Y38.774257

G01 Z-0.125000 F100.0(Penetrate)
G03 X399.144694 Y43.338862 Z-0.125000 I-1.864006 J4.461181 F400.000000
G03 X395.981120 Y47.829865 Z-0.125000 I-4.918901 J-0.105244
G03 X394.766080 Y48.114659 Z-0.125000 I-1.659213 J-4.344541
G03 X392.113716 Y48.200959 Z-0.125000 I-2.008803 J-20.936485
G01 X389.432915 Y48.118889 Z-0.125000
G01 X389.355699 Y43.250556 Z-0.125000
G01 X389.278483 Y38.382222 Z-0.125000
G01 X392.257536 Y38.382222 Z-0.125000
G03 X395.207079 Y38.529440 Z-0.125000 I-0.000000 J29.621107
G03 X396.174865 Y38.774257 Z-0.125000 I-0.336989 J3.367432
G01 X396.174865 Y38.774257 Z-0.125000
G00 Z5.000000

(End cutting path id: path4628)


(Start cutting path id: path4628)
(Change tool to Default tool)

G00 Z5.000000
G00 X410.809273 Y36.336111

G01 Z-0.125000 F100.0(Penetrate)
G01 X410.881804 Y55.456667 Z-0.125000 F400.000000
G01 X414.621249 Y55.535407 Z-0.125000
G01 X418.360693 Y55.614175 Z-0.125000
G01 X418.360693 Y36.414851 Z-0.125000
G01 X418.360693 Y17.215556 Z-0.125000
G01 X414.548718 Y17.215556 Z-0.125000
G01 X410.736742 Y17.215556 Z-0.125000
G01 X410.809273 Y36.336111 Z-0.125000
G01 X410.809273 Y36.336111 Z-0.125000
G00 Z5.000000

(End cutting path id: path4628)


(Start cutting path id: path4628)
(Change tool to Default tool)

G00 Z5.000000
G00 X415.820693 Y36.265556

G01 Z-0.125000 F100.0(Penetrate)
G01 X415.820693 Y52.775556 Z-0.125000 F400.000000
G01 X414.691804 Y52.775556 Z-0.125000
G01 X413.562915 Y52.775556 Z-0.125000
G01 X413.562915 Y36.265556 Z-0.125000
G01 X413.562915 Y19.755556 Z-0.125000
G01 X414.691804 Y19.755556 Z-0.125000
G01 X415.820693 Y19.755556 Z-0.125000
G01 X415.820693 Y36.265556 Z-0.125000
G01 X415.820693 Y36.265556 Z-0.125000
G00 Z5.000000

(End cutting path id: path4628)


(Start cutting path id: path4628)
(Change tool to Default tool)

G00 Z5.000000
G00 X368.136511 Y39.032096

G01 Z-0.125000 F100.0(Penetrate)
G03 X370.667629 Y42.759668 Z-0.125000 I-2.246808 J4.248775 F400.000000
G03 X368.997543 Y46.925117 Z-0.125000 I-4.740028 J0.517068
G03 X367.146518 Y47.850662 Z-0.125000 I-2.851183 J-3.388433
G03 X363.468555 Y48.206971 Z-0.125000 I-3.188634 J-13.753517
G01 X360.928555 Y48.118889 Z-0.125000
G01 X360.851339 Y43.250556 Z-0.125000
G01 X360.774123 Y38.382222 Z-0.125000
G01 X363.840835 Y38.382222 Z-0.125000
G03 X366.851379 Y38.608658 Z-0.125000 I0.000000 J20.126378
G03 X368.136511 Y39.032096 Z-0.125000 I-0.604714 J3.997209
G01 X368.136511 Y39.032096 Z-0.125000
G00 Z5.000000

(End cutting path id: path4628)


(Start cutting path id: path4628)
(Change tool to Default tool)

G00 Z5.000000
G00 X358.247444 Y43.349559

G01 Z-0.125000 F100.0(Penetrate)
G01 X358.247444 Y50.856925 Z-0.125000 F400.000000
G01 X362.974666 Y50.749426 Z-0.125000
G02 X368.826149 Y49.925344 Z-0.125000 I-0.574632 J-25.266817
G02 X371.120700 Y48.607783 Z-0.125000 I-1.288358 J-4.900471
G02 X372.500052 Y46.427624 Z-0.125000 I-4.155626 J-4.155626
G02 X373.057930 Y43.180000 Z-0.125000 I-9.030227 J-3.222943
G02 X372.380539 Y39.775909 Z-0.125000 I-9.010567 J0.023597
G02 X370.743962 Y37.554747 Z-0.125000 I-5.264535 J2.165463
G02 X368.453866 Y36.451950 Z-0.125000 I-3.376603 J4.082702
G02 X362.570665 Y35.842222 Z-0.125000 I-5.883201 J28.078368
G01 X358.247444 Y35.842222 Z-0.125000
G01 X358.247444 Y43.349559 Z-0.125000
G01 X358.247444 Y43.349559 Z-0.125000
G00 Z5.000000

(End cutting path id: path4628)


(Start cutting path id: path4628)
(Change tool to Default tool)

G00 Z5.000000
G00 X353.449666 Y36.406667

G01 Z-0.125000 F100.0(Penetrate)
G01 X353.449666 Y55.597778 Z-0.125000 F400.000000
G01 X359.164666 Y55.594956 Z-0.125000
G02 X364.874169 Y55.497302 Z-0.125000 I0.000000 J-166.956659
G02 X367.248245 Y55.320495 Z-0.125000 I-1.014562 J-29.650359
G02 X374.378617 Y52.063403 Z-0.125000 I-1.449258 J-12.606086
G02 X378.023489 Y45.431992 Z-0.125000 I-7.994627 J-8.711532
G02 X377.032764 Y37.721593 Z-0.125000 I-12.756580 J-2.279730
G02 X372.105769 Y32.610919 Z-0.125000 I-9.811573 J4.528648
G02 X368.902069 Y31.508763 Z-0.125000 I-5.578953 J11.009401
G02 X364.114816 Y31.043767 Z-0.125000 I-4.787253 J24.410487
G01 X360.787444 Y31.043767 Z-0.125000
G01 X360.787444 Y24.129323 Z-0.125000
G01 X360.787444 Y17.214878 Z-0.125000
G01 X357.118555 Y17.214878 Z-0.125000
G01 X353.449666 Y17.214878 Z-0.125000
G01 X353.449666 Y36.405990 Z-0.125000
G01 X353.449666 Y36.406667 Z-0.125000
G00 Z5.000000

(End cutting path id: path4628)


(Start cutting path id: path4628)
(Change tool to Default tool)

G00 Z5.000000
G00 X358.247444 Y26.670000

G01 Z-0.125000 F100.0(Penetrate)
G01 X358.247444 Y33.584445 Z-0.125000 F400.000000
G01 X362.562594 Y33.584445 Z-0.125000
G03 X369.808890 Y34.722361 Z-0.125000 I0.000000 J23.641306
G03 X373.393041 Y37.071949 Z-0.125000 I-2.473630 J7.681861
G03 X374.868906 Y39.647767 Z-0.125000 I-5.567476 J4.900717
G03 X375.463000 Y43.342927 Z-0.125000 I-11.194584 J3.695160
G03 X374.027033 Y48.473307 Z-0.125000 I-9.882820 J-0.000000
G03 X370.241889 Y51.939162 Z-0.125000 I-7.838744 J-4.761032
G03 X368.765280 Y52.361923 Z-0.125000 I-1.906850 J-3.870084
G03 X362.410222 Y52.724079 Z-0.125000 I-7.389557 J-73.731129
G01 X355.989666 Y52.813712 Z-0.125000
G01 X355.989666 Y36.284634 Z-0.125000
G01 X355.989666 Y19.755556 Z-0.125000
G01 X357.118555 Y19.755556 Z-0.125000
G01 X358.247444 Y19.755556 Z-0.125000
G01 X358.247444 Y26.670000 Z-0.125000
G01 X358.247444 Y26.670000 Z-0.125000
G00 Z5.000000

(End cutting path id: path4628)


(Start cutting path id: path4628)
(Change tool to Default tool)

G00 Z5.000000
G00 X339.067622 Y39.032096

G01 Z-0.125000 F100.0(Penetrate)
G03 X341.598740 Y42.759668 Z-0.125000 I-2.246808 J4.248775 F400.000000
G03 X339.928654 Y46.925117 Z-0.125000 I-4.740028 J0.517068
G03 X338.077629 Y47.850662 Z-0.125000 I-2.851183 J-3.388433
G03 X334.399666 Y48.206971 Z-0.125000 I-3.188634 J-13.753517
G01 X331.859666 Y48.118889 Z-0.125000
G01 X331.781632 Y43.614651 Z-0.125000
G03 X331.771119 Y39.122387 Z-0.125000 I149.982823 J-2.597135
G03 X331.843354 Y38.746317 Z-0.125000 I1.086538 J0.013728
G03 X332.097432 Y38.548601 Z-0.125000 I0.290788 J0.111570
G03 X334.910855 Y38.382222 Z-0.125000 I2.813423 J23.703931
G03 X337.783286 Y38.605407 Z-0.125000 I0.000000 J18.595978
G03 X339.067622 Y39.032096 Z-0.125000 I-0.633821 J4.054081
G01 X339.067622 Y39.032096 Z-0.125000
G00 Z5.000000

(End cutting path id: path4628)


(Start cutting path id: path4628)
(Change tool to Default tool)

G00 Z5.000000
G00 X256.082999 Y202.208419

G01 Z-0.125000 F100.0(Penetrate)
G01 X256.082999 Y240.163504 Z-0.125000 F400.000000
G01 X265.466888 Y240.237864 Z-0.125000
G01 X274.850777 Y240.312224 Z-0.125000
G01 X274.931916 Y242.922779 Z-0.125000
G01 X275.013083 Y245.533335 Z-0.125000
G01 X253.412471 Y245.533335 Z-0.125000
G01 X231.811888 Y245.533335 Z-0.125000
G01 X231.811888 Y242.852224 Z-0.125000
G01 X231.811888 Y240.171113 Z-0.125000
G01 X241.266332 Y240.171113 Z-0.125000
G01 X250.720777 Y240.171113 Z-0.125000
G01 X250.720777 Y202.212223 Z-0.125000
G01 X250.720777 Y164.253334 Z-0.125000
G01 X253.401888 Y164.253334 Z-0.125000
G01 X256.082999 Y164.253334 Z-0.125000
G01 X256.082999 Y202.208419 Z-0.125000
G01 X256.082999 Y202.208419 Z-0.125000
G00 Z5.000000

(End cutting path id: path4628)


(Start cutting path id: path4628)
(Change tool to Default tool)

G00 Z5.000000
G00 X243.947443 Y195.580001

G01 Z-0.125000 F100.0(Penetrate)
G01 X243.947443 Y233.680001 Z-0.125000 F400.000000
G01 X234.634110 Y233.680001 Z-0.125000
G01 X225.320777 Y233.680001 Z-0.125000
G01 X225.320777 Y242.852224 Z-0.125000
G01 X225.320777 Y252.024446 Z-0.125000
G01 X253.401888 Y252.024446 Z-0.125000
G01 X281.482999 Y252.024446 Z-0.125000
G01 X281.482999 Y242.852224 Z-0.125000
G01 X281.482999 Y233.680001 Z-0.125000
G01 X272.169666 Y233.680001 Z-0.125000
G01 X262.856332 Y233.680001 Z-0.125000
G01 X262.856332 Y195.580001 Z-0.125000
G01 X262.856332 Y157.480001 Z-0.125000
G01 X253.401888 Y157.480001 Z-0.125000
G01 X243.947443 Y157.480001 Z-0.125000
G01 X243.947443 Y195.580001 Z-0.125000
G01 X243.947443 Y195.580001 Z-0.125000
G00 Z5.000000

(End cutting path id: path4628)


(Start cutting path id: path4628)
(Change tool to Default tool)

G00 Z5.000000
G00 X90.480919 Y121.981723

G01 Z-0.125000 F100.0(Penetrate)
G01 X90.559668 Y125.712305 Z-0.125000 F400.000000
G01 X114.971890 Y139.747753 Z-0.125000
G02 X139.386580 Y153.778842 Z-0.125000 I39652.502545 J-68968.811981
G02 X140.442446 Y154.379646 Z-0.125000 I73.692427 J-128.280490
G01 X141.500779 Y154.976117 Z-0.125000
G01 X141.500779 Y151.939363 Z-0.125000
G01 X141.500779 Y148.902610 Z-0.125000
G01 X140.583557 Y149.770773 Z-0.125000
G03 X138.263016 Y151.052821 Z-0.125000 I-3.637795 J-3.843363
G03 X136.411542 Y150.843001 Z-0.125000 I-0.650700 J-2.531861
G03 X134.886483 Y148.610803 Z-0.125000 I1.309049 J-2.531421
G03 X135.873804 Y145.749756 Z-0.125000 I3.552225 J-0.375041
G01 X136.758294 Y144.837190 Z-0.125000
G01 X134.825648 Y143.720970 Z-0.125000
G02 X132.889342 Y142.611314 Z-0.125000 I-165.773953 J287.024700
G02 X132.331520 Y142.302776 Z-0.125000 I-13.360186 J23.495995
G02 X131.811590 Y142.308629 Z-0.125000 I-0.254667 J0.473514
G02 X130.165250 Y143.531512 Z-0.125000 I4.126569 J7.275166
G03 X128.444735 Y144.773233 Z-0.125000 I-5.376180 J-5.636354
G03 X127.285246 Y145.062223 Z-0.125000 I-1.159489 J-2.181560
G03 X125.321655 Y144.290114 Z-0.125000 I0.000000 J-2.882909
G03 X124.358576 Y142.339662 Z-0.125000 I2.087065 J-2.243532
G03 X124.499231 Y141.009777 Z-0.125000 I3.331046 J-0.320072
G03 X125.137935 Y139.877349 Z-0.125000 I3.015535 J0.954468
G02 X125.956571 Y138.839395 Z-0.125000 I-9.427448 J-8.277240
G02 X125.945559 Y138.734265 Z-0.125000 I-0.065503 J-0.046281
G02 X122.852438 Y136.475324 Z-0.125000 I-11.216959 J12.112008
G02 X121.163964 Y136.031112 Z-0.125000 I-1.688474 J2.986885
G02 X120.957592 Y136.116292 Z-0.125000 I0.000000 J0.292587
G02 X120.438803 Y136.752641 Z-0.125000 I2.791228 J2.805222
G03 X118.573925 Y138.573778 Z-0.125000 I-5.058133 J-3.314219
G03 X116.606614 Y139.135556 Z-0.125000 I-1.967310 J-3.163806
G03 X113.907183 Y137.208465 Z-0.125000 I0.000000 J-2.854201
G03 X114.709491 Y133.611762 Z-0.125000 I3.332373 J-1.144491
G01 X115.596340 Y132.696769 Z-0.125000
G01 X114.931337 Y132.282241 Z-0.125000
G02 X114.261132 Y131.876374 Z-0.125000 I-16.032820 J25.718595
G02 X112.458647 Y130.828148 Z-0.125000 I-108.952250 J185.275690
G01 X110.650960 Y129.788610 Z-0.125000
G01 X109.354203 Y131.042778 Z-0.125000
G03 X107.262914 Y132.571963 Z-0.125000 I-6.577771 J-6.801053
G03 X105.856281 Y132.926667 Z-0.125000 I-1.406632 J-2.611753
G03 X104.218729 Y132.371208 Z-0.125000 I0.000000 J-2.691567
G03 X103.126479 Y130.833990 Z-0.125000 I1.947505 J-2.540425
G03 X103.105498 Y129.213870 Z-0.125000 I2.555153 J-0.843285
G03 X104.114922 Y127.556120 Z-0.125000 I3.696624 J1.114718
G01 X105.067151 Y126.633197 Z-0.125000
G01 X102.611189 Y125.155933 Z-0.125000
G01 X100.155223 Y123.678668 Z-0.125000
G01 X99.308557 Y124.626709 Z-0.125000
G03 X95.781831 Y126.728570 Z-0.125000 I-5.108900 J-4.562568
G03 X93.353668 Y126.040445 Z-0.125000 I-0.597886 J-2.518412
G03 X92.507582 Y123.952542 Z-0.125000 I2.043492 J-2.043471
G03 X93.421469 Y121.631118 Z-0.125000 I3.543761 J0.054491
G02 X94.350414 Y120.501028 Z-0.125000 I-11.626623 J-10.504044
G02 X94.338691 Y120.402605 Z-0.125000 I-0.057652 J-0.043043
G02 X91.640698 Y118.541871 Z-0.125000 I-11.790075 J14.208800
G02 X90.536356 Y118.251112 Z-0.125000 I-1.104342 J1.951837
G02 X90.469474 Y118.317008 Z-0.125000 I0.000000 J0.066890
G02 X90.480919 Y121.981723 Z-0.125000 I101.896717 J1.514142
G01 X90.480919 Y121.981723 Z-0.125000
G00 Z5.000000

(End cutting path id: path4628)


(Start cutting path id: path4628)
(Change tool to Default tool)

G00 Z5.000000
G00 X85.197445 Y132.144009

G01 Z-0.125000 F100.0(Penetrate)
G03 X83.221451 Y133.265349 Z-0.125000 I-1430.906020 J-2519.203875 F400.000000
G03 X75.239102 Y137.790034 Z-0.125000 I-23531.520623 J-41504.278441
G02 X67.764248 Y142.335932 Z-0.125000 I69.997200 J123.515332
G02 X67.760213 Y142.660235 Z-0.125000 I0.106471 J0.163502
G02 X71.335831 Y144.906894 Z-0.125000 I29.099967 J-42.344721
G02 X118.114623 Y171.483382 Z-0.125000 I4143.267929 J-7238.344801
G02 X118.293763 Y171.484476 Z-0.125000 I0.090553 J-0.160592
G02 X127.004624 Y166.612627 Z-0.125000 I-274.970974 J-501.871335
G03 X135.733183 Y161.674711 Z-0.125000 I648.651426 J1136.411945
G03 X136.914668 Y161.056344 Z-0.125000 I11.315037 J20.181208
G02 X138.043929 Y160.431724 Z-0.125000 I-5.450014 J-11.186301
G02 X138.102265 Y160.316540 Z-0.125000 I-0.065855 J-0.105717
G02 X137.487318 Y159.340363 Z-0.125000 I-1.231303 J0.093881
G02 X88.774587 Y131.903725 Z-0.125000 I-1447.200037 J2512.487795
G01 X87.173001 Y131.021865 Z-0.125000
G01 X85.197445 Y132.144009 Z-0.125000
G01 X85.197445 Y132.144009 Z-0.125000
G00 Z5.000000

(End cutting path id: path4628)


(Start cutting path id: path4628)
(Change tool to Default tool)

G00 Z5.000000
G00 X73.908556 Y123.841793

G01 Z-0.125000 F100.0(Penetrate)
G01 X64.030779 Y129.406312 Z-0.125000 F400.000000
G01 X63.952030 Y133.142031 Z-0.125000
G02 X63.961196 Y136.791622 Z-0.125000 I77.353828 J1.630526
G02 X64.049631 Y136.877779 Z-0.125000 I0.088435 J-0.002309
G02 X64.214717 Y136.835087 Z-0.125000 I-0.000000 J-0.340539
G02 X71.889491 Y132.532403 Z-0.125000 I-439.322502 J-792.623372
G03 X79.555506 Y128.191492 Z-0.125000 I3754.247756 J6621.033831
G03 X81.810779 Y126.922023 Z-0.125000 I322.959312 J571.114330
G01 X84.068556 Y125.657018 Z-0.125000
G01 X84.147305 Y121.954065 Z-0.125000
G02 X84.116871 Y118.364570 Z-0.125000 I-60.343792 J-1.283238
G02 X84.006194 Y118.264207 Z-0.125000 I-0.104466 J0.003995
G02 X83.800068 Y118.323810 Z-0.125000 I0.028232 J0.483864
G02 X73.908556 Y123.841793 Z-0.125000 I656.171479 J1187.874688
G01 X73.908556 Y123.841793 Z-0.125000
G00 Z5.000000

(End cutting path id: path4628)


(Start cutting path id: path4628)
(Change tool to Default tool)

G00 Z5.000000
G00 X99.832965 Y92.427694

G01 Z-0.125000 F100.0(Penetrate)
G03 X100.792549 Y93.734310 Z-0.125000 I-0.732507 J1.543625 F400.000000
G03 X101.707445 Y105.810333 Z-0.125000 I-94.433079 J13.227053
G01 X101.848557 Y117.499582 Z-0.125000
G01 X103.884440 Y118.701792 Z-0.125000
G01 X105.920320 Y119.904003 Z-0.125000
G01 X106.001107 Y109.934616 Z-0.125000
G03 X106.341174 Y100.065285 Z-0.125000 I187.468323 J1.519065
G03 X106.646334 Y99.332543 Z-0.125000 I1.208970 J0.073576
G03 X109.243939 Y98.142301 Z-0.125000 I2.658095 J2.371425
G03 X111.572385 Y99.248892 Z-0.125000 I0.049242 J2.899395
G03 X111.880281 Y100.076044 Z-0.125000 I-1.136400 J0.893891
G03 X112.149668 Y111.741910 Z-0.125000 I-252.462430 J11.665866
G01 X112.149668 Y123.501038 Z-0.125000
G01 X114.232496 Y124.686061 Z-0.125000
G02 X116.326038 Y125.830630 Z-0.125000 I34.753239 J-61.080529
G02 X116.490274 Y125.871112 Z-0.125000 I0.164236 J-0.312912
G02 X116.578529 Y125.784415 Z-0.125000 I0.000000 J-0.088270
G02 X116.665223 Y116.056128 Z-0.125000 I-545.782874 J-9.728287
G03 X117.411162 Y105.893025 Z-0.125000 I69.606966 J0.000000
G03 X118.361672 Y104.561725 Z-0.125000 I1.774362 J0.261876
G03 X119.628438 Y104.259419 Z-0.125000 I1.243170 J2.404067
G03 X121.045764 Y104.585150 Z-0.125000 I-0.029420 J3.374429
G03 X122.055832 Y105.970199 Z-0.125000 I-0.769798 J1.622216
G03 X122.874112 Y118.306371 Z-0.125000 I-92.579304 J12.336172
G01 X122.874112 Y129.706314 Z-0.125000
G01 X124.920223 Y130.876041 Z-0.125000
G01 X126.966334 Y132.045739 Z-0.125000
G01 X127.107446 Y122.114536 Z-0.125000
G03 X128.034666 Y111.803486 Z-0.125000 I68.640949 J0.975317
G03 X129.050430 Y110.457404 Z-0.125000 I1.796630 J0.299458
G03 X131.010946 Y110.263240 Z-0.125000 I1.250963 J2.636285
G03 X132.736749 Y111.381512 Z-0.125000 I-0.773098 J3.083935
G03 X133.045889 Y112.211971 Z-0.125000 I-1.141047 J0.897526
G03 X133.316334 Y123.913844 Z-0.125000 I-253.028449 J11.701873
G01 X133.316334 Y135.709350 Z-0.125000
G01 X135.397190 Y136.857995 Z-0.125000
G02 X137.488340 Y137.966718 Z-0.125000 I33.868295 J-61.352205
G02 X137.654968 Y138.006667 Z-0.125000 I0.166628 J-0.327522
G02 X137.744223 Y137.919000 Z-0.125000 I0.000000 J-0.089270
G02 X137.831890 Y128.150536 Z-0.125000 I-544.190759 J-9.768464
G01 X137.831890 Y118.294405 Z-0.125000
G01 X138.554458 Y117.435687 Z-0.125000
G03 X140.249252 Y116.423411 Z-0.125000 I2.311364 J1.944897
G03 X142.253333 Y116.664458 Z-0.125000 I0.644653 J3.091864
G03 X143.238507 Y118.023056 Z-0.125000 I-0.755540 J1.584366
G03 X144.041067 Y130.448164 Z-0.125000 I-95.818422 J12.427557
G01 X144.041349 Y141.816667 Z-0.125000
G01 X145.444586 Y142.604793 Z-0.125000
G03 X146.787475 Y144.416715 Z-0.125000 I-1.350479 J2.404490
G03 X147.709668 Y152.900147 Z-0.125000 I-38.559264 J8.483432
G03 X147.528372 Y161.132401 Z-0.125000 I-186.995445 J0.000000
G03 X147.311356 Y161.939016 Z-0.125000 I-1.922410 J-0.084714
G03 X146.756684 Y162.547188 Z-0.125000 I-1.430541 J-0.747675
G03 X142.019690 Y165.357402 Z-0.125000 I-39.216621 J-60.707370
G02 X137.146486 Y168.049815 Z-0.125000 I178.754027 J329.296893
G02 X128.236334 Y173.106835 Z-0.125000 I621.803016 J1105.956070
G03 X119.278672 Y177.939895 Z-0.125000 I-99.301617 J-173.329338
G03 X118.217446 Y178.187292 Z-0.125000 I-1.035499 J-2.042052
G03 X117.161163 Y177.908293 Z-0.125000 I0.025132 J-2.234176
G03 X87.878556 Y161.406745 Z-0.125000 I1023.578019 J-1850.609376
G03 X58.893848 Y144.426262 Z-0.125000 I947.170581 J-1649.993578
G03 X58.175105 Y143.651112 Z-0.125000 I0.966640 J-1.617095
G03 X57.898670 Y142.612138 Z-0.125000 I2.382384 J-1.190131
G03 X57.681216 Y134.963719 Z-0.125000 I134.669551 J-7.656128
G03 X57.850868 Y127.298199 Z-0.125000 I172.886409 J-0.008354
G03 X58.063212 Y126.348801 Z-0.125000 I2.779509 J0.123226
G03 X58.655566 Y125.619722 Z-0.125000 I1.533459 J0.640712
G03 X63.848768 Y122.373870 Z-0.125000 I39.999020 J58.219105
G01 X69.251890 Y119.314215 Z-0.125000
G01 X69.251890 Y114.305165 Z-0.125000
G03 X69.498730 Y109.381557 Z-0.125000 I49.227891 J-0.000000
G03 X69.829172 Y108.562225 Z-0.125000 I1.573057 J0.158125
G03 X71.199942 Y107.580808 Z-0.125000 I2.373235 J1.866755
G03 X73.000769 Y107.445895 Z-0.125000 I1.150314 J3.268236
G03 X73.649033 Y107.704578 Z-0.125000 I-0.345764 J1.808115
G03 X74.517504 Y108.418998 Z-0.125000 I-2.579599 J4.020925
G03 X75.029566 Y109.377063 Z-0.125000 I-1.450751 J1.391265
G03 X75.414508 Y112.483280 Z-0.125000 I-16.294794 J3.596313
G02 X75.565919 Y115.652858 Z-0.125000 I86.384719 J-2.538191
G02 X75.628156 Y115.711112 Z-0.125000 I0.062237 J-0.004119
G02 X75.739381 Y115.682418 Z-0.125000 I0.000000 J-0.229915
G02 X80.048871 Y113.267547 Z-0.125000 I-205.597747 J-371.954930
G03 X84.374589 Y110.870396 Z-0.125000 I115.857175 J203.965654
G03 X85.824134 Y110.146226 Z-0.125000 I11.974103 J22.155270
G01 X87.297486 Y109.468441 Z-0.125000
G01 X88.522240 Y110.010223 Z-0.125000
G03 X89.724120 Y110.597011 Z-0.125000 I-7.175054 J16.220460
G03 X92.504009 Y112.143766 Z-0.125000 I-47.386339 J88.436002
G02 X95.268715 Y113.706866 Z-0.125000 I87.909230 J-152.261417
G02 X95.379792 Y113.735556 Z-0.125000 I0.111077 J-0.200674
G02 X95.439533 Y113.676533 Z-0.125000 I0.000000 J-0.059746
G02 X95.498556 Y103.920573 Z-0.125000 I-806.251852 J-9.755960
G03 X96.291876 Y93.713334 Z-0.125000 I66.062316 J0.000000
G03 X97.298654 Y92.409970 Z-0.125000 I1.688999 J0.264138
G03 X98.596166 Y92.144594 Z-0.125000 I1.275096 J2.929701
G03 X99.832965 Y92.427750 Z-0.125000 I-0.020574 J2.932556
G01 X99.832965 Y92.427694 Z-0.125000
G00 Z5.000000

(End cutting path id: path4628)


(Start cutting path id: path4628)
(Change tool to Default tool)

G00 Z5.000000
G00 X66.994112 Y66.849357

G01 Z-0.125000 F100.0(Penetrate)
G01 X28.470778 Y89.107406 Z-0.125000 F400.000000
G01 X28.470778 Y133.806467 Z-0.125000
G01 X28.470778 Y178.505557 Z-0.125000
G01 X66.994112 Y200.730331 Z-0.125000
G02 X105.536216 Y222.884499 Z-0.125000 I6999.960937 J-12133.386081
G02 X105.799668 Y222.954089 Z-0.125000 I0.261557 J-0.456712
G02 X106.063117 Y222.883469 Z-0.125000 I-0.001942 J-0.533953
G02 X144.605223 Y200.726710 Z-0.125000 I-7050.102775 J-12308.389507
G01 X183.128557 Y178.500350 Z-0.125000
G01 X183.128557 Y133.809374 Z-0.125000
G01 X183.128557 Y89.118412 Z-0.125000
G01 X144.605223 Y66.857824 Z-0.125000
G02 X106.063077 Y44.665929 Z-0.125000 I-7180.554239 J12426.383110
G02 X105.799668 Y44.594244 Z-0.125000 I-0.269112 J0.469063
G02 X105.536242 Y44.661869 Z-0.125000 I-0.009286 J0.510716
G02 X66.994112 Y66.849357 Z-0.125000 I6979.145801 J12168.120495
G01 X66.994112 Y66.849357 Z-0.125000
G00 Z5.000000

(End cutting path id: path4628)


(Footer)
M5
G00 X0.0000 Y0.0000
M2
(Using default footer. To add your own footer create file "footer" in the output dir.)
(end)
%