%
(Header)
(Generated by gcodetools from Inkscape.)
(Using default header. To add your own header create file "header" in the output dir.)
M3
(Header end.)
G21 (All units in mm)

(Start cutting path id: path9302)
(Change tool to Default tool)

G00 Z5.000000
G00 X111.726334 Y134.966231

G01 Z-0.125000 F100.0(Penetrate)
G03 X109.750340 Y136.087571 Z-0.125000 I-1430.906020 J-2519.203875 F400.000000
G03 X101.767991 Y140.612256 Z-0.125000 I-23531.520626 J-41504.278443
G02 X94.293137 Y145.158154 Z-0.125000 I69.997200 J123.515332
G02 X94.289102 Y145.482458 Z-0.125000 I0.106471 J0.163502
G02 X97.864720 Y147.729116 Z-0.125000 I29.099967 J-42.344721
G02 X144.643513 Y174.305604 Z-0.125000 I4143.267929 J-7238.344801
G02 X144.822652 Y174.306698 Z-0.125000 I0.090553 J-0.160592
G02 X153.533513 Y169.434850 Z-0.125000 I-274.970974 J-501.871335
G03 X162.262073 Y164.496933 Z-0.125000 I648.651426 J1136.411945
G03 X163.443557 Y163.878566 Z-0.125000 I11.315037 J20.181208
G02 X164.572818 Y163.253947 Z-0.125000 I-5.450014 J-11.186301
G02 X164.631154 Y163.138763 Z-0.125000 I-0.065855 J-0.105717
G02 X164.016207 Y162.162585 Z-0.125000 I-1.231303 J0.093881
G02 X115.303476 Y134.725947 Z-0.125000 I-1447.200037 J2512.487795
G01 X113.701890 Y133.844087 Z-0.125000
G01 X111.726334 Y134.966231 Z-0.125000
G01 X111.726334 Y134.966231 Z-0.125000
G00 Z5.000000

(End cutting path id: path9302)


(Start cutting path id: path9302)
(Change tool to Default tool)

G00 Z5.000000
G00 X117.009808 Y124.803945

G01 Z-0.125000 F100.0(Penetrate)
G01 X117.088557 Y128.534528 Z-0.125000 F400.000000
G01 X141.500779 Y142.569975 Z-0.125000
G02 X165.915469 Y156.601064 Z-0.125000 I39652.503725 J-68968.811305
G02 X166.971335 Y157.201868 Z-0.125000 I73.692427 J-128.280490
G01 X168.029668 Y157.798339 Z-0.125000
G01 X168.029668 Y154.761586 Z-0.125000
G01 X168.029668 Y151.724832 Z-0.125000
G01 X167.112446 Y152.592996 Z-0.125000
G03 X164.791905 Y153.875043 Z-0.125000 I-3.637795 J-3.843363
G03 X162.940431 Y153.665223 Z-0.125000 I-0.650700 J-2.531861
G03 X161.415372 Y151.433025 Z-0.125000 I1.309049 J-2.531421
G03 X162.402693 Y148.571978 Z-0.125000 I3.552225 J-0.375041
G01 X163.287183 Y147.659413 Z-0.125000
G01 X161.354537 Y146.543193 Z-0.125000
G02 X159.418231 Y145.433537 Z-0.125000 I-165.773953 J287.024700
G02 X158.860409 Y145.124998 Z-0.125000 I-13.360186 J23.495995
G02 X158.340479 Y145.130851 Z-0.125000 I-0.254667 J0.473514
G02 X156.694139 Y146.353734 Z-0.125000 I4.126569 J7.275166
G03 X154.973624 Y147.595455 Z-0.125000 I-5.376180 J-5.636354
G03 X153.814135 Y147.884445 Z-0.125000 I-1.159489 J-2.181560
G03 X151.850544 Y147.112336 Z-0.125000 I0.000000 J-2.882909
G03 X150.887465 Y145.161884 Z-0.125000 I2.087065 J-2.243532
G03 X151.028120 Y143.831999 Z-0.125000 I3.331046 J-0.320072
G03 X151.666824 Y142.699571 Z-0.125000 I3.015535 J0.954468
G02 X152.485460 Y141.661617 Z-0.125000 I-9.427448 J-8.277240
G02 X152.474448 Y141.556487 Z-0.125000 I-0.065503 J-0.046281
G02 X149.381327 Y139.297546 Z-0.125000 I-11.216959 J12.112008
G02 X147.692853 Y138.853334 Z-0.125000 I-1.688474 J2.986885
G02 X147.486481 Y138.938514 Z-0.125000 I0.000000 J0.292587
G02 X146.967692 Y139.574863 Z-0.125000 I2.791228 J2.805222
G03 X145.102814 Y141.396000 Z-0.125000 I-5.058133 J-3.314219
G03 X143.135503 Y141.957779 Z-0.125000 I-1.967310 J-3.163806
G03 X140.436072 Y140.030687 Z-0.125000 I0.000000 J-2.854201
G03 X141.238380 Y136.433984 Z-0.125000 I3.332373 J-1.144491
G01 X142.125230 Y135.518991 Z-0.125000
G01 X141.460226 Y135.104463 Z-0.125000
G02 X140.790021 Y134.698596 Z-0.125000 I-16.032820 J25.718595
G02 X138.987536 Y133.650370 Z-0.125000 I-108.952250 J185.275690
G01 X137.179849 Y132.610833 Z-0.125000
G01 X135.883092 Y133.865000 Z-0.125000
G03 X133.791803 Y135.394186 Z-0.125000 I-6.577771 J-6.801053
G03 X132.385170 Y135.748890 Z-0.125000 I-1.406632 J-2.611753
G03 X130.747618 Y135.193430 Z-0.125000 I-0.000000 J-2.691567
G03 X129.655368 Y133.656212 Z-0.125000 I1.947505 J-2.540425
G03 X129.634387 Y132.036093 Z-0.125000 I2.555153 J-0.843285
G03 X130.643811 Y130.378342 Z-0.125000 I3.696624 J1.114718
G01 X131.596040 Y129.455419 Z-0.125000
G01 X129.140078 Y127.978155 Z-0.125000
G01 X126.684112 Y126.500891 Z-0.125000
G01 X125.837446 Y127.448932 Z-0.125000
G03 X122.310720 Y129.550792 Z-0.125000 I-5.108900 J-4.562568
G03 X119.882557 Y128.862667 Z-0.125000 I-0.597886 J-2.518412
G03 X119.036471 Y126.774764 Z-0.125000 I2.043492 J-2.043471
G03 X119.950358 Y124.453340 Z-0.125000 I3.543761 J0.054491
G02 X120.879303 Y123.323250 Z-0.125000 I-11.626623 J-10.504044
G02 X120.867580 Y123.224827 Z-0.125000 I-0.057652 J-0.043043
G02 X118.169587 Y121.364094 Z-0.125000 I-11.790075 J14.208800
G02 X117.065245 Y121.073334 Z-0.125000 I-1.104342 J1.951837
G02 X116.998363 Y121.139230 Z-0.125000 I0.000000 J0.066890
G02 X117.009808 Y124.803945 Z-0.125000 I101.896717 J1.514142
G01 X117.009808 Y124.803945 Z-0.125000
G00 Z5.000000

(End cutting path id: path9302)


(Start cutting path id: path9302)
(Change tool to Default tool)

G00 Z5.000000
G00 X100.437445 Y126.664015

G01 Z-0.125000 F100.0(Penetrate)
G01 X90.559668 Y132.228534 Z-0.125000 F400.000000
G01 X90.480919 Y135.964253 Z-0.125000
G02 X90.490085 Y139.613845 Z-0.125000 I77.353828 J1.630526
G02 X90.578520 Y139.700001 Z-0.125000 I0.088435 J-0.002309
G02 X90.743606 Y139.657310 Z-0.125000 I0.000000 J-0.340539
G02 X98.418380 Y135.354625 Z-0.125000 I-439.322502 J-792.623372
G03 X106.084395 Y131.013715 Z-0.125000 I3754.247340 J6621.034066
G03 X108.339668 Y129.744245 Z-0.125000 I322.959323 J571.114324
G01 X110.597445 Y128.479240 Z-0.125000
G01 X110.676194 Y124.776287 Z-0.125000
G02 X110.645760 Y121.186793 Z-0.125000 I-60.343792 J-1.283238
G02 X110.535083 Y121.086429 Z-0.125000 I-0.104466 J0.003995
G02 X110.328957 Y121.146032 Z-0.125000 I0.028232 J0.483864
G02 X100.437445 Y126.664015 Z-0.125000 I656.171479 J1187.874688
G01 X100.437445 Y126.664015 Z-0.125000
G00 Z5.000000

(End cutting path id: path9302)


(Start cutting path id: path9302)
(Change tool to Default tool)

G00 Z5.000000
G00 X126.361854 Y95.249916

G01 Z-0.125000 F100.0(Penetrate)
G03 X127.321438 Y96.556533 Z-0.125000 I-0.732507 J1.543625 F400.000000
G03 X128.236334 Y108.632555 Z-0.125000 I-94.433079 J13.227053
G01 X128.377446 Y120.321804 Z-0.125000
G01 X130.413329 Y121.524015 Z-0.125000
G01 X132.449210 Y122.726225 Z-0.125000
G01 X132.529996 Y112.756838 Z-0.125000
G03 X132.870063 Y102.887508 Z-0.125000 I187.468323 J1.519065
G03 X133.175223 Y102.154765 Z-0.125000 I1.208970 J0.073576
G03 X135.772828 Y100.964524 Z-0.125000 I2.658095 J2.371425
G03 X138.101274 Y102.071114 Z-0.125000 I0.049242 J2.899395
G03 X138.409170 Y102.898267 Z-0.125000 I-1.136400 J0.893891
G03 X138.678557 Y114.564132 Z-0.125000 I-252.462430 J11.665866
G01 X138.678557 Y126.323260 Z-0.125000
G01 X140.761385 Y127.508283 Z-0.125000
G02 X142.854927 Y128.652852 Z-0.125000 I34.753239 J-61.080529
G02 X143.019163 Y128.693334 Z-0.125000 I0.164236 J-0.312912
G02 X143.107418 Y128.606637 Z-0.125000 I0.000000 J-0.088270
G02 X143.194112 Y118.878351 Z-0.125000 I-545.782874 J-9.728287
G03 X143.940051 Y108.715247 Z-0.125000 I69.606966 J0.000000
G03 X144.890561 Y107.383948 Z-0.125000 I1.774362 J0.261876
G03 X146.157327 Y107.081642 Z-0.125000 I1.243170 J2.404067
G03 X147.574653 Y107.407372 Z-0.125000 I-0.029420 J3.374429
G03 X148.584721 Y108.792421 Z-0.125000 I-0.769798 J1.622216
G03 X149.403001 Y121.128593 Z-0.125000 I-92.579304 J12.336172
G01 X149.403001 Y132.528537 Z-0.125000
G01 X151.449112 Y133.698263 Z-0.125000
G01 X153.495223 Y134.867961 Z-0.125000
G01 X153.636335 Y124.936759 Z-0.125000
G03 X154.563555 Y114.625708 Z-0.125000 I68.640949 J0.975317
G03 X155.579319 Y113.279626 Z-0.125000 I1.796630 J0.299458
G03 X157.539835 Y113.085462 Z-0.125000 I1.250963 J2.636285
G03 X159.265638 Y114.203735 Z-0.125000 I-0.773098 J3.083935
G03 X159.574778 Y115.034194 Z-0.125000 I-1.141047 J0.897526
G03 X159.845224 Y126.736067 Z-0.125000 I-253.028449 J11.701873
G01 X159.845224 Y138.531573 Z-0.125000
G01 X161.926079 Y139.680217 Z-0.125000
G02 X164.017229 Y140.788940 Z-0.125000 I33.868295 J-61.352205
G02 X164.183857 Y140.828890 Z-0.125000 I0.166628 J-0.327522
G02 X164.273112 Y140.741222 Z-0.125000 I0.000000 J-0.089270
G02 X164.360779 Y130.972758 Z-0.125000 I-544.190759 J-9.768464
G01 X164.360779 Y121.116627 Z-0.125000
G01 X165.083347 Y120.257909 Z-0.125000
G03 X166.778141 Y119.245634 Z-0.125000 I2.311364 J1.944897
G03 X168.782222 Y119.486681 Z-0.125000 I0.644653 J3.091864
G03 X169.767396 Y120.845278 Z-0.125000 I-0.755540 J1.584366
G03 X170.569956 Y133.270386 Z-0.125000 I-95.818422 J12.427557
G01 X170.570238 Y144.638890 Z-0.125000
G01 X171.973475 Y145.427015 Z-0.125000
G03 X173.316364 Y147.238937 Z-0.125000 I-1.350479 J2.404490
G03 X174.238557 Y155.722369 Z-0.125000 I-38.559264 J8.483432
G03 X174.057261 Y163.954623 Z-0.125000 I-186.995445 J-0.000000
G03 X173.840245 Y164.761238 Z-0.125000 I-1.922410 J-0.084714
G03 X173.285573 Y165.369410 Z-0.125000 I-1.430541 J-0.747675
G03 X168.548579 Y168.179624 Z-0.125000 I-39.216621 J-60.707370
G02 X163.675375 Y170.872037 Z-0.125000 I178.754027 J329.296893
G02 X154.765224 Y175.929057 Z-0.125000 I621.803017 J1105.956070
G03 X145.807561 Y180.762118 Z-0.125000 I-99.301617 J-173.329338
G03 X144.746335 Y181.009514 Z-0.125000 I-1.035499 J-2.042052
G03 X143.690052 Y180.730515 Z-0.125000 I0.025132 J-2.234176
G03 X114.407445 Y164.228967 Z-0.125000 I1023.578019 J-1850.609376
G03 X85.422738 Y147.248484 Z-0.125000 I947.170581 J-1649.993578
G03 X84.703994 Y146.473334 Z-0.125000 I0.966640 J-1.617095
G03 X84.427559 Y145.434361 Z-0.125000 I2.382384 J-1.190131
G03 X84.210105 Y137.785941 Z-0.125000 I134.669551 J-7.656128
G03 X84.379757 Y130.120422 Z-0.125000 I172.886409 J-0.008354
G03 X84.592101 Y129.171023 Z-0.125000 I2.779509 J0.123226
G03 X85.184455 Y128.441944 Z-0.125000 I1.533459 J0.640712
G03 X90.377657 Y125.196093 Z-0.125000 I39.999020 J58.219105
G01 X95.780779 Y122.136437 Z-0.125000
G01 X95.780779 Y117.127388 Z-0.125000
G03 X96.027619 Y112.203779 Z-0.125000 I49.227891 J-0.000000
G03 X96.358061 Y111.384448 Z-0.125000 I1.573057 J0.158125
G03 X97.728831 Y110.403031 Z-0.125000 I2.373235 J1.866755
G03 X99.529658 Y110.268118 Z-0.125000 I1.150314 J3.268236
G03 X100.177922 Y110.526800 Z-0.125000 I-0.345764 J1.808115
G03 X101.046393 Y111.241220 Z-0.125000 I-2.579599 J4.020925
G03 X101.558456 Y112.199286 Z-0.125000 I-1.450751 J1.391265
G03 X101.943397 Y115.305502 Z-0.125000 I-16.294794 J3.596313
G02 X102.094808 Y118.475080 Z-0.125000 I86.384719 J-2.538191
G02 X102.157045 Y118.533334 Z-0.125000 I0.062237 J-0.004119
G02 X102.268270 Y118.504640 Z-0.125000 I0.000000 J-0.229915
G02 X106.577760 Y116.089769 Z-0.125000 I-205.597747 J-371.954930
G03 X110.903478 Y113.692619 Z-0.125000 I115.857175 J203.965654
G03 X112.353023 Y112.968448 Z-0.125000 I11.974103 J22.155270
G01 X113.826375 Y112.290663 Z-0.125000
G01 X115.051129 Y112.832445 Z-0.125000
G03 X116.253009 Y113.419233 Z-0.125000 I-7.175054 J16.220460
G03 X119.032898 Y114.965989 Z-0.125000 I-47.386339 J88.436002
G02 X121.797604 Y116.529088 Z-0.125000 I87.909230 J-152.261417
G02 X121.908681 Y116.557778 Z-0.125000 I0.111077 J-0.200674
G02 X121.968422 Y116.498756 Z-0.125000 I0.000000 J-0.059746
G02 X122.027446 Y106.742795 Z-0.125000 I-806.251852 J-9.755960
G03 X122.820765 Y96.535556 Z-0.125000 I66.062316 J0.000000
G03 X123.827544 Y95.232192 Z-0.125000 I1.688999 J0.264138
G03 X125.125055 Y94.966817 Z-0.125000 I1.275096 J2.929701
G03 X126.361854 Y95.249972 Z-0.125000 I-0.020574 J2.932556
G01 X126.361854 Y95.249916 Z-0.125000
G00 Z5.000000

(End cutting path id: path9302)


(Start cutting path id: path9302)
(Change tool to Default tool)

G00 Z5.000000
G00 X93.523001 Y69.671580

G01 Z-0.125000 F100.0(Penetrate)
G01 X54.999667 Y91.929628 Z-0.125000 F400.000000
G01 X54.999667 Y136.628689 Z-0.125000
G01 X54.999667 Y181.327779 Z-0.125000
G01 X93.523001 Y203.552553 Z-0.125000
G02 X132.065105 Y225.706721 Z-0.125000 I6999.960937 J-12133.386081
G02 X132.328557 Y225.776312 Z-0.125000 I0.261557 J-0.456712
G02 X132.592006 Y225.705691 Z-0.125000 I-0.001942 J-0.533953
G02 X171.134112 Y203.548932 Z-0.125000 I-7050.102775 J-12308.389507
G01 X209.657446 Y181.322572 Z-0.125000
G01 X209.657446 Y136.631596 Z-0.125000
G01 X209.657446 Y91.940635 Z-0.125000
G01 X171.134112 Y69.680046 Z-0.125000
G02 X132.591966 Y47.488151 Z-0.125000 I-7180.554238 J12426.383111
G02 X132.328557 Y47.416466 Z-0.125000 I-0.269112 J0.469063
G02 X132.065131 Y47.484091 Z-0.125000 I-0.009286 J0.510716
G02 X93.523001 Y69.671580 Z-0.125000 I6979.145801 J12168.120495
G01 X93.523001 Y69.671580 Z-0.125000
G00 Z5.000000

(End cutting path id: path9302)


(Footer)
M5
G00 X0.0000 Y0.0000
M2
(Using default footer. To add your own footer create file "footer" in the output dir.)
(end)
%